;Project loidolt@gmail
;Created by Estlcam version 8 build 8.211
;Machining time about 12:41:20 AM hours

G90
M03 S24000
G00 Z2.0000


;No. 1: Roughing
G00 X13.8000 Y9.8000
G01 Z-7.0000 F1200 S24000
G01 X15.0000
G01 X15.2000 Z-0.5435
G01 X15.6000 Z-0.0561
G01 Z-0.9583
G01 Y8.2000
G01 Z-7.0000
G01 X17.0000
G01 X17.4000 Z-0.2001
G01 Z-0.8001
G01 X17.0000 Y7.0000
G01 Z-7.0000
G01 X18.6000
G01 X18.8000 Z-0.5435
G01 X19.2000 Z-0.0561
G01 Z-0.9583
G01 X19.4000 Y5.4000
G01 Z-7.0000
G01 X21.0000
G01 X21.2000 Z-0.7000
G01 X21.6000 Z-0.1826
G01 Z-0.7826
G01 X21.2000 Y4.2000
G01 Z-7.0000
G01 X23.0000
G01 X23.2000 Z-0.6539
G01 X23.6000 Z-0.1826
G01 Z-1.1435
G01 X23.8000 Y2.6000
G01 Z-7.0000
G01 X25.8000
G01 X26.0000 Z-0.6539
G01 X26.6000 Z-0.0708
G01 Z-0.6708
G01 X26.2000 Y1.4000
G01 Z-7.0000
G01 X28.8000
G01 X29.0000 Z-0.6539
G01 X29.8000 Z-0.0708
G01 Z-1.0298
G01 X30.4000 Y-0.2000
G01 Z-7.0000
G01 X33.4000
G01 X33.6000 Z-0.6539
G01 X34.4000 Z-0.0708
G01 Z-0.6708
G01 X34.0000 Y-1.4000
G01 Z-7.0000
G01 X39.0000
G01 X39.4000 Z-0.4298
G01 X40.8000 Z0.0402
G01 X46.2000 Z0.3841
G01 X52.2000 Z0.2360
G01 X55.6000 Z-0.3150
G01 X56.0000 Z-0.6539
G01 X56.2000 Z-7.0000
G01 X61.0000
G01 Z-0.0708
G01 X60.6000 Y-0.2000
G01 X61.4000 Z-0.6539
G01 X61.6000 Z-7.0000
G01 X64.6000
G01 Z-0.0561
G01 X65.2000 Y1.4000
G01 X66.0000 Z-0.6539
G01 X66.2000 Z-7.0000
G01 X68.8000
G01 Z-0.0708
G01 X68.4000 Y2.6000
G01 X69.0000 Z-0.6539
G01 X69.2000 Z-7.0000
G01 X71.2000
G01 Z-0.1826
G01 X71.4000 Y4.2000
G01 X71.8000 Z-0.6539
G01 X72.0000 Z-7.0000
G01 X73.8000
G01 Z-0.1826
G01 X73.4000 Y5.4000
G01 X73.8000 Z-0.7000
G01 X74.0000 Z-7.0000
G01 X75.6000
G01 Z-0.0561
G01 X75.8000 Y7.0000
G01 X76.2000 Z-0.5435
G01 X76.4000 Z-7.0000
G01 X78.0000
G01 Z-0.2001
G01 X77.6000 Y8.2000
G01 X78.0000 Z-7.0000
G01 X79.4000
G01 Z-0.2001
G01 X79.6000 Y9.8000
G01 X80.0000 Z-7.0000
G01 X81.2000
G01 Z-0.2001
G01 X80.8000 Y11.0000
G01 X81.2000 Z-7.0000
G01 X82.4000
G01 X84.0000 Y12.6000
G01 X82.8000
G01 X82.6000 Z-0.5435
G01 X82.0000 Z0.1609
G01 X80.8000 Z0.5805
G01 X69.0000 Z0.5954
G01 X67.2000 Z0.2360
G01 X66.0000 Z-0.5435
G01 X65.8000 Z-5.0224
G01 X58.4000 Z-5.2060
G01 X56.8000 Z-4.2278
G01 X55.4000 Z-4.1545
G01 X51.8000 Z-4.5042
G01 X48.2000 Z-4.3205
G01 X45.4000 Z-5.0670
G01 X42.0000 Z-5.2859
G01 X35.2000 Z-4.9100
G01 X32.2000 Z-5.2121
G01 X29.2000 Z-5.1139
G01 X29.0000 Z-0.7000
G01 X27.8000 Z0.2360
G01 X26.0000 Z0.5954
G01 X14.6000 Z0.6000
G01 X13.2000 Z0.2759
G01 X12.4000 Z-0.5435
G01 X12.2000 Z-7.0000
G01 X11.0000
G01 X9.8000 Y13.8000
G01 X11.0000
G01 X11.2000 Z-0.5435
G01 X12.0000 Z0.2759
G01 X13.4000 Z0.6000
G01 X24.0000 Z0.5954
G01 X25.8000 Z0.2360
G01 X26.8000 Z-0.5435
G01 X28.0000 Z-5.1273
G01 X30.0000 Z-5.2348
G01 X37.2000 Z-4.9632
G01 X39.8000 Z-3.9693
G01 X43.0000 Z-5.0290
G01 X50.2000 Z-4.5398
G01 X53.4000 Z-4.6682
G01 X55.6000 Z-4.1584
G01 X57.4000 Z-4.2225
G01 X59.2000 Z-5.1303
G01 X68.0000 Z-4.8232
G01 X68.2000 Z-0.6539
G01 X69.2000 Z0.2360
G01 X71.0000 Z0.5954
G01 X82.0000 Z0.5805
G01 X83.2000 Z0.1609
G01 X83.8000 Z-0.5435
G01 X84.0000 Z-7.0000
G01 X85.2000
G01 X86.6000 Y15.4000
G01 X85.6000
G01 X85.4000 Z-0.7000
G01 X84.8000 Z0.1609
G01 X83.6000 Z0.5805
G01 X72.0000 Z0.4164
G01 X70.4000 Z-0.7000
G01 X69.4000 Z-4.1547
G01 X65.4000 Z-4.3835
G01 X64.2000 Z-4.9462
G01 X62.8000 Z-5.1224
G01 X60.6000 Z-5.0906
G01 X56.6000 Z-4.3903
G01 X55.0000 Z-4.4790
G01 X54.0000 Z-4.3090
G01 X53.0000 Z-3.6983
G01 X50.8000 Z-3.4334
G01 X44.0000 Z-3.3835
G01 X41.6000 Z-3.7272
G01 X39.2000 Z-3.4878
G01 X35.0000 Z-5.1296
G01 X29.6000 Z-5.2972
G01 X24.6000 Z-4.8339
G01 X24.4000 Z-0.7000
G01 X23.2000 Z0.3586
G01 X21.8000 Z0.5997
G01 X11.8000 Z0.6000
G01 X10.6000 Z0.3757
G01 X9.8000 Z-0.2363
G01 X9.4000 Z-7.0000
G01 X8.4000
G01 X7.4000 Y16.6000
G01 X8.4000
G01 X8.8000 Z-0.2363
G01 X9.6000 Z0.3757
G01 X10.8000 Z0.6000
G01 X21.4000 Z0.4470
G01 X22.8000 Z-0.7000
G01 X23.0000 Z-4.8693
G01 X31.8000 Z-5.4269
G01 X35.0000 Z-5.2049
G01 X39.0000 Z-3.4982
G01 X42.2000 Z-3.5785
G01 X43.4000 Z-3.3327
G01 X53.2000 Z-3.3601
G01 X54.6000 Z-4.1125
G01 X58.0000 Z-3.7759
G01 X59.6000 Z-4.8680
G01 X63.6000 Z-4.9123
G01 X64.8000 Z-4.1898
G01 X70.2000 Z-3.5471
G01 X71.2000 Z-3.0592
G01 X72.0000 Z-0.7000
G01 X73.6000 Z0.4470
G01 X84.6000 Z0.5805
G01 X85.8000 Z0.1609
G01 X86.4000 Z-0.7000
G01 X86.6000 Z-7.0000
G01 X87.6000
G01 X88.8000 Y18.2000
G01 X87.8000
G01 X87.6000 Z-0.7000
G01 X87.0000 Z0.1609
G01 X86.0000 Z0.5805
G01 X75.4000 Z0.4470
G01 X74.0000 Z-0.5435
G01 X73.2000 Z-3.4112
G01 X72.0000 Z-3.7538
G01 X68.0000 Z-3.5997
G01 X65.2000 Z-4.4198
G01 X62.2000 Z-4.6188
G01 X61.0000 Z-4.5408
G01 X58.2000 Z-3.3838
G01 X55.4000 Z-3.8160
G01 X52.6000 Z-3.3639
G01 X43.2000 Z-3.3616
G01 X38.2000 Z-3.5750
G01 X35.0000 Z-5.0387
G01 X27.4000 Z-5.1677
G01 X24.6000 Z-4.5935
G01 X22.6000 Z-4.8687
G01 X21.6000 Z-4.1427
G01 X20.8000 Z-0.5435
G01 X19.6000 Z0.4470
G01 X9.4000 Z0.6000
G01 X8.2000 Z0.3046
G01 X7.4000 Z-0.7000
G01 X7.2000 Z-7.0000
G01 X6.2000
G01 X5.4000 Y19.4000
G01 X6.4000
G01 X6.6000 Z-0.7000
G01 X7.4000 Z0.3046
G01 X8.6000 Z0.6000
G01 X18.2000 Z0.5086
G01 X19.0000 Z0.1609
G01 X19.6000 Z-0.5435
G01 X20.4000 Z-4.2293
G01 X21.4000 Z-5.0751
G01 X23.4000 Z-4.5935
G01 X25.8000 Z-4.4691
G01 X27.4000 Z-5.0482
G01 X29.2000 Z-5.1085
G01 X30.6000 Z-5.0919
G01 X32.6000 Z-4.4845
G01 X36.0000 Z-4.5589
G01 X38.2000 Z-3.5666
G01 X41.2000 Z-3.8504
G01 X47.0000 Z-3.3528
G01 X51.8000 Z-3.4214
G01 X54.6000 Z-3.9583
G01 X55.8000 Z-3.8599
G01 X57.0000 Z-3.2903
G01 X58.4000 Z-3.2777
G01 X59.8000 Z-3.7647
G01 X65.0000 Z-3.7510
G01 X66.4000 Z-4.2287
G01 X71.4000 Z-3.5046
G01 X73.4000 Z-4.0552
G01 X74.6000 Z-3.3450
G01 X75.2000 Z-0.5435
G01 X76.6000 Z0.4470
G01 X86.8000 Z0.5805
G01 X87.8000 Z0.1609
G01 X88.4000 Z-0.7000
G01 X88.6000 Z-7.0000
G01 X89.6000
G01 X90.6000 Y21.0000
G01 X89.6000
G01 X89.4000 Z-0.5435
G01 X88.8000 Z0.2360
G01 X87.8000 Z0.5841
G01 X79.0000 Z0.5997
G01 X78.0000 Z0.3757
G01 X76.8000 Z-0.5435
G01 X76.4000 Z-4.4285
G01 X74.2000 Z-4.4262
G01 X71.8000 Z-3.8727
G01 X70.6000 Z-3.9498
G01 X69.2000 Z-4.5505
G01 X67.0000 Z-4.5529
G01 X65.4000 Z-3.6312
G01 X61.4000 Z-3.5867
G01 X59.4000 Z-3.9195
G01 X57.8000 Z-3.6315
G01 X57.0000 Z-3.8119
G01 X55.8000 Z-5.0273
G01 X55.2000 Z-5.1474
G01 X49.4000 Z-4.7472
G01 X47.8000 Z-4.1805
G01 X46.0000 Z-4.8769
G01 X42.6000 Z-5.0806
G01 X39.0000 Z-3.9811
G01 X36.6000 Z-4.4742
G01 X31.6000 Z-4.4393
G01 X29.4000 Z-5.0683
G01 X25.2000 Z-4.5697
G01 X22.4000 Z-5.1602
G01 X19.8000 Z-5.3146
G01 X18.8000 Z-4.4022
G01 X18.0000 Z-0.5435
G01 X17.0000 Z0.3757
G01 X16.2000 Z0.5954
G01 X7.6000 Z0.6000
G01 X6.2000 Z0.2360
G01 X5.6000 Z-0.6539
G01 X5.4000 Z-7.0000
G01 X4.4000
G01 X3.6000 Y22.2000
G01 X4.6000
G01 X4.8000 Z-0.7000
G01 X5.6000 Z0.3046
G01 X6.8000 Z0.6000
G01 X16.0000 Z0.4164
G01 X17.0000 Z-0.5435
G01 X18.0000 Z-5.3939
G01 X22.0000 Z-4.6849
G01 X27.4000 Z-5.0653
G01 X34.0000 Z-4.3198
G01 X38.6000 Z-4.5754
G01 X40.2000 Z-5.5861
G01 X45.0000 Z-6.0254
G01 X52.6000 Z-5.1863
G01 X54.6000 Z-5.8804
G01 X57.2000 Z-5.8044
G01 X61.8000 Z-3.7111
G01 X67.8000 Z-4.1421
G01 X68.8000 Z-4.4968
G01 X71.8000 Z-4.0542
G01 X74.2000 Z-4.4728
G01 X77.0000 Z-4.3809
G01 X77.8000 Z-0.5435
G01 X79.0000 Z0.3757
G01 X80.0000 Z0.6000
G01 X88.6000 Z0.5841
G01 X89.6000 Z0.1609
G01 X90.2000 Z-0.7000
G01 X90.4000 Z-7.0000
G01 X91.4000
G01 Z0.0000
G01 X92.4000 Y23.8000
G01 Z-7.0000
G01 X91.4000
G01 X91.2000 Z-0.7000
G01 X90.6000 Z0.1609
G01 X89.6000 Z0.5805
G01 X81.2000 Z0.6000
G01 X80.2000 Z0.3757
G01 X79.0000 Z-0.7000
G01 X78.2000 Z-3.6763
G01 X77.2000 Z-4.3693
G01 X71.2000 Z-3.6822
G01 X68.8000 Z-4.4497
G01 X67.2000 Z-4.1737
G01 X63.4000 Z-4.4552
G01 X62.2000 Z-5.1458
G01 X59.4000 Z-5.4845
G01 X58.2000 Z-6.0104
G01 X54.2000 Z-5.5712
G01 X50.8000 Z-6.7411
G01 X47.0000 Z-7.0000
G01 X45.6000 Z-6.5052
G01 X43.4000 Z-6.2875
G01 X38.2000 Z-6.5995
G01 X30.8000 Z-4.6011
G01 X26.2000 Z-5.0504
G01 X24.6000 Z-4.5012
G01 X23.2000 Z-4.4855
G01 X18.8000 Z-5.2533
G01 X16.0000 Z-5.2694
G01 X15.8000 Z-0.7000
G01 X15.0000 Z0.3046
G01 X14.0000 Z0.5954
G01 X5.8000 Z0.6000
G01 X4.8000 Z0.4164
G01 X4.0000 Z-0.3583
G01 X3.8000 Z-7.0000
G01 X2.6000
G01 Z0.0000
G01 X2.0000 Y25.0000
G01 Z-7.0000
G01 X3.0000
G01 X3.2000 Z-0.3583
G01 X3.8000 Z0.2759
G01 X5.0000 Z0.6000
G01 X13.2000 Z0.5954
G01 X14.2000 Z0.2759
G01 X14.8000 Z-0.3583
G01 X15.0000 Z-5.1366
G01 X18.6000 Z-5.3437
G01 X23.8000 Z-4.7011
G01 X26.4000 Z-5.1573
G01 X30.2000 Z-4.7375
G01 X35.8000 Z-7.0000
G01 X50.2000 Z-6.9997
G01 X54.6000 Z-5.6285
G01 X57.8000 Z-6.1755
G01 X59.6000 Z-5.3977
G01 X63.0000 Z-5.7065
G01 X65.4000 Z-4.3653
G01 X71.6000 Z-3.6935
G01 X79.0000 Z-4.7391
G01 X80.0000 Z-4.5871
G01 X80.2000 Z-0.3583
G01 X81.0000 Z0.3757
G01 X81.8000 Z0.5954
G01 X90.2000
G01 X91.2000 Z0.2759
G01 X91.8000 Z-0.3583
G01 X92.0000 Z-7.0000
G01 X93.0000
G01 Z0.0000
G01 X93.8000 Y26.6000
G01 Z-7.0000
G01 X92.8000
G01 X92.6000 Z-0.6539
G01 X92.2000 Z0.0658
G01 X91.2000 Z0.5841
G01 X82.0000 Z0.4164
G01 X81.2000 Z-0.3583
G01 X80.8000 Z-4.8201
G01 X78.2000 Z-4.7460
G01 X76.6000 Z-4.0437
G01 X68.8000 Z-3.9999
G01 X66.2000 Z-4.3822
G01 X63.2000 Z-6.5545
G01 X60.2000 Z-6.2104
G01 X58.8000 Z-6.8258
G01 X57.6000 Z-6.9140
G01 X55.4000 Z-6.5254
G01 X52.2000 Z-7.0000
G01 X34.2000
G01 X31.8000 Z-6.6708
G01 X30.2000 Z-5.6454
G01 X28.6000 Z-5.1473
G01 X26.2000 Z-5.3525
G01 X23.0000 Z-4.9662
G01 X20.4000 Z-5.4340
G01 X14.0000 Z-5.1583
G01 X13.8000 Z-0.3583
G01 X13.2000 Z0.3046
G01 X12.2000 Z0.5954
G01 X4.2000 Z0.6000
G01 X3.0000 Z0.2360
G01 X2.4000 Z-0.6539
G01 X2.2000 Z-7.0000
G01 X1.4000
G01 X0.8000 Y27.8000
G01 X1.8000
G01 X2.0000 Z-0.4298
G01 X2.6000 Z0.3046
G01 X3.8000 Z0.6000
G01 X11.4000 Z0.5997
G01 X12.4000 Z0.3586
G01 X13.2000 Z-0.6539
G01 X13.4000 Z-5.1673
G01 X20.4000 Z-5.4531
G01 X24.0000 Z-4.9891
G01 X25.4000 Z-5.5417
G01 X28.4000 Z-5.5236
G01 X29.6000 Z-6.0862
G01 X30.4000 Z-7.0000
G01 X63.6000
G01 X67.2000 Z-4.6798
G01 X70.6000 Z-3.8208
G01 X75.8000 Z-4.0847
G01 X79.6000 Z-4.6506
G01 X80.8000 Z-3.9831
G01 X81.6000 Z-0.6539
G01 X83.0000 Z0.5086
G01 X91.6000 Z0.5874
G01 X92.4000 Z0.3046
G01 X93.0000 Z-0.3583
G01 X93.2000 Z-7.0000
G01 X94.2000
G01 Z0.0000
G01 X94.8000 Y29.4000
G01 Z-7.0000
G01 X93.8000
G01 X93.6000 Z-0.4298
G01 X93.0000 Z0.3046
G01 X92.2000 Z0.5874
G01 X84.0000 Z0.5268
G01 X82.6000 Z-0.3583
G01 X81.8000 Z-3.4054
G01 X80.8000 Z-4.0884
G01 X78.2000 Z-4.2020
G01 X76.2000 Z-3.6040
G01 X70.4000 Z-3.5046
G01 X69.6000 Z-3.8527
G01 X67.4000 Z-5.8220
G01 X65.0000 Z-6.9970
G01 X27.8000 Z-7.0000
G01 X24.8000 Z-6.6464
G01 X23.2000 Z-5.9382
G01 X20.8000 Z-5.7116
G01 X19.2000 Z-5.2190
G01 X12.4000 Z-5.2311
G01 X12.2000 Z-0.3583
G01 X11.6000 Z0.2759
G01 X10.6000 Z0.5954
G01 X3.0000 Z0.6000
G01 X2.0000 Z0.3046
G01 X1.4000 Z-0.4298
G01 X1.2000 Z-7.0000
G01 X0.2000
G01 X-0.2000 Y30.6000
G01 X0.8000
G01 X1.0000 Z-0.3150
G01 X1.6000 Z0.3499
G01 X2.6000 Z0.6000
G01 X10.0000 Z0.5997
G01 X10.8000 Z0.3757
G01 X11.6000 Z-0.6539
G01 X11.8000 Z-5.2857
G01 X19.0000 Z-5.2170
G01 X22.2000 Z-5.9987
G01 X23.4000 Z-6.7288
G01 X26.0000 Z-7.0000
G01 X66.4000
G01 X67.6000 Z-6.5331
G01 X69.8000 Z-3.9505
G01 X70.8000 Z-3.5200
G01 X76.8000 Z-3.5694
G01 X78.2000 Z-4.1626
G01 X81.2000 Z-4.0758
G01 X82.4000 Z-3.5915
G01 X83.2000 Z-0.6539
G01 X84.6000 Z0.5268
G01 X92.6000 Z0.5954
G01 X93.4000 Z0.3499
G01 X94.0000 Z-0.3150
G01 X94.2000 Z-7.0000
G01 X95.2000
G01 Z0.0000
G01 X95.8000 Y32.2000
G01 Z-7.0000
G01 X94.8000
G01 X94.6000 Z-0.4298
G01 X94.0000 Z0.3046
G01 X93.2000 Z0.5874
G01 X85.2000 Z0.4958
G01 X84.0000 Z-0.3583
G01 X83.2000 Z-3.8940
G01 X82.0000 Z-4.4531
G01 X77.4000 Z-4.0821
G01 X75.0000 Z-3.4653
G01 X72.4000 Z-3.3927
G01 X70.8000 Z-4.0960
G01 X69.2000 Z-6.3340
G01 X67.8000 Z-7.0000
G01 X23.8000
G01 X22.2000 Z-5.9987
G01 X19.8000 Z-5.4031
G01 X12.6000 Z-5.3422
G01 X11.6000 Z-4.3467
G01 X10.8000 Z-0.3583
G01 X9.8000 Z0.4958
G01 X2.0000 Z0.6000
G01 X1.0000 Z0.3046
G01 X0.4000 Z-0.4298
G01 X0.2000 Z-7.0000
G01 X-0.8000
G01 Z0.0000
G01 X-1.2000 Y33.4000
G01 Z-7.0000
G01 X-0.2000
G01 X0.0000 Z-0.4298
G01 X0.6000 Z0.3046
G01 X1.6000 Z0.6000
G01 X9.4000 Z0.4958
G01 X10.4000 Z-0.4298
G01 X11.2000 Z-4.4940
G01 X12.2000 Z-5.4659
G01 X14.6000 Z-5.2499
G01 X19.6000 Z-5.4466
G01 X23.2000 Z-7.0000
G01 X69.2000 Z-6.9891
G01 X70.8000 Z-5.6626
G01 X71.6000 Z-4.0328
G01 X72.4000 Z-3.5297
G01 X73.8000 Z-3.4645
G01 X76.6000 Z-4.0408
G01 X82.4000 Z-4.5384
G01 X83.6000 Z-3.7986
G01 X84.4000 Z-0.4298
G01 X85.4000 Z0.4164
G01 X93.6000 Z0.5874
G01 X94.4000 Z0.3046
G01 X95.0000 Z-0.4298
G01 X95.2000 Z-7.0000
G01 X96.2000
G01 Z0.0000
G01 X96.6000 Y35.0000
G01 Z-7.0000
G01 X95.6000
G01 X95.4000 Z-0.2551
G01 X94.2000 Z0.5841
G01 X86.2000 Z0.5268
G01 X85.0000 Z-0.3150
G01 X84.2000 Z-4.0208
G01 X83.0000 Z-4.7760
G01 X73.2000 Z-3.8033
G01 X72.2000 Z-4.2342
G01 X71.6000 Z-5.4637
G01 X70.8000 Z-6.2321
G01 X69.0000 Z-6.9799
G01 X22.2000 Z-7.0000
G01 X21.0000 Z-6.0720
G01 X19.6000 Z-5.6617
G01 X16.2000 Z-5.3865
G01 X10.2000 Z-5.6700
G01 X9.8000 Z-0.3150
G01 X9.2000 Z0.3499
G01 X8.4000 Z0.5954
G01 X1.2000 Z0.6000
G01 X0.2000 Z0.3757
G01 X-0.4000 Z-0.2551
G01 X-0.6000 Z-7.0000
G01 X-1.6000
G01 X-1.8000 Y36.2000
G01 X-0.8000
G01 X-0.6000 Z-0.2363
G01 X0.0000 Z0.3841
G01 X0.8000 Z0.6000
G01 X8.0000 Z0.5997
G01 X9.0000 Z0.2360
G01 X9.6000 Z-0.6539
G01 X9.8000 Z-5.7454
G01 X15.0000 Z-5.5637
G01 X20.0000 Z-5.9209
G01 X21.2000 Z-6.2149
G01 X22.0000 Z-7.0000
G01 X70.2000
G01 X71.2000 Z-6.5848
G01 X72.6000 Z-4.6155
G01 X73.6000 Z-4.0812
G01 X83.4000 Z-4.9585
G01 X84.6000 Z-4.1646
G01 X85.4000 Z-0.2551
G01 X86.6000 Z0.5436
G01 X94.4000 Z0.5874
G01 X95.6000 Z-0.2363
G01 X95.8000 Z-7.0000
G01 X96.8000
G01 X97.2000 Y37.8000
G01 X96.2000
G01 X96.0000 Z-0.3150
G01 X95.4000 Z0.3499
G01 X94.6000 Z0.5954
G01 X87.4000 Z0.5997
G01 X86.6000 Z0.3757
G01 X85.8000 Z-0.2551
G01 X85.0000 Z-4.3419
G01 X83.8000 Z-5.2576
G01 X77.0000 Z-4.4156
G01 X75.8000 Z-3.7799
G01 X74.2000
G01 X73.4000 Z-4.1478
G01 X71.8000 Z-6.2840
G01 X70.8000 Z-6.9868
G01 X21.2000 Z-7.0000
G01 X18.4000 Z-5.8420
G01 X9.2000 Z-5.8883
G01 X9.0000 Z-0.2551
G01 X8.6000 Z0.2360
G01 X7.6000 Z0.5997
G01 X0.6000 Z0.6000
G01 X-0.4000 Z0.3499
G01 X-1.0000 Z-0.3150
G01 X-1.2000 Z-7.0000
G01 X-2.2000
G01 Z0.0000
G01 X-2.4000 Y39.0000
G01 Z-7.0000
G01 X-1.4000
G01 X-1.2000 Z-0.2551
G01 X-0.6000 Z0.3757
G01 X0.4000 Z0.6000
G01 X7.2000
G01 X8.2000 Z0.3046
G01 X8.8000 Z-0.4298
G01 X9.0000 Z-5.8864
G01 X17.6000 Z-6.0590
G01 X18.8000 Z-6.3368
G01 X19.8000 Z-7.0000
G01 X70.8000
G01 X71.8000 Z-6.4300
G01 X73.4000 Z-4.2053
G01 X74.4000 Z-3.8016
G01 X75.8000 Z-3.8332
G01 X81.0000 Z-5.1398
G01 X84.0000 Z-5.5626
G01 X85.2000 Z-4.5477
G01 X86.0000 Z-0.4298
G01 X87.0000 Z0.4164
G01 X95.0000 Z0.5841
G01 X96.2000 Z-0.2551
G01 X96.4000 Z-7.0000
G01 X97.4000
G01 X97.6000 Y40.6000
G01 X96.8000
G01 X96.6000 Z-0.6539
G01 X96.0000 Z0.2462
G01 X95.2000 Z0.5874
G01 X88.0000 Z0.5954
G01 X87.2000 Z0.3499
G01 X86.4000 Z-0.3150
G01 X85.6000 Z-4.5215
G01 X84.4000 Z-5.4309
G01 X82.2000 Z-5.2850
G01 X79.4000 Z-4.4790
G01 X74.6000 Z-4.0329
G01 X73.4000 Z-4.6158
G01 X72.4000 Z-6.7977
G01 X71.2000 Z-6.9311
G01 X19.4000 Z-7.0000
G01 X18.4000 Z-6.4092
G01 X17.0000 Z-6.3359
G01 X15.0000 Z-5.6590
G01 X9.0000 Z-5.9116
G01 X8.4000 Z-0.3150
G01 X7.8000 Z0.3499
G01 X7.0000 Z0.5954
G01 X0.0000 Z0.6000
G01 X-1.0000 Z0.2462
G01 X-1.6000 Z-0.6539
G01 X-1.8000 Z-7.0000
G01 X-2.6000
G01 X-2.8000 Y41.8000
G01 X-1.8000
G01 X-1.6000 Z-0.2363
G01 X-1.0000 Z0.3841
G01 X-0.2000 Z0.6000
G01 X6.6000
G01 X7.6000 Z0.3046
G01 X8.2000 Z-0.4298
G01 X9.0000 Z-5.9713
G01 X11.8000 Z-6.1103
G01 X15.4000 Z-5.7066
G01 X19.6000 Z-7.0000
G01 X69.8000
G01 X73.2000 Z-6.7029
G01 X74.4000 Z-4.9360
G01 X76.8000 Z-4.3124
G01 X79.4000 Z-4.4770
G01 X82.4000 Z-5.3095
G01 X84.6000 Z-5.4515
G01 X85.8000 Z-4.5512
G01 X86.6000 Z-0.4298
G01 X87.6000 Z0.4164
G01 X95.4000 Z0.5874
G01 X96.6000 Z-0.2363
G01 X96.8000 Z-7.0000
G01 X97.8000
G01 Y43.4000
G01 X96.8000
G01 X96.6000 Z-0.2363
G01 X95.4000 Z0.5874
G01 X87.8000 Z0.3841
G01 X87.0000 Z-0.2363
G01 X86.2000 Z-4.5934
G01 X85.0000 Z-5.6039
G01 X81.8000 Z-5.3198
G01 X79.0000 Z-4.4529
G01 X77.2000 Z-4.4274
G01 X75.2000 Z-4.7242
G01 X74.0000 Z-5.6494
G01 X73.6000 Z-6.5821
G01 X69.8000 Z-7.0000
G01 X18.8000
G01 X15.4000 Z-5.6380
G01 X14.0000 Z-5.7376
G01 X12.4000 Z-6.7411
G01 X9.4000 Z-6.7446
G01 X8.0000 Z-6.3543
G01 X7.8000 Z-0.2363
G01 X7.4000 Z0.2462
G01 X6.4000 Z0.6000
G01 X-0.2000
G01 X-1.0000 Z0.3841
G01 X-1.6000 Z-0.2363
G01 X-1.8000 Z-7.0000
G01 X-2.8000
G01 X-3.0000 Y44.6000
G01 X-2.0000
G01 X-1.8000 Z-0.2363
G01 X-1.2000 Z0.3841
G01 X-0.4000 Z0.6000
G01 X6.4000
G01 X7.4000 Z0.2462
G01 X7.8000 Z-0.2363
G01 X8.0000 Z-6.7114
G01 X8.6000 Z-7.0000
G01 X12.6000
G01 X14.4000 Z-6.2319
G01 X16.8000 Z-6.0868
G01 X17.8000 Z-6.2599
G01 X18.8000 Z-7.0000
G01 X45.8000
G01 X46.8000 Z-5.1597
G01 X47.8000 Z-4.5172
G01 X49.2000 Z-5.1286
G01 X50.4000 Z-7.0000
G01 X70.0000
G01 X73.8000 Z-6.5096
G01 X75.2000 Z-4.8984
G01 X76.2000 Z-4.4113
G01 X79.2000 Z-4.6448
G01 X82.4000 Z-5.5350
G01 X85.0000 Z-5.5652
G01 X86.2000 Z-4.5830
G01 X87.0000 Z-0.2363
G01 X87.8000 Z0.3841
G01 X95.6000 Z0.5874
G01 X96.8000 Z-0.2363
G01 X97.0000 Z-7.0000
G01 X98.0000
G01 Y46.2000
G01 X97.0000
G01 X96.8000 Z-0.2363
G01 X95.6000 Z0.5874
G01 X87.8000 Z0.3841
G01 X87.0000 Z-0.2363
G01 X86.8000 Z-3.0308
G01 X85.6000 Z-5.7838
G01 X76.8000 Z-4.9552
G01 X72.8000 Z-7.0000
G01 X51.4000
G01 X49.8000 Z-3.9294
G01 X48.2000 Z-3.3245
G01 X46.2000 Z-4.0762
G01 X45.2000 Z-6.4608
G01 X44.0000 Z-7.0000
G01 X19.0000
G01 X18.0000 Z-6.2192
G01 X16.8000 Z-6.0357
G01 X13.2000 Z-7.0000
G01 X8.6000
G01 X8.0000 Z-6.7372
G01 X7.8000 Z-0.2363
G01 X7.4000 Z0.2462
G01 X6.4000 Z0.6000
G01 X-0.4000
G01 X-1.2000 Z0.3841
G01 X-1.8000 Z-0.2363
G01 X-2.0000 Z-7.0000
G01 X-3.0000
G01 X-3.2000 Y47.4000
G01 X-2.2000
G01 X-2.0000 Z-0.2363
G01 X-1.4000 Z0.3841
G01 X-0.6000 Z0.6000
G01 X6.4000
G01 X7.4000 Z0.2462
G01 X7.8000 Z-0.2363
G01 X8.0000 Z-6.7898
G01 X8.6000 Z-7.0000
G01 X13.2000
G01 X14.4000 Z-6.2929
G01 X16.6000 Z-5.9926
G01 X18.0000 Z-6.2277
G01 X19.0000 Z-7.0000
G01 X42.6000
G01 X44.0000 Z-5.4178
G01 X45.6000 Z-4.9271
G01 X46.6000 Z-3.6374
G01 X47.8000 Z-3.2733
G01 X49.2000 Z-3.3298
G01 X50.0000 Z-3.8331
G01 X51.0000 Z-5.3228
G01 X51.6000 Z-7.0000
G01 X72.8000
G01 X74.8000 Z-5.4786
G01 X75.6000 Z-5.2331
G01 X79.4000 Z-5.1422
G01 X85.0000 Z-5.7841
G01 X86.2000 Z-4.7133
G01 X87.0000 Z-0.2363
G01 X87.8000 Z0.3841
G01 X95.8000 Z0.5874
G01 X97.0000 Z-0.2363
G01 X97.2000 Z-7.0000
G01 X98.2000
G01 X98.0000 Y49.0000
G01 X97.0000
G01 X96.8000 Z-0.2363
G01 X95.6000 Z0.5874
G01 X87.8000 Z0.3841
G01 X87.0000 Z-0.2363
G01 X86.2000 Z-4.7417
G01 X85.0000 Z-5.8162
G01 X81.4000 Z-5.8100
G01 X80.0000 Z-5.3374
G01 X75.8000 Z-5.3650
G01 X74.0000 Z-6.1782
G01 X73.0000 Z-7.0000
G01 X51.2000
G01 X49.8000 Z-4.7056
G01 X48.2000 Z-3.8202
G01 X47.2000 Z-4.1051
G01 X46.2000 Z-4.8921
G01 X43.8000 Z-5.2288
G01 X42.2000 Z-7.0000
G01 X18.6000
G01 X17.4000 Z-6.1377
G01 X15.4000 Z-5.9608
G01 X14.6000 Z-6.0852
G01 X13.0000 Z-7.0000
G01 X9.0000
G01 X8.0000 Z-6.7383
G01 X7.8000 Z-0.2363
G01 X7.4000 Z0.2462
G01 X6.4000 Z0.6000
G01 X-0.4000
G01 X-1.2000 Z0.3841
G01 X-1.8000 Z-0.2363
G01 X-2.0000 Z-7.0000
G01 X-3.0000
G01 Y50.2000
G01 X-2.0000
G01 X-1.8000 Z-0.2363
G01 X-1.2000 Z0.3841
G01 X-0.4000 Z0.6000
G01 X6.4000
G01 X7.4000 Z0.2462
G01 X7.8000 Z-0.2363
G01 X8.0000 Z-6.4464
G01 X10.0000 Z-7.0000
G01 X12.8000 Z-6.9767
G01 X15.8000 Z-6.1767
G01 X18.2000 Z-7.0000
G01 X42.2000
G01 X44.2000 Z-5.4213
G01 X46.4000 Z-4.8308
G01 X48.4000 Z-5.0176
G01 X51.2000 Z-6.9927
G01 X73.2000 Z-7.0000
G01 X74.2000 Z-6.0663
G01 X76.2000 Z-5.5962
G01 X82.0000 Z-6.3022
G01 X85.2000 Z-5.9728
G01 X86.2000 Z-4.8797
G01 X87.0000 Z-0.2363
G01 X87.8000 Z0.3841
G01 X95.6000 Z0.5874
G01 X96.8000 Z-0.2363
G01 X97.0000 Z-7.0000
G01 X98.0000
G01 X97.8000 Y51.8000
G01 X96.8000
G01 X96.6000 Z-0.2363
G01 X95.4000 Z0.5874
G01 X88.6000 Z0.6000
G01 X87.6000 Z0.2462
G01 X87.0000 Z-0.2363
G01 X86.2000 Z-6.3416
G01 X85.4000 Z-7.0000
G01 X81.4000
G01 X80.2000 Z-6.2069
G01 X78.0000 Z-5.8447
G01 X75.0000 Z-5.9072
G01 X73.4000 Z-7.0000
G01 X52.8000
G01 X48.6000 Z-4.8721
G01 X46.8000 Z-4.7185
G01 X44.8000 Z-5.1005
G01 X42.2000 Z-7.0000
G01 X10.6000
G01 X8.0000 Z-6.5190
G01 X7.8000 Z-0.2363
G01 X7.4000 Z0.2462
G01 X6.4000 Z0.6000
G01 X-0.2000
G01 X-1.0000 Z0.3841
G01 X-1.6000 Z-0.2363
G01 X-1.8000 Z-7.0000
G01 X-2.8000
G01 Y53.0000
G01 X-1.8000
G01 X-1.6000 Z-0.2363
G01 X-1.0000 Z0.3841
G01 X-0.2000 Z0.6000
G01 X6.6000
G01 X7.6000 Z0.2462
G01 X8.2000 Z-0.6539
G01 X8.4000 Z-6.7073
G01 X10.2000 Z-7.0000
G01 X42.0000
G01 X44.6000 Z-4.9749
G01 X46.4000 Z-4.4050
G01 X48.6000 Z-4.6553
G01 X54.0000 Z-7.0000
G01 X73.4000
G01 X74.6000 Z-6.1827
G01 X78.0000 Z-5.8447
G01 X80.4000 Z-6.0202
G01 X81.8000 Z-7.0000
G01 X85.2000
G01 X86.0000 Z-6.0393
G01 X86.6000 Z-0.6539
G01 X87.4000 Z0.2462
G01 X88.4000 Z0.6000
G01 X95.4000 Z0.5874
G01 X96.6000 Z-0.2363
G01 X96.8000 Z-7.0000
G01 X97.8000
G01 X97.6000 Y54.6000
G01 X96.6000
G01 X96.4000 Z-0.2363
G01 X95.2000 Z0.5874
G01 X88.0000 Z0.5997
G01 X87.2000 Z0.3757
G01 X86.6000 Z-0.2551
G01 X86.4000 Z-6.2178
G01 X83.0000 Z-6.8465
G01 X80.8000 Z-6.9066
G01 X79.6000 Z-6.3330
G01 X75.8000 Z-6.2163
G01 X74.4000 Z-6.3763
G01 X73.2000 Z-7.0000
G01 X55.0000 Z-6.9988
G01 X52.8000 Z-5.6012
G01 X50.8000 Z-5.1842
G01 X49.0000 Z-4.3266
G01 X46.8000 Z-4.0582
G01 X44.0000 Z-4.8518
G01 X41.2000 Z-7.0000
G01 X9.4000
G01 X8.6000 Z-6.7920
G01 X8.4000 Z-0.2551
G01 X8.0000 Z0.2360
G01 X7.0000 Z0.5997
G01 X0.0000 Z0.6000
G01 X-0.8000 Z0.3841
G01 X-1.4000 Z-0.2363
G01 X-1.6000 Z-7.0000
G01 X-2.6000
G01 X-2.4000 Y55.8000
G01 X-1.4000
G01 X-1.2000 Z-0.2363
G01 X-0.6000 Z0.3841
G01 X0.2000 Z0.6000
G01 X7.2000
G01 X8.2000 Z0.2462
G01 X8.8000 Z-0.6539
G01 X9.0000 Z-6.8022
G01 X9.8000 Z-7.0000
G01 X41.0000
G01 X42.8000 Z-5.3009
G01 X44.4000 Z-4.3115
G01 X46.4000 Z-4.0455
G01 X49.4000 Z-4.3488
G01 X51.0000 Z-5.1286
G01 X53.0000 Z-5.5938
G01 X55.0000 Z-7.0000
G01 X73.0000
G01 X75.8000 Z-6.3350
G01 X79.0000 Z-7.0000
G01 X81.2000
G01 X82.2000 Z-6.5263
G01 X86.0000 Z-6.2065
G01 X86.2000 Z-0.6539
G01 X87.0000 Z0.3841
G01 X95.0000 Z0.5874
G01 X96.2000 Z-0.2363
G01 X96.4000 Z-7.0000
G01 X97.4000
G01 X97.2000 Y57.4000
G01 X96.2000
G01 X96.0000 Z-0.4298
G01 X95.4000 Z0.3046
G01 X94.6000 Z0.5874
G01 X86.6000 Z0.3841
G01 X86.0000 Z-0.2363
G01 X85.8000 Z-6.4829
G01 X82.8000 Z-6.5890
G01 X81.6000 Z-7.0000
G01 X78.6000
G01 X76.0000 Z-6.5920
G01 X73.2000 Z-7.0000
G01 X54.8000
G01 X49.2000 Z-4.2775
G01 X46.2000 Z-4.1486
G01 X42.8000 Z-5.0453
G01 X40.8000 Z-7.0000
G01 X10.2000
G01 X9.2000 Z-6.5487
G01 X9.0000 Z-0.2363
G01 X8.6000 Z0.2462
G01 X7.6000 Z0.6000
G01 X0.6000
G01 X-0.4000 Z0.3046
G01 X-1.0000 Z-0.4298
G01 X-1.2000 Z-7.0000
G01 X-2.2000
G01 Z0.0000
G01 X-1.8000 Y58.6000
G01 Z-7.0000
G01 X-1.0000
G01 X-0.8000 Z-0.6539
G01 X-0.2000 Z0.2462
G01 X0.8000 Z0.6000
G01 X8.0000 Z0.5954
G01 X9.0000 Z0.2047
G01 X9.4000 Z-0.3150
G01 X9.6000 Z-6.8391
G01 X10.0000 Z-7.0000
G01 X41.0000
G01 X43.0000 Z-5.0922
G01 X46.2000 Z-4.3850
G01 X48.4000 Z-4.6267
G01 X53.6000 Z-7.0000
G01 X72.8000
G01 X75.2000 Z-6.5396
G01 X77.2000 Z-6.6118
G01 X78.2000 Z-7.0000
G01 X84.4000
G01 X85.4000 Z-0.3150
G01 X86.0000 Z0.2047
G01 X87.0000 Z0.5954
G01 X94.4000 Z0.5874
G01 X95.2000 Z0.2462
G01 X95.8000 Z-0.6539
G01 X96.0000 Z-7.0000
G01 X96.8000
G01 X96.6000 Y60.2000
G01 X95.6000
G01 X95.4000 Z-0.3150
G01 X94.8000 Z0.3499
G01 X94.0000 Z0.5954
G01 X86.6000 Z0.5997
G01 X85.6000 Z0.2360
G01 X85.0000 Z-0.6539
G01 X84.8000 Z-7.0000
G01 X82.4000 Z-6.9497
G01 X81.6000 Z-5.9263
G01 X80.4000 Z-5.6533
G01 X77.4000 Z-6.2893
G01 X74.0000 Z-6.2792
G01 X71.4000 Z-7.0000
G01 X50.8000
G01 X44.6000 Z-5.1297
G01 X42.6000 Z-5.6270
G01 X41.2000 Z-7.0000
G01 X10.2000
G01 X10.0000 Z-0.6539
G01 X9.4000 Z0.2360
G01 X8.4000 Z0.5997
G01 X1.2000 Z0.6000
G01 X0.2000 Z0.3499
G01 X-0.4000 Z-0.3150
G01 X-0.6000 Z-7.0000
G01 X-1.6000
G01 X-1.2000 Y61.4000
G01 X-0.2000
G01 X0.0000 Z-0.3150
G01 X0.6000 Z0.3499
G01 X1.6000 Z0.6000
G01 X8.8000 Z0.5997
G01 X9.8000 Z0.2360
G01 X10.4000 Z-0.6539
G01 X10.8000 Z-7.0000
G01 X41.8000
G01 X42.8000 Z-6.2904
G01 X45.0000 Z-5.8308
G01 X46.8000 Z-6.2172
G01 X48.0000 Z-7.0000
G01 X71.0000
G01 X73.4000 Z-6.2632
G01 X76.4000 Z-6.2343
G01 X77.2000 Z-5.6925
G01 X78.2000 Z-5.5883
G01 X81.4000 Z-5.6586
G01 X82.2000 Z-6.1620
G01 X82.6000 Z-7.0000
G01 X83.4000
G01 X84.4000 Z-0.6539
G01 X85.2000 Z0.2360
G01 X86.2000 Z0.5997
G01 X93.6000 Z0.5954
G01 X94.4000 Z0.3499
G01 X95.0000 Z-0.3150
G01 X95.2000 Z-7.0000
G01 X96.2000
G01 X95.6000 Y63.0000
G01 X94.8000
G01 X94.6000 Z-0.6539
G01 X94.2000 Z0.0658
G01 X93.2000 Z0.5841
G01 X85.6000 Z0.5954
G01 X84.6000 Z0.2360
G01 X83.8000 Z-0.6539
G01 X83.0000 Z-6.6127
G01 X81.8000 Z-6.9306
G01 X81.0000 Z-6.2730
G01 X78.2000 Z-5.6284
G01 X77.2000 Z-5.7440
G01 X76.4000 Z-6.2580
G01 X70.6000 Z-7.0000
G01 X12.8000
G01 X11.2000 Z-6.9747
G01 X11.0000 Z-0.6539
G01 X10.4000 Z0.2360
G01 X9.4000 Z0.5954
G01 X2.2000 Z0.6000
G01 X1.2000 Z0.3757
G01 X0.4000 Z-0.6539
G01 X0.2000 Z-7.0000
G01 X-0.6000
G01 X-0.2000 Y64.2000
G01 X0.6000
G01 X0.8000 Z-0.6539
G01 X1.6000 Z0.3757
G01 X2.6000 Z0.6000
G01 X10.0000 Z0.5954
G01 X11.0000 Z0.2047
G01 X11.4000 Z-0.3150
G01 X11.6000 Z-7.0000
G01 X70.6000
G01 X71.6000 Z-6.6998
G01 X75.6000 Z-6.7139
G01 X78.2000 Z-5.8044
G01 X81.4000 Z-7.0000
G01 X82.6000 Z-6.1649
G01 X83.4000 Z-0.3583
G01 X84.2000 Z0.3046
G01 X85.2000 Z0.6000
G01 X92.8000 Z0.5841
G01 X93.8000 Z0.0658
G01 X94.2000 Z-0.6539
G01 X94.4000 Z-7.0000
G01 X95.2000
G01 X94.6000 Y65.8000
G01 X93.8000
G01 X93.6000 Z-0.6539
G01 X93.2000 Z0.0658
G01 X92.2000 Z0.5841
G01 X84.4000 Z0.5997
G01 X83.2000 Z0.2360
G01 X82.4000 Z-0.6539
G01 X81.6000 Z-6.2246
G01 X80.6000 Z-7.0000
G01 X77.6000 Z-6.3208
G01 X75.4000 Z-7.0000
G01 X12.6000
G01 X12.4000 Z-0.6539
G01 X11.8000 Z0.2360
G01 X10.6000 Z0.5997
G01 X3.2000 Z0.6000
G01 X2.2000 Z0.3757
G01 X1.4000 Z-0.6539
G01 X1.2000 Z-7.0000
G01 X0.4000
G01 X0.8000 Y67.0000
G01 X1.8000
G01 X2.0000 Z-0.3150
G01 X2.6000 Z0.3499
G01 X3.6000 Z0.6000
G01 X11.4000 Z0.5954
G01 X12.6000 Z0.1381
G01 X13.0000 Z-0.3583
G01 X13.2000 Z-6.9187
G01 X13.6000 Z-7.0000
G01 X80.2000
G01 X81.0000 Z-5.9879
G01 X81.8000 Z-0.3583
G01 X82.6000 Z0.2759
G01 X83.6000 Z0.5954
G01 X91.6000
G01 X92.6000 Z0.2360
G01 X93.2000 Z-0.6539
G01 X93.4000 Z-7.0000
G01 X94.2000
G01 X93.6000 Y68.6000
G01 X92.6000
G01 X92.4000 Z-0.3150
G01 X91.8000 Z0.3499
G01 X91.0000 Z0.5954
G01 X82.6000
G01 X81.6000 Z0.2360
G01 X80.8000 Z-0.6539
G01 X80.4000 Z-5.3376
G01 X79.4000 Z-7.0000
G01 X15.2000
G01 X14.2000 Z-6.8072
G01 X14.0000 Z-0.6539
G01 X13.4000 Z0.2360
G01 X12.4000 Z0.5954
G01 X4.2000 Z0.6000
G01 X3.2000 Z0.3046
G01 X2.6000 Z-0.3583
G01 X2.4000 Z-7.0000
G01 X1.4000
G01 Z0.0000
G01 X1.8000 Y69.8000
G01 Z-7.0000
G01 X2.8000
G01 X3.0000 Z-0.6539
G01 X3.6000 Z0.2360
G01 X5.0000 Z0.6000
G01 X13.8000 Z0.4164
G01 X14.8000 Z-0.7000
G01 X15.0000 Z-6.9728
G01 X17.0000 Z-6.8820
G01 X18.6000 Z-6.3897
G01 X20.4000 Z-7.0000
G01 X79.8000
G01 X80.0000 Z-0.7000
G01 X81.0000 Z0.3046
G01 X82.0000 Z0.5954
G01 X90.4000 Z0.5841
G01 X91.4000 Z0.2360
G01 X92.0000 Z-0.6539
G01 X92.2000 Z-7.0000
G01 X93.2000
G01 Z0.0000
G01 X92.2000 Y71.4000
G01 Z-7.0000
G01 X91.2000
G01 X91.0000 Z-0.5435
G01 X90.4000 Z0.2360
G01 X89.4000 Z0.5841
G01 X81.0000 Z0.5997
G01 X79.8000 Z0.2759
G01 X79.2000 Z-0.3583
G01 X79.0000 Z-6.1770
G01 X77.6000 Z-7.0000
G01 X20.4000
G01 X19.2000 Z-6.4283
G01 X17.6000 Z-6.4685
G01 X16.6000 Z-5.6007
G01 X15.8000 Z-0.3583
G01 X15.2000 Z0.2759
G01 X14.2000 Z0.5954
G01 X6.0000 Z0.6000
G01 X4.6000 Z0.2360
G01 X4.0000 Z-0.6539
G01 X3.8000 Z-7.0000
G01 X2.8000
G01 Z0.0000
G01 X3.6000 Y72.6000
G01 Z-7.0000
G01 X4.6000
G01 X4.8000 Z-0.3583
G01 X5.4000 Z0.2759
G01 X6.6000 Z0.6000
G01 X15.0000 Z0.5954
G01 X16.2000 Z0.2360
G01 X16.8000 Z-0.5435
G01 X17.6000 Z-5.8526
G01 X18.4000 Z-7.0000
G01 X77.4000
G01 X78.0000 Z-6.3728
G01 X78.2000 Z-0.5435
G01 X79.0000 Z0.3046
G01 X80.0000 Z0.5954
G01 X88.6000
G01 X89.6000 Z0.2759
G01 X90.2000 Z-0.3583
G01 X90.4000 Z-7.0000
G01 X91.4000
G01 Z0.0000
G01 X90.6000 Y74.2000
G01 Z-7.0000
G01 X89.4000
G01 X89.2000 Z-0.3583
G01 X88.6000 Z0.2759
G01 X87.6000 Z0.5954
G01 X78.8000
G01 X77.4000 Z0.1609
G01 X76.8000 Z-0.5435
G01 X76.6000 Z-7.0000
G01 X18.4000
G01 X18.2000 Z-0.5435
G01 X17.6000 Z0.1609
G01 X16.2000 Z0.5997
G01 X7.6000 Z0.6000
G01 X6.4000 Z0.2759
G01 X5.8000 Z-0.3583
G01 X5.6000 Z-7.0000
G01 X4.6000
G01 X5.2000 Y75.4000
G01 X6.4000
G01 X6.6000 Z-0.3583
G01 X7.2000 Z0.2759
G01 X8.4000 Z0.6000
G01 X17.4000 Z0.5954
G01 X18.8000 Z0.1609
G01 X19.4000 Z-0.5435
G01 X20.2000 Z-7.0000
G01 X75.4000
G01 X75.6000 Z-0.5435
G01 X76.2000 Z0.1609
G01 X77.6000 Z0.5954
G01 X86.8000
G01 X87.8000 Z0.2759
G01 X88.4000 Z-0.3583
G01 X88.6000 Z-7.0000
G01 X89.8000
G01 X88.6000 Y77.0000
G01 X87.6000
G01 X87.4000 Z-0.5435
G01 X86.8000 Z0.2360
G01 X85.8000 Z0.5805
G01 X76.0000 Z0.5954
G01 X74.8000 Z0.2759
G01 X73.8000 Z-0.5435
G01 X73.0000 Z-6.7247
G01 X72.6000 Z-7.0000
G01 X21.2000
G01 X21.0000 Z-0.5435
G01 X20.4000 Z0.1609
G01 X19.0000 Z0.5954
G01 X9.6000 Z0.6000
G01 X8.4000 Z0.3586
G01 X7.6000 Z-0.5435
G01 X7.4000 Z-7.0000
G01 X6.4000
G01 X7.2000 Y78.2000
G01 X8.4000
G01 X8.6000 Z-0.3583
G01 X9.4000 Z0.3757
G01 X10.6000 Z0.6000
G01 X20.2000 Z0.5954
G01 X21.8000 Z0.1609
G01 X22.4000 Z-0.5435
G01 X22.6000 Z-7.0000
G01 X71.0000
G01 X71.6000 Z-6.2332
G01 X72.4000 Z-0.5435
G01 X73.4000 Z0.2759
G01 X74.8000 Z0.5954
G01 X84.8000 Z0.5805
G01 X85.8000 Z0.2759
G01 X86.4000 Z-0.3583
G01 X86.6000 Z-7.0000
G01 X87.8000
G01 X86.4000 Y79.8000
G01 X85.4000
G01 X85.2000 Z-0.5435
G01 X84.6000 Z0.1609
G01 X83.4000 Z0.5805
G01 X72.8000 Z0.5954
G01 X71.0000 Z0.0658
G01 X70.4000 Z-0.5435
G01 X70.2000 Z-7.0000
G01 X25.4000
G01 X24.6000 Z-0.5435
G01 X24.0000 Z0.0658
G01 X22.2000 Z0.5954
G01 X12.0000 Z0.6000
G01 X10.6000 Z0.2759
G01 X9.8000 Z-0.5435
G01 X9.6000 Z-7.0000
G01 X8.6000
G01 X9.6000 Y81.0000
G01 X10.8000
G01 X11.0000 Z-0.5435
G01 X11.8000 Z0.2759
G01 X13.2000 Z0.6000
G01 X23.8000 Z0.5954
G01 X25.8000 Z0.0658
G01 X26.6000 Z-0.7000
G01 X27.4000 Z-6.5189
G01 X27.8000 Z-7.0000
G01 X68.4000
G01 X68.6000 Z-0.5435
G01 X69.2000 Z0.0658
G01 X71.2000 Z0.5954
G01 X82.2000 Z0.5805
G01 X83.4000 Z0.1609
G01 X84.0000 Z-0.5435
G01 X84.2000 Z-7.0000
G01 X85.4000
G01 X83.8000 Y82.6000
G01 X82.6000
G01 X82.4000 Z-0.5435
G01 X81.8000 Z0.1609
G01 X80.6000 Z0.5805
G01 X68.6000 Z0.5954
G01 X66.6000 Z0.1381
G01 X65.8000 Z-0.6539
G01 X65.6000 Z-7.0000
G01 X29.4000
G01 X29.2000 Z-0.5435
G01 X28.6000 Z0.0658
G01 X26.4000 Z0.5954
G01 X14.8000 Z0.6000
G01 X13.4000 Z0.2759
G01 X12.6000 Z-0.5435
G01 X12.4000 Z-7.0000
G01 X11.2000
G01 X12.4000 Y83.8000
G01 X13.6000
G01 X14.0000 Z-0.2001
G01 Z-1.1435
G01 Y85.4000
G01 Z-7.0000
G01 X15.2000
G01 X15.4000 Z-0.7000
G01 X15.8000 Z-0.1826
G01 Z-0.7826
G01 X15.4000 Y86.6000
G01 Z-7.0000
G01 X16.8000
G01 X17.2000 Z-0.2001
G01 Z-1.1435
G01 X17.4000 Y88.2000
G01 Z-7.0000
G01 X18.8000
G01 X19.0000 Z-0.7000
G01 X19.4000 Z-0.1826
G01 Z-0.7826
G01 X19.0000 Y89.4000
G01 Z-7.0000
G01 X20.8000
G01 X21.0000 Z-0.5435
G01 X21.4000 Z-0.0561
G01 Z-0.9583
G01 X21.6000 Y91.0000
G01 Z-7.0000
G01 X23.4000
G01 X23.6000 Z-0.5435
G01 X24.0000 Z-0.0561
G01 Z-0.6561
G01 X23.6000 Y92.2000
G01 Z-7.0000
G01 X25.4000
G01 X25.6000 Z-0.6539
G01 X26.2000 Z-0.0561
G01 Z-0.9583
G01 X26.8000 Y93.8000
G01 Z-7.0000
G01 X29.4000
G01 X29.6000 Z-0.6539
G01 X30.4000 Z-0.0561
G01 Z-0.6561
G01 X30.0000 Y95.0000
G01 Z-7.0000
G01 X32.8000
G01 X33.0000 Z-0.6539
G01 X33.8000 Z-0.0708
G01 Z-0.9150
G01 X34.8000 Y96.6000
G01 Z-7.0000
G01 X40.0000
G01 X40.2000 Z-0.6539
G01 X40.8000 Z-0.2551
G01 X46.2000 Z0.2462
G01 X52.2000 Z0.0402
G01 X54.4000 Z-0.3150
G01 X54.8000 Z-0.6539
G01 X55.0000 Z-7.0000
G01 X60.2000
G01 Z-0.0708
G01 X61.2000 Y95.0000
G01 X62.0000 Z-0.6539
G01 X62.2000 Z-7.0000
G01 X65.2000
G01 Z-0.0708
G01 X64.8000 Y93.8000
G01 X65.4000 Z-0.6539
G01 X65.6000 Z-7.0000
G01 X68.2000
G01 Z-0.0561
G01 X68.8000 Y92.2000
G01 X69.4000 Z-0.6539
G01 X69.6000 Z-7.0000
G01 X71.4000
G01 Z-0.0561
G01 X71.0000 Y91.0000
G01 X71.4000 Z-0.5435
G01 X71.6000 Z-7.0000
G01 X73.4000
G01 Z-0.0561
G01 X73.6000 Y89.4000
G01 X74.0000 Z-0.5435
G01 X74.2000 Z-7.0000
G01 X76.0000
G01 Z-0.1826
G01 X75.6000 Y88.2000
G01 X76.0000 Z-0.7000
G01 X76.2000 Z-7.0000
G01 X77.6000
G01 Z-0.1826
G01 X77.8000 Y86.6000
G01 X78.2000 Z-0.7000
G01 X78.4000 Z-7.0000
G01 X79.6000
G01 Z-0.0561
G01 X79.2000 Y85.4000
G01 X79.6000 Z-0.5435
G01 X79.8000 Z-7.0000
G01 X81.0000
G01 Z-0.2001
G01 Y83.8000
G01 X81.4000 Z-7.0000
G01 X82.6000
G01 Z0.5000
G01 X64.0000
G01 Z-0.0561
G01 X63.4000 Z-0.6539
G01 X63.2000 Z-7.0000
G01 X32.6000
G01 X31.6000 Z-0.6539
G01 X31.0000 Z-0.0561
G01 Z0.4292
G01 X35.4000 Y85.4000
G01 Z-0.0708
G01 X36.4000 Z-0.6539
G01 X37.2000 Z-7.0000
G01 X57.4000
G01 X58.2000 Z-5.0427
G01 X58.4000 Z-0.6539
G01 X59.6000 Z-0.0708
G01 Z0.4292
G01 X54.6000 Y86.6000
G01 Z-0.0708
G01 X53.4000 Z-0.6539
G01 X52.6000 Z-7.0000
G01 X42.8000
G01 X42.2000 Z-6.4148
G01 X41.4000 Z-0.6539
G01 X40.4000 Z-0.0708
G01 Z0.5000
G01 X41.0000 Y97.8000
G01 Z-7.0000
G01 X54.0000
G00 Z2.0000
G00 X63.6000 Y11.0000
G01 Z-0.0561
G01 X63.0000 Z-0.6539
G01 X62.8000 Z-5.1445
G01 X59.2000 Z-5.1407
G01 X53.4000 Z-4.4194
G01 X50.2000 Z-4.4762
G01 X47.4000 Z-4.1306
G01 X45.0000 Z-5.0836
G01 X42.2000 Z-5.3064
G01 X37.0000 Z-4.8510
G01 X32.2000 Z-5.0763
G01 X32.0000 Z-0.6539
G01 X31.4000 Z-0.0561
G01 Z0.4292
G01 X34.8000 Y9.8000
G01 Z-0.0708
G01 X35.6000 Z-0.6539
G01 X36.8000 Z-4.7622
G01 X43.4000 Z-5.1099
G01 X46.2000 Z-4.8505
G01 X48.0000 Z-4.2481
G01 X57.2000 Z-4.8949
G01 X58.4000 Z-4.0898
G01 X59.2000 Z-0.6539
G01 X60.2000 Z-0.0708
G01 Z0.4292
G01 X53.8000 Y8.2000
G01 Z-0.0708
G01 X52.6000 Z-0.6539
G01 X51.8000 Z-3.3142
G01 X50.8000 Z-3.8312
G01 X42.4000 Z-5.0163
G01 X42.2000 Z-0.6539
G01 X41.2000 Z-0.0708
G01 Z0.5000
G01 X43.0000 Y-3.0000
G01 Z-7.0000
G01 X52.0000
G00 Z2.0000
G00 X14.2000 Y11.0000
G01 Z-0.2001
G01 X13.8000 Z-7.0000
G01 X12.6000
G01 Z-14.0000
G01 X13.8000
G01 Y9.8000
G01 X15.0000
G01 X15.6000 Y8.2000
G01 X17.0000
G01 Y7.0000
G01 X18.6000
G01 X19.4000 Y5.4000
G01 X21.0000
G01 X21.2000 Y4.2000
G01 X23.0000
G01 X23.8000 Y2.6000
G01 X25.8000
G01 X26.2000 Y1.4000
G01 X28.8000
G01 X30.4000 Y-0.2000
G01 X33.4000
G01 X34.0000 Y-1.4000
G01 X39.0000
G01 Z-0.7539
G01 X43.0000 Y-3.0000
G01 Z-14.0000
G01 X52.0000
G01 Z0.5000
G01 X56.2000 Y-1.4000
G01 Z-14.0000
G01 X61.0000
G01 X61.6000 Y-0.2000
G01 X64.6000
G01 X66.2000 Y1.4000
G01 X68.8000
G01 X69.2000 Y2.6000
G01 X71.2000
G01 X72.0000 Y4.2000
G01 X73.8000
G01 X74.0000 Y5.4000
G01 X75.6000
G01 X76.4000 Y7.0000
G01 X78.0000
G01 Y8.2000
G01 X79.4000
G01 X80.0000 Y9.8000
G01 X81.2000
G01 Y11.0000
G01 X82.4000
G01 X82.8000 Y12.6000
G01 X84.0000
G01 Y13.8000
G01 X85.2000
G01 X85.6000 Y15.4000
G01 X86.6000
G01 Y16.6000
G01 X87.6000
G01 X87.8000 Y18.2000
G01 X88.8000
G01 X88.6000 Y19.4000
G01 X89.6000
G01 Y21.0000
G01 X90.6000
G01 X90.4000 Y22.2000
G01 X91.4000
G01 Y23.8000
G01 X92.4000
G01 X92.0000 Y25.0000
G01 X93.0000
G01 X92.8000 Y26.6000
G01 X93.8000
G01 Z0.0000
G01 X94.2000 Y27.8000
G01 Z-14.0000
G01 X93.2000
G01 Z-1.2539
G01 X93.8000 Y29.4000
G01 Z-14.0000
G01 X94.8000
G01 X95.2000 Y30.6000
G01 X94.2000
G01 Z-1.2539
G01 X94.8000 Y32.2000
G01 Z-14.0000
G01 X95.8000
G01 Z0.0000
G01 X96.2000 Y33.4000
G01 Z-14.0000
G01 X95.2000
G01 Z-1.2539
G01 X95.6000 Y35.0000
G01 Z-14.0000
G01 X96.6000
G01 X96.8000 Y36.2000
G01 X95.8000
G01 Z-1.0298
G01 X96.2000 Y37.8000
G01 Z-14.0000
G01 X97.2000
G01 X97.4000 Y39.0000
G01 X96.4000
G01 X96.8000 Y40.6000
G01 X97.6000
G01 X97.8000 Y41.8000
G01 X96.8000
G01 Y43.4000
G01 X97.8000
G01 X98.0000 Y44.6000
G01 X97.0000
G01 Y46.2000
G01 X98.0000
G01 X98.2000 Y47.4000
G01 X97.2000
G01 X97.0000 Y49.0000
G01 X98.0000
G01 Y50.2000
G01 X97.0000
G01 X97.8000 Y51.8000
G01 X96.8000
G01 X96.6000 Z-0.2363
G01 X95.4000 Z0.5874
G01 X88.4000
G01 X87.0000 Z-0.2363
G01 X86.2000 Z-6.3416
G01 X85.0000 Z-7.8108
G01 X82.0000 Z-7.6939
G01 X80.6000 Z-6.3948
G01 X79.2000 Z-5.9491
G01 X75.2000 Z-5.8756
G01 X74.2000 Z-6.2893
G01 X73.0000 Z-7.7604
G01 X71.4000 Z-8.3001
G01 X68.2000 Z-10.4162
G01 X65.8000 Z-10.4539
G01 X63.8000 Z-9.3644
G01 X61.8000 Z-8.8099
G01 X56.6000 Z-8.6411
G01 X55.2000 Z-7.7950
G01 X52.0000 Z-6.7874
G01 X48.6000 Z-4.8721
G01 X46.2000 Z-4.7373
G01 X44.6000 Z-5.2004
G01 X40.2000 Z-8.1801
G01 X32.6000 Z-9.7409
G01 X31.0000 Z-10.7314
G01 X30.4000 Z-11.8967
G01 X26.2000 Z-12.2686
G01 X24.8000 Z-12.0669
G01 X23.0000 Z-10.9898
G01 X22.0000 Z-9.6644
G01 X20.8000 Z-9.2537
G01 X19.8000 Z-7.9815
G01 X19.0000 Z-7.4785
G01 X16.0000 Z-6.9381
G01 X11.6000 Z-7.3474
G01 X9.8000 Z-6.6874
G01 X8.0000 Z-6.5190
G01 X7.8000 Z-0.2363
G01 X7.0000 Z0.4824
G01 X-0.2000 Z0.6000
G01 X-1.0000 Z0.3841
G01 X-1.6000 Z-0.2363
G01 X-1.8000 Z-14.0000
G01 X-2.8000
G01 Y53.0000
G01 X-1.8000
G01 X-1.6000 Z-0.2363
G01 X-1.0000 Z0.3841
G01 X-0.2000 Z0.6000
G01 X7.4000 Z0.3841
G01 X8.2000 Z-0.6539
G01 X8.4000 Z-6.7073
G01 X11.0000 Z-7.3127
G01 X16.4000 Z-7.3426
G01 X19.8000 Z-8.3626
G01 X22.0000 Z-9.8032
G01 X23.6000 Z-11.7163
G01 X25.2000 Z-12.2961
G01 X30.2000 Z-12.2471
G01 X33.0000 Z-9.8735
G01 X35.2000 Z-9.0500
G01 X40.4000 Z-8.0687
G01 X44.6000 Z-4.9749
G01 X46.2000 Z-4.4118
G01 X48.6000 Z-4.6553
G01 X56.6000 Z-8.1906
G01 X62.0000 Z-8.8461
G01 X64.0000 Z-9.8632
G01 X65.2000 Z-11.0256
G01 X66.8000 Z-10.9782
G01 X71.0000 Z-8.1919
G01 X73.2000 Z-7.4999
G01 X74.0000 Z-6.4902
G01 X74.8000 Z-6.1422
G01 X77.6000 Z-5.8494
G01 X80.2000 Z-5.9816
G01 X81.0000 Z-6.3229
G01 X82.4000 Z-7.7711
G01 X84.8000 Z-7.8302
G01 X86.0000 Z-6.0393
G01 X86.6000 Z-0.6539
G01 X87.4000 Z0.2462
G01 X88.4000 Z0.6000
G01 X95.4000 Z0.5874
G01 X96.6000 Z-0.2363
G01 X96.8000 Z-14.0000
G01 X97.8000
G01 X97.6000 Y54.6000
G01 X96.6000
G01 X97.4000 Y55.8000
G01 X96.4000
G01 X96.2000 Z-0.2363
G01 X95.0000 Z0.5874
G01 X87.8000 Z0.6000
G01 X86.8000 Z0.2462
G01 X86.2000 Z-0.6539
G01 X86.0000 Z-6.2065
G01 X82.2000 Z-6.5263
G01 X81.0000 Z-7.1431
G01 X79.6000 Z-7.1529
G01 X77.2000 Z-6.4265
G01 X74.8000 Z-6.4057
G01 X72.6000 Z-7.1494
G01 X71.2000 Z-8.0307
G01 X69.2000 Z-8.3036
G01 X67.0000 Z-9.6554
G01 X66.0000 Z-11.0999
G01 X65.0000 Z-11.5452
G01 X63.2000 Z-11.5754
G01 X61.8000 Z-9.7324
G01 X59.4000 Z-8.2471
G01 X56.0000 Z-7.4861
G01 X53.0000 Z-5.5938
G01 X51.0000 Z-5.1286
G01 X49.2000 Z-4.2808
G01 X46.4000 Z-4.0455
G01 X44.4000 Z-4.3115
G01 X42.8000 Z-5.3009
G01 X40.6000 Z-7.4590
G01 X39.0000 Z-7.7158
G01 X36.4000 Z-9.3288
G01 X33.0000 Z-10.7905
G01 X30.8000 Z-12.2767
G01 X25.4000 Z-12.2963
G01 X23.0000 Z-10.4568
G01 X21.0000 Z-9.5613
G01 X19.4000 Z-8.0539
G01 X15.8000 Z-7.5360
G01 X12.6000 Z-7.7209
G01 X9.0000 Z-6.8022
G01 X8.8000 Z-0.6539
G01 X8.0000 Z0.3841
G01 X0.2000 Z0.6000
G01 X-0.6000 Z0.3841
G01 X-1.2000 Z-0.2363
G01 X-1.4000 Z-14.0000
G01 X-2.4000
G01 X-2.6000 Y54.6000
G01 X-1.6000
G01 X-1.4000 Z-0.2363
G01 X-0.2000 Z0.5874
G01 X7.0000 Z0.5997
G01 X7.8000 Z0.3757
G01 X8.4000 Z-0.2551
G01 X8.6000 Z-6.7920
G01 X10.8000 Z-7.4959
G01 X16.4000 Z-7.4638
G01 X19.8000 Z-8.1041
G01 X24.0000 Z-11.6734
G01 X25.2000 Z-12.2962
G01 X30.6000 Z-12.2274
G01 X32.6000 Z-10.7218
G01 X35.2000 Z-9.4125
G01 X40.6000 Z-7.6457
G01 X43.2000 Z-5.3067
G01 X45.0000 Z-4.3826
G01 X46.4000 Z-4.0730
G01 X49.2000 Z-4.3797
G01 X50.8000 Z-5.1842
G01 X53.0000 Z-5.6895
G01 X56.0000 Z-7.5406
G01 X58.8000 Z-8.0884
G01 X61.2000 Z-8.9880
G01 X64.0000 Z-11.4059
G01 X66.0000 Z-11.2195
G01 X69.4000 Z-8.4034
G01 X71.0000 Z-8.0939
G01 X72.4000 Z-7.1916
G01 X73.2000 Z-7.0431
G00 Z2.0000
G00 X97.2000 Y57.4000
G01 Z-14.0000
G01 X96.2000
G01 X96.0000 Z-0.4298
G01 X95.4000 Z0.3046
G01 X94.6000 Z0.5874
G01 X87.4000 Z0.6000
G01 X86.4000 Z0.2462
G01 X86.0000 Z-0.2363
G01 X85.8000 Z-6.4829
G01 X82.6000 Z-6.6199
G01 X80.8000 Z-7.4570
G01 X79.4000 Z-7.3876
G01 X76.8000 Z-6.6089
G01 X74.0000 Z-6.7337
G01 X72.0000 Z-7.2976
G01 X67.2000 Z-9.5327
G01 X65.8000 Z-11.1432
G01 X64.2000 Z-11.8461
G01 X62.4000 Z-11.6925
G01 X59.4000 Z-8.8458
G01 X55.6000 Z-7.4171
G01 X53.2000 Z-6.0079
G01 X50.2000 Z-4.9577
G01 X49.4000 Z-4.3568
G01 X46.2000 Z-4.1486
G01 X42.8000 Z-5.0453
G01 X40.4000 Z-7.5270
G01 X31.4000 Z-12.1853
G01 X26.0000 Z-12.2964
G01 X24.8000 Z-10.7503
G01 X19.8000 Z-9.2055
G01 X18.8000 Z-8.5384
G01 X16.4000 Z-7.8268
G01 X11.0000 Z-7.2744
G01 X9.2000 Z-6.5487
G01 X9.0000 Z-0.2363
G01 X8.4000 Z0.3841
G01 X0.6000 Z0.6000
G01 X-0.4000 Z0.3046
G01 X-1.0000 Z-0.4298
G01 X-1.2000 Z-14.0000
G01 X-2.2000
G01 Z0.0000
G01 X-1.8000 Y58.6000
G01 Z-14.0000
G01 X-1.0000
G01 X-0.8000 Z-0.6539
G01 X-0.2000 Z0.2462
G01 X0.8000 Z0.6000
G01 X8.6000 Z0.4543
G01 X9.4000 Z-0.3150
G01 X9.6000 Z-6.8391
G01 X12.2000 Z-7.5494
G01 X16.2000 Z-7.6606
G01 X19.4000 Z-8.7471
G01 X22.0000 Z-8.9113
G01 X25.2000 Z-10.9043
G01 X26.0000 Z-12.2869
G01 X27.0000 Z-12.2964
G01 X32.4000 Z-12.2059
G01 X39.2000 Z-8.6688
G01 X42.6000 Z-5.3117
G01 X44.2000 Z-4.6843
G01 X46.2000 Z-4.3850
G01 X48.4000 Z-4.6267
G01 X52.6000 Z-6.4716
G01 X54.8000 Z-7.9093
G01 X58.8000 Z-9.4516
G01 X61.6000 Z-11.9830
G01 X64.0000 Z-11.9018
G01 X66.0000 Z-11.0610
G01 X69.2000 Z-8.2895
G01 X73.6000 Z-6.7555
G01 X77.2000 Z-6.6118
G01 X80.6000 Z-7.5282
G01 X83.2000 Z-7.0317
G01 X84.4000 Z-7.1293
G01 X85.4000 Z-0.3150
G01 X86.0000 Z0.2047
G01 X87.0000 Z0.5954
G01 X94.4000 Z0.5874
G01 X95.2000 Z0.2462
G01 X95.8000 Z-0.6539
G01 X96.0000 Z-14.0000
G01 X96.8000
G01 X96.6000 Y60.2000
G01 X95.6000
G01 X95.4000 Z-0.3150
G01 X94.2000 Z0.5725
G01 X86.6000 Z0.5997
G01 X85.6000 Z0.2360
G01 X85.0000 Z-0.6539
G01 X84.8000 Z-7.4151
G01 X83.4000
G01 X82.4000 Z-6.9497
G01 X81.6000 Z-5.9263
G01 X80.8000 Z-5.6755
G01 X77.4000 Z-6.2893
G01 X73.8000 Z-6.3145
G01 X69.8000 Z-7.5307
G01 X66.8000 Z-10.3874
G01 X63.6000 Z-11.9985
G01 X60.0000 Z-12.1172
G01 X56.6000 Z-9.9689
G01 X54.2000 Z-9.5768
G01 X50.4000 Z-6.7795
G01 X44.6000 Z-5.1297
G01 X42.4000 Z-5.7496
G01 X40.4000 Z-8.1602
G01 X38.6000 Z-9.6527
G01 X33.6000 Z-12.2667
G01 X26.6000 Z-12.2960
G01 X25.6000 Z-11.7763
G01 X24.4000 Z-9.6961
G01 X22.0000 Z-8.5732
G01 X19.2000 Z-8.4453
G01 X10.2000 Z-7.1644
G01 X10.0000 Z-0.6539
G01 X9.2000 Z0.3757
G01 X8.4000 Z0.5997
G01 X1.2000 Z0.6000
G01 X0.2000 Z0.3499
G01 X-0.4000 Z-0.3150
G01 X-0.6000 Z-14.0000
G01 X-1.6000
G01 X-1.2000 Y61.4000
G01 X-0.2000
G01 X0.0000 Z-0.3150
G01 X0.6000 Z0.3499
G01 X1.6000 Z0.6000
G01 X8.8000 Z0.5997
G01 X9.6000 Z0.3757
G01 X10.4000 Z-0.6539
G01 X10.8000 Z-7.0230
G01 X22.8000 Z-8.7013
G01 X24.2000 Z-9.5559
G01 X26.6000 Z-12.1217
G01 X27.2000 Z-12.2966
G01 X35.0000 Z-12.2450
G01 X38.8000 Z-10.2310
G01 X42.4000 Z-6.4882
G01 X45.0000 Z-5.8308
G01 X47.2000 Z-6.4149
G01 X48.4000 Z-7.5921
G01 X51.4000 Z-9.1036
G01 X53.2000 Z-10.5841
G01 X55.6000 Z-10.8035
G01 X58.0000 Z-12.1702
G01 X63.0000 Z-11.9646
G01 X66.2000 Z-10.5827
G01 X71.4000 Z-6.8224
G01 X73.2000 Z-6.3017
G01 X76.4000 Z-6.2343
G01 X77.6000 Z-5.6078
G01 X81.2000 Z-5.6182
G01 X82.0000 Z-5.9662
G01 X82.6000 Z-7.0632
G01 X83.4000 Z-7.4916
G01 X84.4000 Z-0.6539
G01 X85.2000 Z0.2360
G01 X86.2000 Z0.5997
G01 X93.8000 Z0.5725
G01 X95.0000 Z-0.3150
G01 X95.2000 Z-14.0000
G01 X96.2000
G01 X95.6000 Y63.0000
G01 X94.8000
G01 X95.2000 Y64.2000
G01 X94.4000
G01 X94.2000 Z-0.6539
G01 X93.8000 Z0.0658
G01 X92.8000 Z0.5841
G01 X85.2000 Z0.6000
G01 X84.2000 Z0.3046
G01 X83.4000 Z-0.3583
G01 X82.6000 Z-6.1649
G01 X81.4000 Z-7.1115
G01 X78.4000 Z-5.8097
G01 X77.0000 Z-6.0123
G01 X75.6000 Z-6.7139
G01 X71.2000 Z-6.7510
G01 X67.6000 Z-9.0638
G01 X59.8000 Z-12.1476
G01 X56.4000 Z-12.2938
G01 X55.0000 Z-11.6700
G01 X53.0000 Z-11.5426
G01 X51.4000 Z-10.9717
G01 X49.0000 Z-10.6505
G01 X47.2000 Z-9.3293
G01 X46.4000 Z-9.1303
G01 X43.2000 Z-9.8695
G01 X41.4000 Z-11.2039
G01 X39.2000 Z-12.2612
G01 X29.4000 Z-12.2967
G01 X28.2000 Z-11.8314
G01 X26.6000 Z-10.1886
G01 X24.4000 Z-8.5962
G01 X11.6000 Z-7.1508
G01 X11.4000 Z-0.3150
G01 X10.6000 Z0.4543
G01 X2.6000 Z0.6000
G01 X1.6000 Z0.3757
G01 X0.8000 Z-0.6539
G01 X0.6000 Z-14.0000
G01 X-0.2000
G01 X-0.6000 Y63.0000
G01 X0.2000
G01 X0.4000 Z-0.6539
G01 X0.8000 Z0.0658
G01 X1.8000 Z0.5841
G01 X9.4000 Z0.5954
G01 X10.2000 Z0.3586
G01 X11.0000 Z-0.6539
G01 X11.2000 Z-6.9747
G01 X12.8000 Z-7.0112
G01 X16.4000 Z-7.8810
G01 X23.0000 Z-8.2895
G01 X25.2000 Z-9.4272
G01 X26.4000 Z-10.4159
G01 X27.2000 Z-11.9420
G01 X28.2000 Z-12.2833
G01 X36.0000 Z-12.2952
G01 X38.0000 Z-12.0232
G01 X40.4000 Z-10.4454
G01 X42.8000 Z-8.0894
G01 X45.4000 Z-7.1269
G01 X46.6000 Z-7.4602
G01 X49.8000 Z-10.2911
G01 X52.2000 Z-11.0106
G01 X54.8000 Z-11.1221
G01 X57.2000 Z-12.2281
G01 X60.8000 Z-12.1656
G01 X63.2000 Z-11.4376
G01 X65.0000 Z-10.2900
G01 X67.2000 Z-9.5528
G01 X70.6000 Z-7.0074
G00 Z2.0000
G00 X94.6000 Y65.8000
G01 Z-14.0000
G01 X93.8000
G01 X93.6000 Z-0.6539
G01 X93.2000 Z0.0658
G01 X92.2000 Z0.5841
G01 X84.4000 Z0.5997
G01 X83.2000 Z0.2360
G01 X82.4000 Z-0.6539
G01 X81.6000 Z-6.2246
G01 X80.4000 Z-7.2556
G01 X77.6000 Z-6.3208
G01 X76.4000 Z-6.5062
G01 X74.8000 Z-7.3880
G01 X68.6000 Z-7.0414
G01 X66.6000 Z-8.6745
G01 X59.2000 Z-12.2055
G01 X53.8000 Z-12.2178
G01 X51.8000 Z-11.5968
G01 X48.6000 Z-11.4600
G01 X46.4000 Z-10.8855
G01 X42.0000 Z-12.2926
G01 X32.4000 Z-12.2966
G01 X30.0000 Z-11.9441
G01 X28.8000 Z-9.6235
G01 X26.8000 Z-8.6983
G01 X24.0000 Z-8.6723
G01 X21.2000 Z-8.0823
G01 X14.6000 Z-7.5689
G01 X12.6000 Z-7.0610
G01 X12.4000 Z-0.6539
G01 X11.8000 Z0.2360
G01 X10.6000 Z0.5997
G01 X3.2000 Z0.6000
G01 X2.2000 Z0.3757
G01 X1.4000 Z-0.6539
G01 X1.2000 Z-14.0000
G01 X0.4000
G01 X0.8000 Y67.0000
G01 X1.8000
G01 X2.0000 Z-0.3150
G01 X2.6000 Z0.3499
G01 X3.6000 Z0.6000
G01 X11.4000 Z0.5954
G01 X12.6000 Z0.1381
G01 X13.0000 Z-0.3583
G01 X13.2000 Z-6.9187
G01 X22.0000 Z-8.2055
G01 X23.2000 Z-8.6714
G01 X28.0000 Z-8.6863
G01 X28.8000 Z-9.1284
G01 X31.2000 Z-11.8952
G01 X34.2000 Z-12.2963
G01 X43.4000 Z-12.2954
G01 X47.6000 Z-11.7886
G01 X53.8000 Z-12.2830
G01 X58.2000 Z-12.1416
G01 X59.6000 Z-11.6462
G01 X63.0000 Z-9.5904
G01 X66.6000 Z-8.5442
G01 X68.6000 Z-7.0414
G01 X71.8000 Z-7.1028
G01 X74.2000 Z-8.1945
G01 X75.4000 Z-8.1556
G01 X77.4000 Z-7.2394
G01 X80.0000 Z-7.3441
G01 X81.0000 Z-5.9879
G01 X81.8000 Z-0.3583
G01 X82.6000 Z0.2759
G01 X83.6000 Z0.5954
G01 X91.8000 Z0.5725
G01 X92.8000 Z0.0658
G01 X93.2000 Z-0.6539
G01 X93.4000 Z-14.0000
G01 X94.2000
G01 X93.6000 Y68.6000
G01 X92.6000
G01 X92.4000 Z-0.3150
G01 X91.2000 Z0.5725
G01 X82.8000 Z0.6000
G01 X81.8000 Z0.3586
G01 X80.8000 Z-0.6539
G01 X80.4000 Z-5.3376
G01 X79.2000 Z-7.6214
G01 X76.4000 Z-8.1028
G01 X75.2000 Z-8.6559
G01 X73.2000 Z-8.7444
G01 X71.0000 Z-7.9877
G01 X66.4000 Z-7.5875
G01 X62.4000 Z-8.7555
G01 X57.4000 Z-11.9323
G01 X38.0000 Z-12.2963
G01 X36.2000 Z-12.2786
G01 X32.2000 Z-11.5525
G01 X31.0000 Z-9.7848
G01 X28.2000 Z-8.6302
G01 X24.0000 Z-8.7562
G01 X21.4000 Z-7.6834
G01 X18.6000 Z-7.0885
G01 X14.2000 Z-6.8072
G01 X14.0000 Z-0.6539
G01 X13.4000 Z0.2360
G01 X12.4000 Z0.5954
G01 X4.2000 Z0.6000
G01 X3.2000 Z0.3046
G01 X2.6000 Z-0.3583
G01 X2.4000 Z-14.0000
G01 X1.4000
G01 X1.8000 Y69.8000
G01 X2.8000
G01 Y71.4000
G01 X3.8000
G01 X3.6000 Y72.6000
G01 X4.6000
G01 X4.8000 Z-0.3583
G01 X5.4000 Z0.2759
G01 X6.6000 Z0.6000
G01 X15.0000 Z0.5954
G01 X16.2000 Z0.2360
G01 X16.8000 Z-0.5435
G01 X17.6000 Z-5.8526
G01 X18.4000 Z-7.1272
G01 X25.6000 Z-8.7650
G01 X30.8000 Z-9.1329
G01 X33.2000 Z-10.2704
G01 X36.4000 Z-10.3013
G01 X39.2000 Z-10.8081
G01 X40.4000 Z-11.3556
G01 X43.0000 Z-11.0993
G01 X46.0000 Z-11.3449
G01 X50.2000 Z-10.5779
G01 X51.4000 Z-9.6061
G01 X53.6000 Z-9.3308
G01 X56.6000 Z-8.2875
G01 X58.6000 Z-8.0944
G01 X61.4000 Z-7.3151
G01 X65.0000 Z-6.9689
G01 X66.4000 Z-7.0944
G01 X69.2000 Z-8.4236
G01 X75.0000 Z-8.6353
G01 X78.0000 Z-6.3728
G01 X78.2000 Z-0.5435
G01 X79.0000 Z0.3046
G01 X80.0000 Z0.5954
G01 X88.8000 Z0.5725
G01 X90.2000 Z-0.3583
G01 X90.4000 Z-14.0000
G01 X91.4000
G01 X92.2000 Y71.4000
G01 X91.2000
G01 X91.0000 Z-0.5435
G01 X90.4000 Z0.2360
G01 X89.4000 Z0.5841
G01 X81.0000 Z0.5997
G01 X79.8000 Z0.2759
G01 X79.2000 Z-0.3583
G01 X79.0000 Z-6.1770
G01 X75.4000 Z-8.5480
G01 X71.0000 Z-8.7024
G01 X70.2000 Z-8.5787
G01 X67.8000 Z-7.1213
G01 X64.8000 Z-6.9164
G01 X59.0000 Z-8.2012
G01 X56.4000 Z-9.5588
G01 X55.4000 Z-10.4191
G01 X52.8000 Z-10.2374
G01 X51.2000 Z-11.4078
G01 X50.4000 Z-11.5507
G01 X39.6000 Z-12.1174
G01 X36.8000 Z-11.1821
G01 X33.6000 Z-10.5986
G01 X30.6000 Z-8.9512
G01 X25.8000 Z-8.8383
G01 X22.6000 Z-8.1524
G01 X20.4000 Z-7.0811
G01 Z-7.0856
G01 Y69.8000
G01 X24.2000 Z-8.7729
G01 X29.8000 Z-8.7665
G01 X32.6000 Z-11.0651
G01 X38.2000 Z-12.2579
G01 X53.0000 Z-11.9046
G01 X57.2000 Z-11.3182
G01 X60.8000 Z-8.8004
G01 X65.4000 Z-6.9394
G01 X67.4000 Z-7.1213
G01 X69.8000 Z-8.0282
G01 X73.2000 Z-8.7910
G01 X75.2000 Z-8.7221
G01 X77.4000 Z-7.6135
G01 X79.8000 Z-7.0390
G01 X80.0000 Z-0.7000
G01 X81.0000 Z0.3046
G01 X82.0000 Z0.5954
G01 X90.4000 Z0.5841
G01 X91.4000 Z0.2360
G01 X92.0000 Z-0.6539
G01 X92.2000 Z-14.0000
G01 X93.2000
G01 Z0.5000
G01 X90.6000 Y74.2000
G01 Z-14.0000
G01 X89.4000
G01 X89.2000 Z-0.3583
G01 X87.8000 Z0.5725
G01 X78.8000 Z0.5954
G01 X77.4000 Z0.1609
G01 X76.8000 Z-0.5435
G01 X76.6000 Z-7.5659
G01 X74.6000 Z-8.6138
G01 X67.0000 Z-8.5154
G01 X64.6000 Z-7.6931
G01 X62.2000 Z-7.3826
G01 X59.0000 Z-7.5299
G01 X58.2000 Z-7.0871
G01 X57.2000 Z-7.0117
G01 X56.2000 Z-7.2371
G01 X55.2000 Z-7.9822
G01 X50.2000 Z-8.8776
G01 X48.2000 Z-9.8134
G01 X46.6000 Z-9.8391
G01 X44.6000 Z-9.3670
G01 X42.4000 Z-9.8926
G01 X38.2000 Z-9.5427
G01 X34.6000 Z-9.9274
G01 X31.0000 Z-8.9298
G01 X22.4000 Z-8.6631
G01 X21.4000 Z-8.1503
G01 X18.4000 Z-7.7877
G01 X18.2000 Z-0.5435
G01 X17.6000 Z0.1609
G01 X16.2000 Z0.5997
G01 X7.6000 Z0.6000
G01 X6.4000 Z0.2759
G01 X5.8000 Z-0.3583
G01 X5.6000 Z-14.0000
G01 X4.6000
G01 X5.2000 Y75.4000
G01 X6.4000
G01 X6.6000 Z-0.3583
G01 X7.2000 Z0.2759
G01 X8.4000 Z0.6000
G01 X17.4000 Z0.5954
G01 X18.8000 Z0.1609
G01 X19.4000 Z-0.5435
G01 X20.2000 Z-8.1450
G01 X23.0000 Z-8.7417
G01 X28.8000 Z-8.4461
G01 X32.2000 Z-8.7747
G01 X33.6000 Z-9.3645
G01 X35.6000 Z-9.5557
G01 X37.4000 Z-9.3323
G01 X39.0000 Z-8.6347
G01 X42.8000 Z-8.9553
G01 X45.0000 Z-8.5962
G01 X46.4000 Z-9.0224
G01 X48.2000 Z-9.0294
G01 X49.6000 Z-7.9229
G01 X52.4000 Z-8.0066
G01 X54.0000 Z-7.1902
G01 X55.2000 Z-6.9643
G01 X58.2000 Z-7.0232
G01 X59.6000 Z-7.8741
G01 X64.8000 Z-7.8397
G01 X67.0000 Z-8.8847
G01 X72.2000 Z-8.4513
G01 X74.8000 Z-8.5677
G01 X75.4000 Z-8.3977
G01 X75.6000 Z-0.5435
G01 X76.2000 Z0.1609
G01 X77.6000 Z0.5954
G01 X87.0000 Z0.5725
G01 X88.4000 Z-0.3583
G01 X88.6000 Z-14.0000
G01 X89.8000
G01 Z0.0000
G01 X88.6000 Y77.0000
G01 Z-14.0000
G01 X87.6000
G01 X87.4000 Z-0.5435
G01 X86.8000 Z0.2360
G01 X86.0000 Z0.5489
G01 X76.0000 Z0.5954
G01 X74.6000 Z0.1609
G01 X73.8000 Z-0.5435
G01 X73.0000 Z-6.7247
G01 X72.0000 Z-8.2241
G01 X70.4000 Z-8.2216
G01 X67.2000 Z-9.0342
G01 X65.6000 Z-9.0373
G01 X63.8000 Z-8.3746
G01 X62.4000 Z-8.8165
G01 X60.6000 Z-8.8353
G01 X56.2000 Z-6.9200
G01 X54.6000 Z-6.8514
G01 X52.8000 Z-7.7812
G01 X49.2000 Z-7.6839
G01 X47.8000 Z-8.6359
G01 X41.0000 Z-8.8916
G01 X38.8000 Z-8.5829
G01 X37.0000 Z-9.3795
G01 X35.6000 Z-9.4599
G01 X34.2000 Z-9.4422
G01 X32.2000 Z-8.7747
G01 X28.4000 Z-8.4830
G01 X24.6000 Z-9.0098
G01 X21.2000 Z-8.8778
G01 X21.0000 Z-0.5435
G01 X20.6000 Z0.0003
G01 X19.0000 Z0.5954
G01 X9.6000 Z0.6000
G01 X8.4000 Z0.3586
G01 X7.6000 Z-0.5435
G01 X7.4000 Z-14.0000
G01 X6.4000
G01 X7.2000 Y78.2000
G01 X8.4000
G01 X8.6000 Z-0.3583
G01 X9.4000 Z0.3757
G01 X10.6000 Z0.6000
G01 X20.2000 Z0.5954
G01 X21.8000 Z0.1609
G01 X22.4000 Z-0.5435
G01 X22.6000 Z-8.7879
G01 X25.8000 Z-8.9969
G01 X31.0000 Z-8.6577
G01 X34.0000 Z-9.4039
G01 X37.4000 Z-9.4066
G01 X41.0000 Z-9.1123
G01 X42.6000 Z-8.6469
G01 X47.6000 Z-8.5856
G01 X50.0000 Z-7.8518
G01 X52.8000 Z-8.0452
G01 X55.2000 Z-7.2006
G01 X56.0000 Z-7.3810
G01 X56.6000 Z-7.9087
G01 X59.2000 Z-8.2253
G01 X60.6000 Z-9.3650
G01 X61.8000 Z-9.5203
G01 X66.2000 Z-9.3480
G01 X67.6000 Z-8.9918
G01 X68.8000 Z-8.1051
G01 X71.0000 Z-7.6335
G01 X71.6000 Z-6.2332
G01 X72.4000 Z-0.5435
G01 X73.4000 Z0.2759
G01 X74.8000 Z0.5954
G01 X85.0000 Z0.5489
G01 X85.8000 Z0.2759
G01 X86.4000 Z-0.3583
G01 X86.6000 Z-14.0000
G01 X87.8000
G01 X86.4000 Y79.8000
G01 X85.4000
G01 X85.2000 Z-0.5435
G01 X84.6000 Z0.1609
G01 X83.6000 Z0.5489
G01 X73.0000 Z0.6000
G01 X71.6000 Z0.3757
G01 X70.4000 Z-0.5435
G01 X70.2000 Z-7.6335
G01 X66.0000 Z-9.3717
G01 X61.0000 Z-9.6107
G01 X60.0000 Z-9.4759
G01 X58.4000 Z-8.3569
G01 X57.2000 Z-8.4405
G01 X56.2000 Z-8.9894
G01 X54.6000 Z-8.9849
G01 X50.0000 Z-7.9153
G01 X48.4000 Z-7.9714
G01 X47.2000 Z-8.6219
G01 X43.2000 Z-8.7051
G01 X40.8000 Z-9.1477
G01 X35.2000 Z-9.1298
G01 X33.4000 Z-8.7241
G01 X30.6000 Z-8.8923
G01 X28.8000 Z-8.5163
G01 X26.4000 Z-8.9967
G01 X25.4000 Z-7.3726
G01 X24.6000 Z-0.5435
G01 X24.2000 Z-0.0561
G01 X22.2000 Z0.5954
G01 X12.0000 Z0.6000
G01 X10.6000 Z0.2759
G01 X9.8000 Z-0.5435
G01 X9.6000 Z-14.0000
G01 X8.6000
G01 X9.6000 Y81.0000
G01 X10.8000
G01 X11.2000 Y82.6000
G01 X12.4000
G01 Y83.8000
G01 X13.6000
G01 X14.0000 Y85.4000
G01 X15.2000
G01 X15.4000 Y86.6000
G01 X16.8000
G01 X17.4000 Y88.2000
G01 X18.8000
G01 X19.0000 Y89.4000
G01 X20.8000
G01 X21.6000 Y91.0000
G01 X23.4000
G01 X23.6000 Y92.2000
G01 X25.4000
G01 X26.8000 Y93.8000
G01 X29.4000
G01 X30.0000 Y95.0000
G01 X32.8000
G01 X34.8000 Y96.6000
G01 X40.0000
G01 X40.2000 Z-0.6539
G01 X40.8000 Z-0.2551
G01 X46.2000 Z0.2462
G01 X52.2000 Z0.0402
G01 X54.6000 Z-0.4298
G01 X55.0000 Z-14.0000
G01 X60.2000
G01 X62.2000 Y95.0000
G01 X65.2000
G01 X65.6000 Y93.8000
G01 X68.2000
G01 X69.6000 Y92.2000
G01 X71.4000
G01 X71.6000 Y91.0000
G01 X73.4000
G01 X74.2000 Y89.4000
G01 X76.0000
G01 X76.2000 Y88.2000
G01 X77.6000
G01 X78.4000 Y86.6000
G01 X79.6000
G01 X79.8000 Y85.4000
G01 X81.0000
G01 X81.4000 Y83.8000
G01 X82.6000
G01 Y82.6000
G01 X83.8000
G01 X85.4000 Y81.0000
G01 X84.2000
G01 X84.0000 Z-0.5435
G01 X83.4000 Z0.1609
G01 X82.2000 Z0.5805
G01 X71.2000 Z0.5954
G01 X69.2000 Z0.0658
G01 X68.6000 Z-0.5435
G01 X68.4000 Z-8.4546
G01 X64.0000 Z-9.5394
G01 X54.6000 Z-9.3994
G01 X51.0000 Z-8.8235
G01 X49.4000 Z-8.1309
G01 X47.6000 Z-8.6771
G01 X43.0000 Z-8.6286
G01 X38.6000 Z-9.1645
G01 X35.6000 Z-8.9427
G01 X33.6000 Z-8.0488
G01 X30.4000 Z-8.3608
G01 X28.4000 Z-7.8717
G01 X27.8000 Z-7.0601
G01 Z-7.7779
G01 X29.4000 Y82.6000
G01 X31.6000 Z-8.2627
G01 X33.8000 Z-8.0724
G01 X35.6000 Z-8.9068
G01 X37.6000 Z-9.1026
G01 X39.0000 Z-8.9631
G01 X41.6000 Z-7.9496
G01 X44.0000 Z-7.7730
G01 X45.6000 Z-7.8499
G01 X48.8000 Z-9.0061
G01 X54.0000 Z-9.4076
G01 X62.8000 Z-9.6164
G01 X65.6000 Z-8.9248
G01 Z-1.2539
G01 X63.2000 Y83.8000
G01 Z-9.2211
G01 X62.2000 Z-9.6152
G01 X60.4000 Z-9.6368
G01 X48.8000 Z-9.0544
G01 X47.2000 Z-8.7064
G01 X45.6000 Z-7.7859
G01 X42.6000 Z-7.6451
G01 X40.6000 Z-7.7951
G01 X38.8000 Z-8.9222
G01 X37.0000 Z-9.0907
G01 X33.4000 Z-8.4548
G01 X32.6000 Z-7.2859
G01 Z-6.9170
G01 X37.2000 Y85.4000
G01 Z-7.4170
G01 X37.4000 Z-9.1078
G01 X39.0000 Z-9.0509
G01 X40.4000 Z-7.7462
G01 X42.8000 Z-7.6484
G01 X45.6000 Z-8.0132
G01 X47.2000 Z-9.0384
G01 X52.8000 Z-9.4207
G01 X57.0000 Z-9.4305
G01 X57.4000 Z-7.6754
G01 Z-7.1195
G01 X52.6000 Y86.6000
G01 Z-7.6195
G01 X51.4000 Z-9.3252
G01 X47.6000 Z-9.2752
G01 X44.8000 Z-8.0212
G01 X43.2000 Z-7.7815
G01 X42.8000 Z-7.2348
G01 Z0.5000
G01 X41.0000 Y97.8000
G01 Z-14.0000
G01 X54.0000
G00 Z2.0000
G00 X73.2000 Y50.2000
G01 Z-7.0255
G01 X72.8000 Z-7.6864
G01 X71.4000 Z-8.0531
G01 X68.6000 Z-10.1814
G01 X67.4000 Z-10.2092
G01 X63.0000 Z-8.9620
G01 X56.0000 Z-8.7682
G01 X54.6000 Z-7.9206
G01 X51.6000 Z-7.2769
G01 X48.4000 Z-5.0176
G01 X46.2000 Z-4.8434
G01 X44.0000 Z-5.5365
G01 X40.2000 Z-8.5191
G01 X34.0000 Z-9.1403
G01 X31.0000 Z-10.3818
G01 X30.0000 Z-11.8532
G01 X26.4000 Z-11.8959
G01 X24.4000 Z-11.4053
G01 X19.6000 Z-7.6209
G01 X17.0000 Z-6.4118
G01 X15.4000 Z-6.2109
G01 X12.4000 Z-7.2163
G01 X10.8000 Z-7.2505
G01 X8.0000 Z-6.4464
G01 X7.8000 Z-0.2363
G01 X7.0000 Z0.4824
G01 X-0.6000 Z0.5874
G01 X-1.8000 Z-0.2363
G01 X-2.0000 Z-14.0000
G01 X-3.0000
G01 Y49.0000
G01 X-2.0000
G01 X-1.8000 Z-0.2363
G01 X-0.6000 Z0.5874
G01 X6.4000 Z0.6000
G01 X7.4000 Z0.2462
G01 X7.8000 Z-0.2363
G01 X8.0000 Z-6.7383
G01 X9.4000 Z-7.2390
G01 X11.4000 Z-7.4120
G01 X12.6000 Z-7.2764
G01 X14.8000 Z-6.0172
G01 X17.2000 Z-6.0761
G01 X18.2000 Z-6.5965
G01 X19.2000 Z-7.8964
G01 X21.0000 Z-8.3169
G01 X22.2000 Z-9.6173
G01 X24.2000 Z-10.7956
G01 X26.4000 Z-11.4998
G01 X30.4000 Z-11.4783
G01 X31.4000 Z-10.3174
G01 X34.2000 Z-9.0520
G01 X40.6000 Z-8.6725
G01 X43.8000 Z-5.2288
G01 X46.2000 Z-4.8921
G01 X48.0000 Z-3.8331
G01 X48.8000 Z-3.9441
G01 X49.8000 Z-4.7056
G01 X51.6000 Z-7.4836
G01 X54.4000 Z-7.8682
G01 X55.6000 Z-8.7183
G01 X56.6000 Z-8.8911
G01 X64.2000 Z-9.0114
G01 X66.6000 Z-9.9200
G01 X68.0000 Z-10.0395
G01 X69.6000 Z-9.2952
G01 X70.8000 Z-7.8382
G01 X73.0000 Z-7.1753
G01 Z-7.0502
G01 X72.8000 Y47.4000
G01 X67.4000 Z-9.4775
G01 X66.0000 Z-9.4870
G01 X65.0000 Z-9.0134
G01 X59.8000 Z-8.7538
G01 X55.4000 Z-8.9397
G01 X54.2000 Z-8.0024
G01 X51.8000 Z-7.6577
G01 X51.0000 Z-5.3228
G01 X49.8000 Z-3.6374
G01 X49.0000 Z-3.2893
G01 X47.4000
G01 X46.6000 Z-3.6374
G01 X45.6000 Z-4.9271
G01 X43.8000 Z-5.5783
G01 X42.2000 Z-7.9861
G01 X40.6000 Z-9.1207
G01 X39.4000 Z-9.2977
G01 X36.2000 Z-8.9838
G01 X33.0000 Z-9.2623
G01 X31.4000 Z-9.9149
G01 X30.4000 Z-11.0358
G01 X27.4000 Z-11.2584
G01 X24.8000 Z-10.3911
G01 X23.2000 Z-10.2335
G01 X22.0000 Z-9.5797
G01 X18.4000 Z-6.4640
G01 X17.4000 Z-6.0437
G01 X14.4000 Z-6.2929
G01 X12.6000 Z-7.4008
G01 X9.0000 Z-7.2599
G01 X8.0000 Z-6.7898
G01 X7.8000 Z-0.2363
G01 X7.4000 Z0.2462
G01 X6.4000 Z0.6000
G01 X-0.8000 Z0.5874
G01 X-2.0000 Z-0.2363
G01 X-2.2000 Z-14.0000
G01 X-3.2000
G01 X-3.0000 Y46.2000
G01 X-2.0000
G01 X-1.8000 Z-0.2363
G01 X-0.6000 Z0.5874
G01 X6.4000 Z0.6000
G01 X7.4000 Z0.2462
G01 X7.8000 Z-0.2363
G01 X8.0000 Z-6.7372
G01 X9.2000 Z-7.3994
G01 X12.4000 Z-7.4327
G01 X14.8000 Z-6.3818
G01 X17.6000 Z-6.0868
G01 X22.4000 Z-9.7395
G01 X25.4000 Z-10.0894
G01 X26.4000 Z-10.7118
G01 X28.2000 Z-11.1172
G01 X30.4000 Z-11.0780
G01 X31.2000 Z-9.9289
G01 X32.8000 Z-9.2243
G01 X37.6000 Z-9.0614
G01 X39.2000 Z-9.8378
G01 X41.0000 Z-9.7818
G01 X42.2000 Z-9.1006
G01 X44.2000 Z-6.9640
G01 X45.2000 Z-6.4608
G01 X46.2000 Z-4.0762
G01 X47.8000 Z-3.3466
G01 X49.0000 Z-3.4264
G01 X49.8000 Z-3.9294
G01 X50.8000 Z-5.4260
G01 X51.6000 Z-7.6034
G01 X54.4000 Z-7.9353
G01 X56.0000 Z-9.0130
G01 X60.0000 Z-8.7618
G01 X66.4000 Z-9.1784
G01 X68.8000 Z-7.8952
G01 X71.4000 Z-7.5524
G01 X72.8000 Z-7.0373
G01 Z-6.5142
G01 X70.0000 Y44.6000
G01 Z-7.0142
G01 X68.6000 Z-7.3791
G01 X65.6000 Z-9.2840
G01 X61.8000 Z-9.2862
G01 X59.2000 Z-8.8610
G01 X56.8000 Z-9.1910
G01 X54.0000 Z-8.0456
G01 X51.0000 Z-7.9394
G01 X49.2000 Z-5.1286
G01 X47.8000 Z-4.5172
G01 X46.8000 Z-5.1597
G01 X44.8000 Z-9.1715
G01 X44.0000 Z-9.7266
G01 X41.8000 Z-10.2894
G01 X38.0000 Z-10.3056
G01 X36.8000 Z-9.5046
G01 X34.2000 Z-9.2850
G01 X32.8000 Z-9.4637
G01 X31.0000 Z-10.5515
G01 X28.2000 Z-10.5449
G01 X22.8000 Z-9.7031
G01 X21.2000 Z-8.4241
G01 X19.0000 Z-7.4853
G01 X18.2000 Z-6.4975
G01 X17.4000 Z-6.1399
G01 X14.4000 Z-6.2319
G01 X12.6000 Z-7.0496
G01 X8.6000 Z-7.0222
G01 X8.0000 Z-6.7114
G01 X7.8000 Z-0.2363
G01 X7.4000 Z0.2462
G01 X6.4000 Z0.6000
G01 X-0.6000 Z0.5874
G01 X-1.8000 Z-0.2363
G01 X-2.0000 Z-14.0000
G01 X-3.0000
G01 X-2.8000 Y43.4000
G01 X-1.8000
G01 Y41.8000
G01 X-2.8000
G01 X-2.6000 Y40.6000
G01 X-1.8000
G01 X-1.4000 Y39.0000
G01 X-2.4000
G01 Z0.0000
G01 X-2.2000 Y37.8000
G01 Z-14.0000
G01 X-1.2000
G01 X-0.8000 Y36.2000
G01 X-1.8000
G01 X-1.6000 Y35.0000
G01 X-0.6000
G01 Z-1.2539
G01 X-0.2000 Y33.4000
G01 Z-14.0000
G01 X-1.2000
G01 Z0.0000
G01 X-0.8000 Y32.2000
G01 Z-14.0000
G01 X0.2000
G01 X-0.2000 Y30.6000
G01 X0.8000
G01 Z-1.2539
G01 X1.2000 Y29.4000
G01 Z-14.0000
G01 X0.2000
G01 Z0.0000
G01 X0.8000 Y27.8000
G01 Z-14.0000
G01 X1.8000
G01 X1.4000 Y26.6000
G01 X2.2000
G01 X2.0000 Y25.0000
G01 X3.0000
G01 X2.6000 Y23.8000
G01 X3.8000
G01 X3.6000 Y22.2000
G01 X4.6000
G01 X4.4000 Y21.0000
G01 X5.4000
G01 Y19.4000
G01 X6.4000
G01 X6.2000 Y18.2000
G01 X7.2000
G01 X7.4000 Y16.6000
G01 X8.4000
G01 Y15.4000
G01 X9.4000
G01 X9.8000 Y13.8000
G01 X11.0000
G01 Y12.6000
G01 X12.2000
G00 Z2.0000
G00 X26.0000 Y30.6000
G01 Z-7.0440
G01 X28.8000 Z-8.6162
G01 X31.6000 Z-8.6215
G01 X34.6000 Z-9.7188
G01 X45.8000 Z-10.0373
G01 X48.6000 Z-9.0488
G01 X53.4000 Z-8.5147
G01 X59.4000 Z-8.9625
G01 X64.2000 Z-8.0338
G01 X66.4000 Z-7.0133
G01 Z-7.0004
G01 X67.8000 Y32.2000
G01 X62.6000 Z-8.5669
G01 X58.2000 Z-9.1584
G01 X53.0000 Z-9.3996
G01 X48.2000 Z-10.2389
G01 X45.6000 Z-10.2817
G01 X31.8000 Z-9.8812
G01 X29.8000 Z-9.3271
G01 X28.4000 Z-8.0272
G01 X25.4000 Z-7.2217
G01 X23.8000 Z-7.1103
G01 Z-7.0541
G01 X23.2000 Y33.4000
G01 X24.0000 Z-7.4486
G01 X26.8000 Z-7.6392
G01 X28.6000 Z-8.3555
G01 X30.0000 Z-9.6250
G01 X32.6000 Z-10.0694
G01 X47.6000 Z-10.4331
G01 X50.6000 Z-10.3263
G01 X54.4000 Z-9.6136
G01 X57.0000 Z-9.4755
G01 X59.4000 Z-8.7864
G01 X62.6000 Z-8.6373
G01 X67.8000 Z-7.0003
G01 Z-7.0261
G01 X68.6000 Y35.0000
G01 X66.2000 Z-7.3759
G01 X64.4000 Z-8.5969
G01 X59.2000 Z-8.7850
G01 X56.2000 Z-10.0136
G01 X50.8000 Z-10.5295
G01 X37.8000 Z-10.5197
G01 X31.8000 Z-10.0911
G01 X29.6000 Z-9.7888
G01 X27.8000 Z-8.4646
G01 X24.0000 Z-8.2035
G01 X22.8000 Z-7.7475
G01 X22.2000 Z-7.1715
G01 Z-7.0715
G01 X22.0000 Y36.2000
G01 X22.8000 Z-8.0740
G01 X24.2000 Z-8.8358
G01 X28.2000 Z-9.6390
G01 X33.4000 Z-10.3082
G01 X40.6000 Z-10.6002
G01 X56.0000 Z-10.2700
G01 X60.8000 Z-8.4841
G01 X65.0000 Z-8.7313
G01 X66.8000 Z-7.6806
G01 X70.2000 Z-7.0741
G01 Z-7.1854
G01 X70.6000 Y37.8000
G01 X65.6000 Z-8.7864
G01 X61.0000 Z-8.7273
G01 X57.8000 Z-10.4048
G01 X38.0000 Z-10.6979
G01 X25.8000 Z-9.5635
G01 X22.6000 Z-8.6629
G01 X21.2000 Z-7.2120
G01 Z-7.3026
G01 X19.8000 Y39.0000
G01 X20.4000 Z-8.1950
G01 X22.6000 Z-8.4517
G01 X23.8000 Z-9.3142
G01 X27.6000 Z-9.8858
G01 X30.6000 Z-9.6570
G01 X35.0000 Z-10.4792
G01 X38.8000 Z-10.7403
G01 X47.4000 Z-10.4294
G01 X58.4000 Z-10.4991
G01 X61.0000 Z-8.8187
G01 X65.6000 Z-8.9401
G01 X70.8000 Z-7.0279
G01 Z-7.0099
G01 X70.4000 Y40.6000
G01 X67.4000 Z-8.0598
G01 X66.2000 Z-9.0074
G01 X61.8000 Z-9.0983
G01 X59.6000 Z-10.4281
G01 X47.0000 Z-10.1969
G01 X40.2000 Z-10.7504
G01 X34.4000 Z-10.5519
G01 X31.0000 Z-9.5372
G01 X27.6000 Z-9.9014
G01 X24.2000 Z-9.5877
G01 X23.0000 Z-8.6927
G01 X20.6000 Z-8.3253
G01 X19.4000 Z-7.0826
G01 Z-7.1040
G01 X19.6000 Y41.8000
G01 X20.2000 Z-7.8720
G01 X22.8000 Z-8.9416
G01 X24.0000 Z-9.8004
G01 X28.4000 Z-9.9099
G01 X31.0000 Z-9.6304
G01 X32.8000 Z-10.4991
G01 X40.6000 Z-10.7493
G01 X49.2000 Z-9.6617
G01 X52.6000 Z-9.9294
G01 X54.2000 Z-9.7318
G01 X55.4000 Z-10.2862
G01 X58.4000 Z-9.8331
G01 X60.2000 Z-10.1366
G01 X61.4000 Z-9.9644
G01 X62.8000 Z-9.1063
G01 X66.0000 Z-9.0243
G01 X67.6000 Z-7.8749
G01 X69.8000 Z-7.0054
G01 Z-7.0204
G01 Y43.4000
G01 X67.0000 Z-8.1432
G01 X65.6000 Z-9.2004
G01 X62.2000 Z-9.5744
G01 X59.0000 Z-9.1438
G01 X55.8000 Z-9.4763
G01 X54.4000 Z-8.7184
G01 X50.6000 Z-8.6807
G01 X48.8000 Z-7.5704
G01 X47.4000 Z-7.5227
G01 X45.2000 Z-9.8225
G01 X42.4000 Z-10.4501
G01 X38.0000 Z-10.5326
G01 X34.8000 Z-9.6642
G01 X28.0000 Z-10.2815
G01 X23.2000 Z-9.8054
G01 X18.8000 Z-7.0029
G01 Z-6.5593
G01 X27.8000 Y29.4000
G01 Z-7.0593
G01 X29.2000 Z-8.2210
G01 X32.2000 Z-8.3436
G01 X34.0000 Z-9.0555
G01 X37.0000 Z-9.5397
G01 X41.2000 Z-9.1013
G01 X44.4000 Z-9.5903
G01 X45.8000 Z-9.5876
G01 X51.2000 Z-8.2054
G01 X55.0000 Z-8.0626
G01 X59.6000 Z-8.6879
G01 X63.6000 Z-7.7197
G01 X64.8000 Z-7.1089
G01 Z-7.0054
G01 X63.6000 Y27.8000
G01 X57.4000 Z-7.6604
G01 X54.4000 Z-7.1670
G01 X48.8000 Z-7.9856
G01 X46.0000 Z-8.7308
G01 X41.2000 Z-8.6242
G01 X36.4000 Z-8.9236
G01 X34.2000 Z-8.0722
G01 X33.2000 Z-7.3613
G01 X30.4000 Z-7.1422
G01 Z-6.5571
G01 X34.2000 Y26.6000
G01 Z-7.0571
G01 X35.8000 Z-8.2063
G01 X39.0000 Z-7.6359
G01 X41.4000 Z-8.2235
G01 X43.6000 Z-8.2434
G01 X47.6000 Z-8.1231
G01 X52.2000 Z-7.0263
G01 Z-7.0343
G01 X50.0000 Y25.0000
G01 X47.8000 Z-7.6292
G01 X35.8000 Z-7.0822
G01 Z-6.5009
G01 X47.0000 Y23.8000
G01 Z-7.0009
G01 X48.2000 Z-7.0015
G00 Z2.0000
G00 X56.2000 Y-1.4000
G01 Z-18.4000
G01 X61.0000
G01 X61.6000 Y-0.2000
G01 X64.6000
G01 X66.2000 Y1.4000
G01 X68.8000
G01 X69.2000 Y2.6000
G01 X71.2000
G01 X72.0000 Y4.2000
G01 X73.8000
G01 X74.0000 Y5.4000
G01 X75.6000
G01 X76.4000 Y7.0000
G01 X78.0000
G01 Y8.2000
G01 X79.4000
G01 X80.0000 Y9.8000
G01 X81.2000
G01 Y11.0000
G01 X82.4000
G01 X82.8000 Y12.6000
G01 X84.0000
G01 Y13.8000
G01 X85.2000
G01 X85.6000 Y15.4000
G01 X86.6000
G01 Y16.6000
G01 X87.6000
G01 X87.8000 Y18.2000
G01 X88.8000
G01 X88.6000 Y19.4000
G01 X89.6000
G01 Y21.0000
G01 X90.6000
G01 X90.4000 Y22.2000
G01 X91.4000
G01 Y23.8000
G01 X92.4000
G01 X92.0000 Y25.0000
G01 X93.0000
G01 X92.8000 Y26.6000
G01 X93.8000
G01 Z0.0000
G01 X94.2000 Y27.8000
G01 Z-18.4000
G01 X93.2000
G01 Z-1.2539
G01 X93.8000 Y29.4000
G01 Z-18.4000
G01 X94.8000
G01 X95.2000 Y30.6000
G01 X94.2000
G01 Z-1.2539
G01 X94.8000 Y32.2000
G01 Z-18.4000
G01 X95.8000
G01 Z0.0000
G01 X96.2000 Y33.4000
G01 Z-18.4000
G01 X95.2000
G01 Z-1.2539
G01 X95.6000 Y35.0000
G01 Z-18.4000
G01 X96.6000
G01 X96.8000 Y36.2000
G01 X95.8000
G01 Z-1.0298
G01 X96.2000 Y37.8000
G01 Z-18.4000
G01 X97.2000
G01 X97.4000 Y39.0000
G01 X96.4000
G01 X96.8000 Y40.6000
G01 X97.6000
G01 X97.8000 Y41.8000
G01 X96.8000
G01 Y43.4000
G01 X97.8000
G01 X98.0000 Y44.6000
G01 X97.0000
G01 Y46.2000
G01 X98.0000
G01 X98.2000 Y47.4000
G01 X97.2000
G01 X97.0000 Y49.0000
G01 X98.0000
G01 Y50.2000
G01 X97.0000
G01 X96.8000 Y51.8000
G01 X97.8000
G01 Y53.0000
G01 X96.8000
G01 X96.6000 Y54.6000
G01 X97.6000
G01 X97.4000 Y55.8000
G01 X96.4000
G01 X96.2000 Y57.4000
G01 X97.2000
G01 Z0.0000
G01 X96.8000 Y58.6000
G01 Z-18.4000
G01 X96.0000
G01 X95.6000 Y60.2000
G01 X96.6000
G01 X96.2000 Y61.4000
G01 X95.2000
G01 Z-1.2539
G01 X94.8000 Y63.0000
G01 Z-18.4000
G01 X95.6000
G01 X95.2000 Y64.2000
G01 X94.4000
G01 X94.6000 Y65.8000
G01 X93.8000
G01 X94.2000 Y67.0000
G01 X93.4000
G01 X93.6000 Y68.6000
G01 X92.6000
G01 Z-1.2539
G01 X92.2000 Y69.8000
G01 Z-18.4000
G01 X93.2000
G01 Z0.0000
G01 X92.2000 Y71.4000
G01 Z-18.4000
G01 X91.2000
G01 X91.4000 Y72.6000
G01 X90.4000
G01 X90.6000 Y74.2000
G01 X89.4000
G01 X89.8000 Y75.4000
G01 X88.6000
G01 Y77.0000
G01 X87.6000
G01 X87.8000 Y78.2000
G01 X86.6000
G01 X86.4000 Y79.8000
G01 X85.4000
G01 Y81.0000
G01 X84.2000
G01 X83.8000 Y82.6000
G01 X82.6000
G01 Y83.8000
G01 X81.4000
G01 X81.0000 Y85.4000
G01 X79.8000
G01 X79.6000 Y86.6000
G01 X78.4000
G01 X77.6000 Y88.2000
G01 X76.2000
G01 X76.0000 Y89.4000
G01 X74.2000
G01 X73.4000 Y91.0000
G01 X71.6000
G01 X71.4000 Y92.2000
G01 X69.6000
G01 X68.2000 Y93.8000
G01 X65.6000
G01 X65.2000 Y95.0000
G01 X62.2000
G01 X60.2000 Y96.6000
G01 X55.0000
G01 X54.8000 Z-0.6539
G01 X54.2000 Z-0.2551
G01 X52.2000 Z0.0402
G01 X46.2000 Z0.2462
G01 X40.8000 Z-0.2551
G01 X40.2000 Z-0.6539
G01 X40.0000 Z-18.4000
G01 X34.8000
G01 X32.8000 Y95.0000
G01 X30.0000
G01 X29.4000 Y93.8000
G01 X26.8000
G01 X25.4000 Y92.2000
G01 X23.6000
G01 X23.4000 Y91.0000
G01 X21.6000
G01 X20.8000 Y89.4000
G01 X19.0000
G01 X18.8000 Y88.2000
G01 X17.4000
G01 X16.8000 Y86.6000
G01 X15.4000
G01 X15.2000 Y85.4000
G01 X14.0000
G01 X13.6000 Y83.8000
G01 X12.4000
G01 Y82.6000
G01 X11.2000
G01 X10.8000 Y81.0000
G01 X9.6000
G01 Y79.8000
G01 X8.6000
G01 X8.4000 Y78.2000
G01 X7.2000
G01 X7.4000 Y77.0000
G01 X6.4000
G01 Y75.4000
G01 X5.2000
G01 X5.6000 Y74.2000
G01 X4.6000
G01 Y72.6000
G01 X3.6000
G01 X3.8000 Y71.4000
G01 X2.8000
G01 Y69.8000
G01 X1.8000
G01 Z0.0000
G01 X1.4000 Y68.6000
G01 Z-18.4000
G01 X2.4000
G01 Z-1.2539
G01 X1.8000 Y67.0000
G01 Z-18.4000
G01 X0.8000
G01 X0.4000 Y65.8000
G01 X1.2000
G01 X0.6000 Y64.2000
G01 X-0.2000
G01 X-0.6000 Y63.0000
G01 X0.2000
G01 X-0.2000 Y61.4000
G01 X-1.2000
G01 X-1.6000 Y60.2000
G01 X-0.6000
G01 X-1.0000 Y58.6000
G01 X-1.8000
G01 X-2.2000 Y57.4000
G01 X-1.2000
G01 X-1.4000 Y55.8000
G01 X-2.4000
G01 X-2.6000 Y54.6000
G01 X-1.6000
G01 Z-0.9150
G01 X-1.8000 Y53.0000
G01 Z-18.4000
G01 X-2.8000
G01 Y51.8000
G01 X-1.8000
G01 Z-1.0298
G01 X-2.0000 Y50.2000
G01 Z-18.4000
G01 X-3.0000
G01 Y49.0000
G01 X-2.0000
G01 X-2.2000 Y47.4000
G01 X-3.2000
G01 X-3.0000 Y46.2000
G01 X-2.0000
G01 Y44.6000
G01 X-3.0000
G01 X-2.8000 Y43.4000
G01 X-1.8000
G01 Y41.8000
G01 X-2.8000
G01 X-2.6000 Y40.6000
G01 X-1.8000
G01 X-1.4000 Y39.0000
G01 X-2.4000
G01 X-2.2000 Y37.8000
G01 X-1.2000
G01 Z-1.2539
G01 X-0.8000 Y36.2000
G01 Z-18.4000
G01 X-1.8000
G01 X-1.6000 Y35.0000
G01 X-0.6000
G01 Z-1.0298
G01 X-0.2000 Y33.4000
G01 Z-18.4000
G01 X-1.2000
G01 Z0.0000
G01 X-0.8000 Y32.2000
G01 Z-18.4000
G01 X0.2000
G01 X-0.2000 Y30.6000
G01 X0.8000
G01 Z-1.2539
G01 X1.2000 Y29.4000
G01 Z-18.4000
G01 X0.2000
G01 Z0.0000
G01 X0.8000 Y27.8000
G01 Z-18.4000
G01 X1.8000
G01 X1.4000 Y26.6000
G01 X2.2000
G01 X2.0000 Y25.0000
G01 X3.0000
G01 X2.6000 Y23.8000
G01 X3.8000
G01 X3.6000 Y22.2000
G01 X4.6000
G01 X4.4000 Y21.0000
G01 X5.4000
G01 Y19.4000
G01 X6.4000
G01 X6.2000 Y18.2000
G01 X7.2000
G01 X7.4000 Y16.6000
G01 X8.4000
G01 Y15.4000
G01 X9.4000
G01 X9.8000 Y13.8000
G01 X11.0000
G01 Y12.6000
G01 X12.2000
G01 X12.6000 Y11.0000
G01 X13.8000
G01 Y9.8000
G01 X15.0000
G01 X15.6000 Y8.2000
G01 X17.0000
G01 Y7.0000
G01 X18.6000
G01 X19.4000 Y5.4000
G01 X21.0000
G01 X21.2000 Y4.2000
G01 X23.0000
G01 X23.8000 Y2.6000
G01 X25.8000
G01 X26.2000 Y1.4000
G01 X28.8000
G01 X30.4000 Y-0.2000
G01 X33.4000
G01 X34.0000 Y-1.4000
G01 X39.0000
G01 Z-0.7539
G01 X43.0000 Y-3.0000
G01 Z-18.4000
G01 X52.0000
G00 Z2.0000
G00 X54.0000 Y97.8000
G01 Z-18.4000
G01 X41.0000
G00 Z2.0000
G00 X0.0000 Y0.0000


;No. 2: Finishing
G00 X10.0000 Y14.0000 Z2.0000
G01 Z-19.0000 F1200
G01 X7.0000 Y17.4000
G01 X2.4000 Y24.6000
G01 X0.2000 Y30.0000
G01 X-1.4000 Y34.8000
G01 X-2.2000 Y38.8000
G01 X-3.0000 Y47.0000
G01 X-2.6000 Y54.0000
G01 X-1.4000 Y60.2000
G01 X0.2000 Y65.0000
G01 X2.4000 Y70.4000
G01 X7.0000 Y77.6000
G01 X8.8000 Y79.8000
G01 X16.6000 Y87.4000
G01 X20.0000 Y89.8000
G01 X26.2000 Y93.4000
G01 X34.8000 Y96.4000
G01 X41.0000 Y97.6000
G01 X46.2000 Y98.0000
G01 X54.0000 Y97.6000
G01 X60.2000 Y96.4000
G01 X66.8000 Y94.2000
G01 X70.8000 Y92.4000
G01 X78.4000 Y87.4000
G01 X86.2000 Y79.8000
G01 X90.4000 Y74.0000
G01 X93.2000 Y69.2000
G01 X96.4000 Y60.2000
G01 X97.6000 Y54.0000
G01 X98.0000 Y47.8000
G01 X97.6000 Y41.0000
G01 X96.4000 Y34.8000
G01 X93.2000 Y25.8000
G01 X90.4000 Y21.0000
G01 X86.2000 Y15.2000
G01 X79.6000 Y8.6000
G01 X75.0000 Y5.2000
G01 X68.8000 Y1.6000
G01 X61.0000 Y-1.2000
G01 X54.0000 Y-2.6000
G01 X46.2000 Y-3.0000
G01 X38.8000 Y-2.2000
G01 X34.0000 Y-1.2000
G01 X30.4000 Y0.0000
G01 X24.2000 Y2.6000
G01 X17.4000 Y7.0000
G01 X15.2000 Y8.8000
G01 X10.0000 Y14.0000
G01 Z-18.5000
G01 X9.8000 Y15.4000
G01 Z-19.0000
G01 X8.0000 Y17.6000
G01 X3.4000 Y24.8000
G01 X1.2000 Y30.2000
G01 X-0.2000 Y34.4000
G01 X-1.0000 Y38.4000
G01 X-1.8000 Y46.6000
G01 X-1.4000 Y54.4000
G01 X-0.2000 Y60.6000
G01 X1.2000 Y64.8000
G01 X3.4000 Y70.2000
G01 X8.0000 Y77.4000
G01 X9.8000 Y79.6000
G01 X16.6000 Y86.2000
G01 X21.6000 Y89.6000
G01 X26.6000 Y92.4000
G01 X35.2000 Y95.4000
G01 X40.4000 Y96.4000
G01 X45.6000 Y96.8000
G01 X52.6000 Y96.6000
G01 X59.8000 Y95.4000
G01 X66.4000 Y93.2000
G01 X70.8000 Y91.2000
G01 X78.4000 Y86.2000
G01 X85.2000 Y79.6000
G01 X89.4000 Y73.8000
G01 X92.2000 Y69.0000
G01 X95.2000 Y60.6000
G01 X96.4000 Y54.4000
G01 X96.8000 Y48.2000
G01 X96.4000 Y40.6000
G01 X95.2000 Y34.4000
G01 X92.2000 Y26.0000
G01 X89.4000 Y21.2000
G01 X85.2000 Y15.4000
G01 X79.6000 Y9.8000
G01 X75.0000 Y6.4000
G01 X68.4000 Y2.6000
G01 X60.6000 Y-0.2000
G01 X54.6000 Y-1.4000
G01 X45.6000 Y-1.8000
G01 X38.2000 Y-1.0000
G01 X34.4000 Y-0.2000
G01 X30.8000 Y1.0000
G01 X24.2000 Y3.8000
G01 X17.4000 Y8.2000
G01 X15.2000 Y10.0000
G01 X9.8000 Y15.4000
G01 Z-0.9300
G01 X8.2000 Y17.8000
G01 Z-1.4300
G01 X3.6000 Y25.0000
G01 X1.4000 Y30.4000
G01 X0.0000 Y34.6000
G01 X-0.8000 Y38.6000
G01 X-1.6000 Y46.8000
G01 X-1.2000 Y54.2000
G01 X0.0000 Y60.4000
G01 X1.4000 Y64.6000
G01 X3.6000 Y70.0000
G01 X8.2000 Y77.2000
G01 X10.0000 Y79.4000
G01 X17.0000 Y86.2000
G01 X22.0000 Y89.6000
G01 X26.6000 Y92.2000
G01 X35.2000 Y95.2000
G01 X40.4000 Y96.2000
G01 X45.6000 Y96.6000
G01 X52.6000 Y96.4000
G01 X59.8000 Y95.2000
G01 X66.4000 Y93.0000
G01 X70.4000 Y91.2000
G01 X78.0000 Y86.2000
G01 X85.0000 Y79.4000
G01 X89.2000 Y73.6000
G01 X92.0000 Y68.8000
G01 X95.0000 Y60.4000
G01 X96.2000 Y54.2000
G01 X96.6000 Y48.0000
G01 X96.2000 Y40.8000
G01 X95.0000 Y34.6000
G01 X92.0000 Y26.2000
G01 X89.2000 Y21.4000
G01 X85.0000 Y15.6000
G01 X79.2000 Y9.8000
G01 X74.6000 Y6.4000
G01 X68.4000 Y2.8000
G01 X60.6000 Y0.0000
G01 X54.6000 Y-1.2000
G01 X45.6000 Y-1.6000
G01 X38.2000 Y-0.8000
G01 X34.4000 Y0.0000
G01 X30.8000 Y1.2000
G01 X24.6000 Y3.8000
G01 X17.8000 Y8.2000
G01 X12.2000 Y13.4000
G01 X8.2000 Y17.8000
G01 Z-1.9070
G01 X3.6000 Y25.0000
G01 X1.4000 Y30.4000
G01 X0.0000 Y34.6000
G01 X-0.8000 Y38.6000
G01 X-1.6000 Y46.8000
G01 X-1.2000 Y54.2000
G01 X0.0000 Y60.4000
G01 X1.4000 Y64.6000
G01 X3.6000 Y70.0000
G01 X8.2000 Y77.2000
G01 X10.0000 Y79.4000
G01 X17.0000 Y86.2000
G01 X22.0000 Y89.6000
G01 X26.6000 Y92.2000
G01 X35.2000 Y95.2000
G01 X40.4000 Y96.2000
G01 X45.6000 Y96.6000
G01 X52.6000 Y96.4000
G01 X59.8000 Y95.2000
G01 X66.4000 Y93.0000
G01 X70.4000 Y91.2000
G01 X78.0000 Y86.2000
G01 X85.0000 Y79.4000
G01 X89.2000 Y73.6000
G01 X92.0000 Y68.8000
G01 X95.0000 Y60.4000
G01 X96.2000 Y54.2000
G01 X96.6000 Y48.0000
G01 X96.2000 Y40.8000
G01 X95.0000 Y34.6000
G01 X92.0000 Y26.2000
G01 X89.2000 Y21.4000
G01 X85.0000 Y15.6000
G01 X79.2000 Y9.8000
G01 X74.6000 Y6.4000
G01 X68.4000 Y2.8000
G01 X60.6000 Y0.0000
G01 X54.6000 Y-1.2000
G01 X45.6000 Y-1.6000
G01 X38.2000 Y-0.8000
G01 X34.4000 Y0.0000
G01 X30.8000 Y1.2000
G01 X24.6000 Y3.8000
G01 X17.8000 Y8.2000
G01 X12.2000 Y13.4000
G01 X8.2000 Y17.8000
G01 Z-2.3840
G01 X3.6000 Y25.0000
G01 X1.4000 Y30.4000
G01 X0.0000 Y34.6000
G01 X-0.8000 Y38.6000
G01 X-1.6000 Y46.8000
G01 X-1.2000 Y54.2000
G01 X0.0000 Y60.4000
G01 X1.4000 Y64.6000
G01 X3.6000 Y70.0000
G01 X8.2000 Y77.2000
G01 X10.0000 Y79.4000
G01 X17.0000 Y86.2000
G01 X22.0000 Y89.6000
G01 X26.6000 Y92.2000
G01 X35.2000 Y95.2000
G01 X40.4000 Y96.2000
G01 X45.6000 Y96.6000
G01 X52.6000 Y96.4000
G01 X59.8000 Y95.2000
G01 X66.4000 Y93.0000
G01 X70.4000 Y91.2000
G01 X78.0000 Y86.2000
G01 X85.0000 Y79.4000
G01 X89.2000 Y73.6000
G01 X92.0000 Y68.8000
G01 X95.0000 Y60.4000
G01 X96.2000 Y54.2000
G01 X96.6000 Y48.0000
G01 X96.2000 Y40.8000
G01 X95.0000 Y34.6000
G01 X92.0000 Y26.2000
G01 X89.2000 Y21.4000
G01 X85.0000 Y15.6000
G01 X79.2000 Y9.8000
G01 X74.6000 Y6.4000
G01 X68.4000 Y2.8000
G01 X60.6000 Y0.0000
G01 X54.6000 Y-1.2000
G01 X45.6000 Y-1.6000
G01 X38.2000 Y-0.8000
G01 X34.4000 Y0.0000
G01 X30.8000 Y1.2000
G01 X24.6000 Y3.8000
G01 X17.8000 Y8.2000
G01 X12.2000 Y13.4000
G01 X8.2000 Y17.8000
G01 Z-2.8610
G01 X3.6000 Y25.0000
G01 X1.4000 Y30.4000
G01 X0.0000 Y34.6000
G01 X-0.8000 Y38.6000
G01 X-1.6000 Y46.8000
G01 X-1.2000 Y54.2000
G01 X0.0000 Y60.4000
G01 X1.4000 Y64.6000
G01 X3.6000 Y70.0000
G01 X8.2000 Y77.2000
G01 X10.0000 Y79.4000
G01 X17.0000 Y86.2000
G01 X22.0000 Y89.6000
G01 X26.6000 Y92.2000
G01 X35.2000 Y95.2000
G01 X40.4000 Y96.2000
G01 X45.6000 Y96.6000
G01 X52.6000 Y96.4000
G01 X59.8000 Y95.2000
G01 X66.4000 Y93.0000
G01 X70.4000 Y91.2000
G01 X78.0000 Y86.2000
G01 X85.0000 Y79.4000
G01 X89.2000 Y73.6000
G01 X92.0000 Y68.8000
G01 X95.0000 Y60.4000
G01 X96.2000 Y54.2000
G01 X96.6000 Y48.0000
G01 X96.2000 Y40.8000
G01 X95.0000 Y34.6000
G01 X92.0000 Y26.2000
G01 X89.2000 Y21.4000
G01 X85.0000 Y15.6000
G01 X79.2000 Y9.8000
G01 X74.6000 Y6.4000
G01 X68.4000 Y2.8000
G01 X60.6000 Y0.0000
G01 X54.6000 Y-1.2000
G01 X45.6000 Y-1.6000
G01 X38.2000 Y-0.8000
G01 X34.4000 Y0.0000
G01 X30.8000 Y1.2000
G01 X24.6000 Y3.8000
G01 X17.8000 Y8.2000
G01 X12.2000 Y13.4000
G01 X8.2000 Y17.8000
G01 Z-3.3380
G01 X3.6000 Y25.0000
G01 X1.4000 Y30.4000
G01 X0.0000 Y34.6000
G01 X-0.8000 Y38.6000
G01 X-1.6000 Y46.8000
G01 X-1.2000 Y54.2000
G01 X0.0000 Y60.4000
G01 X1.4000 Y64.6000
G01 X3.6000 Y70.0000
G01 X8.2000 Y77.2000
G01 X10.0000 Y79.4000
G01 X17.0000 Y86.2000
G01 X22.0000 Y89.6000
G01 X26.6000 Y92.2000
G01 X35.2000 Y95.2000
G01 X40.4000 Y96.2000
G01 X45.6000 Y96.6000
G01 X52.6000 Y96.4000
G01 X59.8000 Y95.2000
G01 X66.4000 Y93.0000
G01 X70.4000 Y91.2000
G01 X78.0000 Y86.2000
G01 X85.0000 Y79.4000
G01 X89.2000 Y73.6000
G01 X92.0000 Y68.8000
G01 X95.0000 Y60.4000
G01 X96.2000 Y54.2000
G01 X96.6000 Y48.0000
G01 X96.2000 Y40.8000
G01 X95.0000 Y34.6000
G01 X92.0000 Y26.2000
G01 X89.2000 Y21.4000
G01 X85.0000 Y15.6000
G01 X79.2000 Y9.8000
G01 X74.6000 Y6.4000
G01 X68.4000 Y2.8000
G01 X60.6000 Y0.0000
G01 X54.6000 Y-1.2000
G01 X45.6000 Y-1.6000
G01 X38.2000 Y-0.8000
G01 X34.4000 Y0.0000
G01 X30.8000 Y1.2000
G01 X24.6000 Y3.8000
G01 X17.8000 Y8.2000
G01 X12.2000 Y13.4000
G01 X8.2000 Y17.8000
G01 Z-3.8150
G01 X3.6000 Y25.0000
G01 X1.4000 Y30.4000
G01 X0.0000 Y34.6000
G01 X-0.8000 Y38.6000
G01 X-1.6000 Y46.8000
G01 X-1.2000 Y54.2000
G01 X0.0000 Y60.4000
G01 X1.4000 Y64.6000
G01 X3.6000 Y70.0000
G01 X8.2000 Y77.2000
G01 X10.0000 Y79.4000
G01 X17.0000 Y86.2000
G01 X22.0000 Y89.6000
G01 X26.6000 Y92.2000
G01 X35.2000 Y95.2000
G01 X40.4000 Y96.2000
G01 X45.6000 Y96.6000
G01 X52.6000 Y96.4000
G01 X59.8000 Y95.2000
G01 X66.4000 Y93.0000
G01 X70.4000 Y91.2000
G01 X78.0000 Y86.2000
G01 X85.0000 Y79.4000
G01 X89.2000 Y73.6000
G01 X92.0000 Y68.8000
G01 X95.0000 Y60.4000
G01 X96.2000 Y54.2000
G01 X96.6000 Y48.0000
G01 X96.2000 Y40.8000
G01 X95.0000 Y34.6000
G01 X92.0000 Y26.2000
G01 X89.2000 Y21.4000
G01 X85.0000 Y15.6000
G01 X79.2000 Y9.8000
G01 X74.6000 Y6.4000
G01 X68.4000 Y2.8000
G01 X60.6000 Y0.0000
G01 X54.6000 Y-1.2000
G01 X45.6000 Y-1.6000
G01 X38.2000 Y-0.8000
G01 X34.4000 Y0.0000
G01 X30.8000 Y1.2000
G01 X24.6000 Y3.8000
G01 X17.8000 Y8.2000
G01 X12.2000 Y13.4000
G01 X8.2000 Y17.8000
G01 Z-4.2920
G01 X3.6000 Y25.0000
G01 X1.4000 Y30.4000
G01 X0.0000 Y34.6000
G01 X-0.8000 Y38.6000
G01 X-1.6000 Y46.8000
G01 X-1.2000 Y54.2000
G01 X0.0000 Y60.4000
G01 X1.4000 Y64.6000
G01 X3.6000 Y70.0000
G01 X8.2000 Y77.2000
G01 X10.0000 Y79.4000
G01 X17.0000 Y86.2000
G01 X22.0000 Y89.6000
G01 X26.6000 Y92.2000
G01 X35.2000 Y95.2000
G01 X40.4000 Y96.2000
G01 X45.6000 Y96.6000
G01 X52.6000 Y96.4000
G01 X59.8000 Y95.2000
G01 X66.4000 Y93.0000
G01 X70.4000 Y91.2000
G01 X78.0000 Y86.2000
G01 X85.0000 Y79.4000
G01 X89.2000 Y73.6000
G01 X92.0000 Y68.8000
G01 X95.0000 Y60.4000
G01 X96.2000 Y54.2000
G01 X96.6000 Y48.0000
G01 X96.2000 Y40.8000
G01 X95.0000 Y34.6000
G01 X92.0000 Y26.2000
G01 X89.2000 Y21.4000
G01 X85.0000 Y15.6000
G01 X79.2000 Y9.8000
G01 X74.6000 Y6.4000
G01 X68.4000 Y2.8000
G01 X60.6000 Y0.0000
G01 X54.6000 Y-1.2000
G01 X45.6000 Y-1.6000
G01 X38.2000 Y-0.8000
G01 X34.4000 Y0.0000
G01 X30.8000 Y1.2000
G01 X24.6000 Y3.8000
G01 X17.8000 Y8.2000
G01 X12.2000 Y13.4000
G01 X8.2000 Y17.8000
G01 Z-4.7690
G01 X3.6000 Y25.0000
G01 X1.4000 Y30.4000
G01 X0.0000 Y34.6000
G01 X-0.8000 Y38.6000
G01 X-1.6000 Y46.8000
G01 X-1.2000 Y54.2000
G01 X0.0000 Y60.4000
G01 X1.4000 Y64.6000
G01 X3.6000 Y70.0000
G01 X8.2000 Y77.2000
G01 X10.0000 Y79.4000
G01 X17.0000 Y86.2000
G01 X22.0000 Y89.6000
G01 X26.6000 Y92.2000
G01 X35.2000 Y95.2000
G01 X40.4000 Y96.2000
G01 X45.6000 Y96.6000
G01 X52.6000 Y96.4000
G01 X59.8000 Y95.2000
G01 X66.4000 Y93.0000
G01 X70.4000 Y91.2000
G01 X78.0000 Y86.2000
G01 X85.0000 Y79.4000
G01 X89.2000 Y73.6000
G01 X92.0000 Y68.8000
G01 X95.0000 Y60.4000
G01 X96.2000 Y54.2000
G01 X96.6000 Y48.0000
G01 X96.2000 Y40.8000
G01 X95.0000 Y34.6000
G01 X92.0000 Y26.2000
G01 X89.2000 Y21.4000
G01 X85.0000 Y15.6000
G01 X79.2000 Y9.8000
G01 X74.6000 Y6.4000
G01 X68.4000 Y2.8000
G01 X60.6000 Y0.0000
G01 X54.6000 Y-1.2000
G01 X45.6000 Y-1.6000
G01 X38.2000 Y-0.8000
G01 X34.4000 Y0.0000
G01 X30.8000 Y1.2000
G01 X24.6000 Y3.8000
G01 X17.8000 Y8.2000
G01 X12.2000 Y13.4000
G01 X8.2000 Y17.8000
G01 Z-5.2460
G01 X3.6000 Y25.0000
G01 X1.4000 Y30.4000
G01 X0.0000 Y34.6000
G01 X-0.8000 Y38.6000
G01 X-1.6000 Y46.8000
G01 X-1.2000 Y54.2000
G01 X0.0000 Y60.4000
G01 X1.4000 Y64.6000
G01 X3.6000 Y70.0000
G01 X8.2000 Y77.2000
G01 X10.0000 Y79.4000
G01 X17.0000 Y86.2000
G01 X22.0000 Y89.6000
G01 X26.6000 Y92.2000
G01 X35.2000 Y95.2000
G01 X40.4000 Y96.2000
G01 X45.6000 Y96.6000
G01 X52.6000 Y96.4000
G01 X59.8000 Y95.2000
G01 X66.4000 Y93.0000
G01 X70.4000 Y91.2000
G01 X78.0000 Y86.2000
G01 X85.0000 Y79.4000
G01 X89.2000 Y73.6000
G01 X92.0000 Y68.8000
G01 X95.0000 Y60.4000
G01 X96.2000 Y54.2000
G01 X96.6000 Y48.0000
G01 X96.2000 Y40.8000
G01 X95.0000 Y34.6000
G01 X92.0000 Y26.2000
G01 X89.2000 Y21.4000
G01 X85.0000 Y15.6000
G01 X79.2000 Y9.8000
G01 X74.6000 Y6.4000
G01 X68.4000 Y2.8000
G01 X60.6000 Y0.0000
G01 X54.6000 Y-1.2000
G01 X45.6000 Y-1.6000
G01 X38.2000 Y-0.8000
G01 X34.4000 Y0.0000
G01 X30.8000 Y1.2000
G01 X24.6000 Y3.8000
G01 X17.8000 Y8.2000
G01 X12.2000 Y13.4000
G01 X8.2000 Y17.8000
G01 Z-5.7230
G01 X3.6000 Y25.0000
G01 X1.4000 Y30.4000
G01 X0.0000 Y34.6000
G01 X-0.8000 Y38.6000
G01 X-1.6000 Y46.8000
G01 X-1.2000 Y54.2000
G01 X0.0000 Y60.4000
G01 X1.4000 Y64.6000
G01 X3.6000 Y70.0000
G01 X8.2000 Y77.2000
G01 X10.0000 Y79.4000
G01 X17.0000 Y86.2000
G01 X22.0000 Y89.6000
G01 X26.6000 Y92.2000
G01 X35.2000 Y95.2000
G01 X40.4000 Y96.2000
G01 X45.6000 Y96.6000
G01 X52.6000 Y96.4000
G01 X59.8000 Y95.2000
G01 X66.4000 Y93.0000
G01 X70.4000 Y91.2000
G01 X78.0000 Y86.2000
G01 X85.0000 Y79.4000
G01 X89.2000 Y73.6000
G01 X92.0000 Y68.8000
G01 X95.0000 Y60.4000
G01 X96.2000 Y54.2000
G01 X96.6000 Y48.0000
G01 X96.2000 Y40.8000
G01 X95.0000 Y34.6000
G01 X92.0000 Y26.2000
G01 X89.2000 Y21.4000
G01 X85.0000 Y15.6000
G01 X79.2000 Y9.8000
G01 X74.6000 Y6.4000
G01 X68.4000 Y2.8000
G01 X60.6000 Y0.0000
G01 X54.6000 Y-1.2000
G01 X45.6000 Y-1.6000
G01 X38.2000 Y-0.8000
G01 X34.4000 Y0.0000
G01 X30.8000 Y1.2000
G01 X24.6000 Y3.8000
G01 X17.8000 Y8.2000
G01 X12.2000 Y13.4000
G01 X8.2000 Y17.8000
G01 Z-6.2000
G01 X3.6000 Y25.0000
G01 X1.4000 Y30.4000
G01 X0.0000 Y34.6000
G01 X-0.8000 Y38.6000
G01 X-1.6000 Y46.8000
G01 X-1.2000 Y54.2000
G01 X0.0000 Y60.4000
G01 X1.4000 Y64.6000
G01 X3.6000 Y70.0000
G01 X8.2000 Y77.2000
G01 X10.0000 Y79.4000
G01 X17.0000 Y86.2000
G01 X22.0000 Y89.6000
G01 X26.6000 Y92.2000
G01 X35.2000 Y95.2000
G01 X40.4000 Y96.2000
G01 X45.6000 Y96.6000
G01 X52.6000 Y96.4000
G01 X59.8000 Y95.2000
G01 X66.4000 Y93.0000
G01 X70.4000 Y91.2000
G01 X78.0000 Y86.2000
G01 X85.0000 Y79.4000
G01 X89.2000 Y73.6000
G01 X92.0000 Y68.8000
G01 X95.0000 Y60.4000
G01 X96.2000 Y54.2000
G01 X96.6000 Y48.0000
G01 X96.2000 Y40.8000
G01 X95.0000 Y34.6000
G01 X92.0000 Y26.2000
G01 X89.2000 Y21.4000
G01 X85.0000 Y15.6000
G01 X79.2000 Y9.8000
G01 X74.6000 Y6.4000
G01 X68.4000 Y2.8000
G01 X60.6000 Y0.0000
G01 X54.6000 Y-1.2000
G01 X45.6000 Y-1.6000
G01 X38.2000 Y-0.8000
G01 X34.4000 Y0.0000
G01 X30.8000 Y1.2000
G01 X24.6000 Y3.8000
G01 X17.8000 Y8.2000
G01 X12.2000 Y13.4000
G01 X8.2000 Y17.8000
G01 Z-6.6770
G01 X3.6000 Y25.0000
G01 X1.4000 Y30.4000
G01 X0.0000 Y34.6000
G01 X-0.8000 Y38.6000
G01 X-1.6000 Y46.8000
G01 X-1.2000 Y54.2000
G01 X0.0000 Y60.4000
G01 X1.4000 Y64.6000
G01 X3.6000 Y70.0000
G01 X8.2000 Y77.2000
G01 X10.0000 Y79.4000
G01 X17.0000 Y86.2000
G01 X22.0000 Y89.6000
G01 X26.6000 Y92.2000
G01 X35.2000 Y95.2000
G01 X40.4000 Y96.2000
G01 X45.6000 Y96.6000
G01 X52.6000 Y96.4000
G01 X59.8000 Y95.2000
G01 X66.4000 Y93.0000
G01 X70.4000 Y91.2000
G01 X78.0000 Y86.2000
G01 X85.0000 Y79.4000
G01 X89.2000 Y73.6000
G01 X92.0000 Y68.8000
G01 X95.0000 Y60.4000
G01 X96.2000 Y54.2000
G01 X96.6000 Y48.0000
G01 X96.2000 Y40.8000
G01 X95.0000 Y34.6000
G01 X92.0000 Y26.2000
G01 X89.2000 Y21.4000
G01 X85.0000 Y15.6000
G01 X79.2000 Y9.8000
G01 X74.6000 Y6.4000
G01 X68.4000 Y2.8000
G01 X60.6000 Y0.0000
G01 X54.6000 Y-1.2000
G01 X45.6000 Y-1.6000
G01 X38.2000 Y-0.8000
G01 X34.4000 Y0.0000
G01 X30.8000 Y1.2000
G01 X24.6000 Y3.8000
G01 X17.8000 Y8.2000
G01 X12.2000 Y13.4000
G01 X8.2000 Y17.8000
G01 Z-7.1540
G01 X3.6000 Y25.0000
G01 X1.4000 Y30.4000
G01 X0.0000 Y34.6000
G01 X-0.8000 Y38.6000
G01 X-1.6000 Y46.8000
G01 X-1.2000 Y54.2000
G01 X0.0000 Y60.4000
G01 X1.4000 Y64.6000
G01 X3.6000 Y70.0000
G01 X8.2000 Y77.2000
G01 X10.0000 Y79.4000
G01 X17.0000 Y86.2000
G01 X22.0000 Y89.6000
G01 X26.6000 Y92.2000
G01 X35.2000 Y95.2000
G01 X40.4000 Y96.2000
G01 X45.6000 Y96.6000
G01 X52.6000 Y96.4000
G01 X59.8000 Y95.2000
G01 X66.4000 Y93.0000
G01 X70.4000 Y91.2000
G01 X78.0000 Y86.2000
G01 X85.0000 Y79.4000
G01 X89.2000 Y73.6000
G01 X92.0000 Y68.8000
G01 X95.0000 Y60.4000
G01 X96.2000 Y54.2000
G01 X96.6000 Y48.0000
G01 X96.2000 Y40.8000
G01 X95.0000 Y34.6000
G01 X92.0000 Y26.2000
G01 X89.2000 Y21.4000
G01 X85.0000 Y15.6000
G01 X79.2000 Y9.8000
G01 X74.6000 Y6.4000
G01 X68.4000 Y2.8000
G01 X60.6000 Y0.0000
G01 X54.6000 Y-1.2000
G01 X45.6000 Y-1.6000
G01 X38.2000 Y-0.8000
G01 X34.4000 Y0.0000
G01 X30.8000 Y1.2000
G01 X24.6000 Y3.8000
G01 X17.8000 Y8.2000
G01 X12.2000 Y13.4000
G01 X8.2000 Y17.8000
G01 Z-7.6310
G01 X3.6000 Y25.0000
G01 X1.4000 Y30.4000
G01 X0.0000 Y34.6000
G01 X-0.8000 Y38.6000
G01 X-1.6000 Y46.8000
G01 X-1.2000 Y54.2000
G01 X0.0000 Y60.4000
G01 X1.4000 Y64.6000
G01 X3.6000 Y70.0000
G01 X8.2000 Y77.2000
G01 X10.0000 Y79.4000
G01 X17.0000 Y86.2000
G01 X22.0000 Y89.6000
G01 X26.6000 Y92.2000
G01 X35.2000 Y95.2000
G01 X40.4000 Y96.2000
G01 X45.6000 Y96.6000
G01 X52.6000 Y96.4000
G01 X59.8000 Y95.2000
G01 X66.4000 Y93.0000
G01 X70.4000 Y91.2000
G01 X78.0000 Y86.2000
G01 X85.0000 Y79.4000
G01 X89.2000 Y73.6000
G01 X92.0000 Y68.8000
G01 X95.0000 Y60.4000
G01 X96.2000 Y54.2000
G01 X96.6000 Y48.0000
G01 X96.2000 Y40.8000
G01 X95.0000 Y34.6000
G01 X92.0000 Y26.2000
G01 X89.2000 Y21.4000
G01 X85.0000 Y15.6000
G01 X79.2000 Y9.8000
G01 X74.6000 Y6.4000
G01 X68.4000 Y2.8000
G01 X60.6000 Y0.0000
G01 X54.6000 Y-1.2000
G01 X45.6000 Y-1.6000
G01 X38.2000 Y-0.8000
G01 X34.4000 Y0.0000
G01 X30.8000 Y1.2000
G01 X24.6000 Y3.8000
G01 X17.8000 Y8.2000
G01 X12.2000 Y13.4000
G01 X8.2000 Y17.8000
G01 Z-8.1080
G01 X3.6000 Y25.0000
G01 X1.4000 Y30.4000
G01 X0.0000 Y34.6000
G01 X-0.8000 Y38.6000
G01 X-1.6000 Y46.8000
G01 X-1.2000 Y54.2000
G01 X0.0000 Y60.4000
G01 X1.4000 Y64.6000
G01 X3.6000 Y70.0000
G01 X8.2000 Y77.2000
G01 X10.0000 Y79.4000
G01 X17.0000 Y86.2000
G01 X22.0000 Y89.6000
G01 X26.6000 Y92.2000
G01 X35.2000 Y95.2000
G01 X40.4000 Y96.2000
G01 X45.6000 Y96.6000
G01 X52.6000 Y96.4000
G01 X59.8000 Y95.2000
G01 X66.4000 Y93.0000
G01 X70.4000 Y91.2000
G01 X78.0000 Y86.2000
G01 X85.0000 Y79.4000
G01 X89.2000 Y73.6000
G01 X92.0000 Y68.8000
G01 X95.0000 Y60.4000
G01 X96.2000 Y54.2000
G01 X96.6000 Y48.0000
G01 X96.2000 Y40.8000
G01 X95.0000 Y34.6000
G01 X92.0000 Y26.2000
G01 X89.2000 Y21.4000
G01 X85.0000 Y15.6000
G01 X79.2000 Y9.8000
G01 X74.6000 Y6.4000
G01 X68.4000 Y2.8000
G01 X60.6000 Y0.0000
G01 X54.6000 Y-1.2000
G01 X45.6000 Y-1.6000
G01 X38.2000 Y-0.8000
G01 X34.4000 Y0.0000
G01 X30.8000 Y1.2000
G01 X24.6000 Y3.8000
G01 X17.8000 Y8.2000
G01 X12.2000 Y13.4000
G01 X8.2000 Y17.8000
G01 Z-8.5850
G01 X3.6000 Y25.0000
G01 X1.4000 Y30.4000
G01 X0.0000 Y34.6000
G01 X-0.8000 Y38.6000
G01 X-1.6000 Y46.8000
G01 X-1.2000 Y54.2000
G01 X0.0000 Y60.4000
G01 X1.4000 Y64.6000
G01 X3.6000 Y70.0000
G01 X8.2000 Y77.2000
G01 X10.0000 Y79.4000
G01 X17.0000 Y86.2000
G01 X22.0000 Y89.6000
G01 X26.6000 Y92.2000
G01 X35.2000 Y95.2000
G01 X40.4000 Y96.2000
G01 X45.6000 Y96.6000
G01 X52.6000 Y96.4000
G01 X59.8000 Y95.2000
G01 X66.4000 Y93.0000
G01 X70.4000 Y91.2000
G01 X78.0000 Y86.2000
G01 X85.0000 Y79.4000
G01 X89.2000 Y73.6000
G01 X92.0000 Y68.8000
G01 X95.0000 Y60.4000
G01 X96.2000 Y54.2000
G01 X96.6000 Y48.0000
G01 X96.2000 Y40.8000
G01 X95.0000 Y34.6000
G01 X92.0000 Y26.2000
G01 X89.2000 Y21.4000
G01 X85.0000 Y15.6000
G01 X79.2000 Y9.8000
G01 X74.6000 Y6.4000
G01 X68.4000 Y2.8000
G01 X60.6000 Y0.0000
G01 X54.6000 Y-1.2000
G01 X45.6000 Y-1.6000
G01 X38.2000 Y-0.8000
G01 X34.4000 Y0.0000
G01 X30.8000 Y1.2000
G01 X24.6000 Y3.8000
G01 X17.8000 Y8.2000
G01 X12.2000 Y13.4000
G01 X8.2000 Y17.8000
G01 Z-9.0620
G01 X3.6000 Y25.0000
G01 X1.4000 Y30.4000
G01 X0.0000 Y34.6000
G01 X-0.8000 Y38.6000
G01 X-1.6000 Y46.8000
G01 X-1.2000 Y54.2000
G01 X0.0000 Y60.4000
G01 X1.4000 Y64.6000
G01 X3.6000 Y70.0000
G01 X8.2000 Y77.2000
G01 X10.0000 Y79.4000
G01 X17.0000 Y86.2000
G01 X22.0000 Y89.6000
G01 X26.6000 Y92.2000
G01 X35.2000 Y95.2000
G01 X40.4000 Y96.2000
G01 X45.6000 Y96.6000
G01 X52.6000 Y96.4000
G01 X59.8000 Y95.2000
G01 X66.4000 Y93.0000
G01 X70.4000 Y91.2000
G01 X78.0000 Y86.2000
G01 X85.0000 Y79.4000
G01 X89.2000 Y73.6000
G01 X92.0000 Y68.8000
G01 X95.0000 Y60.4000
G01 X96.2000 Y54.2000
G01 X96.6000 Y48.0000
G01 X96.2000 Y40.8000
G01 X95.0000 Y34.6000
G01 X92.0000 Y26.2000
G01 X89.2000 Y21.4000
G01 X85.0000 Y15.6000
G01 X79.2000 Y9.8000
G01 X74.6000 Y6.4000
G01 X68.4000 Y2.8000
G01 X60.6000 Y0.0000
G01 X54.6000 Y-1.2000
G01 X45.6000 Y-1.6000
G01 X38.2000 Y-0.8000
G01 X34.4000 Y0.0000
G01 X30.8000 Y1.2000
G01 X24.6000 Y3.8000
G01 X17.8000 Y8.2000
G01 X12.2000 Y13.4000
G01 X8.2000 Y17.8000
G01 Z-9.5390
G01 X3.6000 Y25.0000
G01 X1.4000 Y30.4000
G01 X0.0000 Y34.6000
G01 X-0.8000 Y38.6000
G01 X-1.6000 Y46.8000
G01 X-1.2000 Y54.2000
G01 X0.0000 Y60.4000
G01 X1.4000 Y64.6000
G01 X3.6000 Y70.0000
G01 X8.2000 Y77.2000
G01 X10.0000 Y79.4000
G01 X17.0000 Y86.2000
G01 X22.0000 Y89.6000
G01 X26.6000 Y92.2000
G01 X35.2000 Y95.2000
G01 X40.4000 Y96.2000
G01 X45.6000 Y96.6000
G01 X52.6000 Y96.4000
G01 X59.8000 Y95.2000
G01 X66.4000 Y93.0000
G01 X70.4000 Y91.2000
G01 X78.0000 Y86.2000
G01 X85.0000 Y79.4000
G01 X89.2000 Y73.6000
G01 X92.0000 Y68.8000
G01 X95.0000 Y60.4000
G01 X96.2000 Y54.2000
G01 X96.6000 Y48.0000
G01 X96.2000 Y40.8000
G01 X95.0000 Y34.6000
G01 X92.0000 Y26.2000
G01 X89.2000 Y21.4000
G01 X85.0000 Y15.6000
G01 X79.2000 Y9.8000
G01 X74.6000 Y6.4000
G01 X68.4000 Y2.8000
G01 X60.6000 Y0.0000
G01 X54.6000 Y-1.2000
G01 X45.6000 Y-1.6000
G01 X38.2000 Y-0.8000
G01 X34.4000 Y0.0000
G01 X30.8000 Y1.2000
G01 X24.6000 Y3.8000
G01 X17.8000 Y8.2000
G01 X12.2000 Y13.4000
G01 X8.2000 Y17.8000
G01 Z-10.0160
G01 X3.6000 Y25.0000
G01 X1.4000 Y30.4000
G01 X0.0000 Y34.6000
G01 X-0.8000 Y38.6000
G01 X-1.6000 Y46.8000
G01 X-1.2000 Y54.2000
G01 X0.0000 Y60.4000
G01 X1.4000 Y64.6000
G01 X3.6000 Y70.0000
G01 X8.2000 Y77.2000
G01 X10.0000 Y79.4000
G01 X17.0000 Y86.2000
G01 X22.0000 Y89.6000
G01 X26.6000 Y92.2000
G01 X35.2000 Y95.2000
G01 X40.4000 Y96.2000
G01 X45.6000 Y96.6000
G01 X52.6000 Y96.4000
G01 X59.8000 Y95.2000
G01 X66.4000 Y93.0000
G01 X70.4000 Y91.2000
G01 X78.0000 Y86.2000
G01 X85.0000 Y79.4000
G01 X89.2000 Y73.6000
G01 X92.0000 Y68.8000
G01 X95.0000 Y60.4000
G01 X96.2000 Y54.2000
G01 X96.6000 Y48.0000
G01 X96.2000 Y40.8000
G01 X95.0000 Y34.6000
G01 X92.0000 Y26.2000
G01 X89.2000 Y21.4000
G01 X85.0000 Y15.6000
G01 X79.2000 Y9.8000
G01 X74.6000 Y6.4000
G01 X68.4000 Y2.8000
G01 X60.6000 Y0.0000
G01 X54.6000 Y-1.2000
G01 X45.6000 Y-1.6000
G01 X38.2000 Y-0.8000
G01 X34.4000 Y0.0000
G01 X30.8000 Y1.2000
G01 X24.6000 Y3.8000
G01 X17.8000 Y8.2000
G01 X12.2000 Y13.4000
G01 X8.2000 Y17.8000
G01 Z-10.4930
G01 X3.6000 Y25.0000
G01 X1.4000 Y30.4000
G01 X0.0000 Y34.6000
G01 X-0.8000 Y38.6000
G01 X-1.6000 Y46.8000
G01 X-1.2000 Y54.2000
G01 X0.0000 Y60.4000
G01 X1.4000 Y64.6000
G01 X3.6000 Y70.0000
G01 X8.2000 Y77.2000
G01 X10.0000 Y79.4000
G01 X17.0000 Y86.2000
G01 X22.0000 Y89.6000
G01 X26.6000 Y92.2000
G01 X35.2000 Y95.2000
G01 X40.4000 Y96.2000
G01 X45.6000 Y96.6000
G01 X52.6000 Y96.4000
G01 X59.8000 Y95.2000
G01 X66.4000 Y93.0000
G01 X70.4000 Y91.2000
G01 X78.0000 Y86.2000
G01 X85.0000 Y79.4000
G01 X89.2000 Y73.6000
G01 X92.0000 Y68.8000
G01 X95.0000 Y60.4000
G01 X96.2000 Y54.2000
G01 X96.6000 Y48.0000
G01 X96.2000 Y40.8000
G01 X95.0000 Y34.6000
G01 X92.0000 Y26.2000
G01 X89.2000 Y21.4000
G01 X85.0000 Y15.6000
G01 X79.2000 Y9.8000
G01 X74.6000 Y6.4000
G01 X68.4000 Y2.8000
G01 X60.6000 Y0.0000
G01 X54.6000 Y-1.2000
G01 X45.6000 Y-1.6000
G01 X38.2000 Y-0.8000
G01 X34.4000 Y0.0000
G01 X30.8000 Y1.2000
G01 X24.6000 Y3.8000
G01 X17.8000 Y8.2000
G01 X12.2000 Y13.4000
G01 X8.2000 Y17.8000
G01 Z-10.9700
G01 X3.6000 Y25.0000
G01 X1.4000 Y30.4000
G01 X0.0000 Y34.6000
G01 X-0.8000 Y38.6000
G01 X-1.6000 Y46.8000
G01 X-1.2000 Y54.2000
G01 X0.0000 Y60.4000
G01 X1.4000 Y64.6000
G01 X3.6000 Y70.0000
G01 X8.2000 Y77.2000
G01 X10.0000 Y79.4000
G01 X17.0000 Y86.2000
G01 X22.0000 Y89.6000
G01 X26.6000 Y92.2000
G01 X35.2000 Y95.2000
G01 X40.4000 Y96.2000
G01 X45.6000 Y96.6000
G01 X52.6000 Y96.4000
G01 X59.8000 Y95.2000
G01 X66.4000 Y93.0000
G01 X70.4000 Y91.2000
G01 X78.0000 Y86.2000
G01 X85.0000 Y79.4000
G01 X89.2000 Y73.6000
G01 X92.0000 Y68.8000
G01 X95.0000 Y60.4000
G01 X96.2000 Y54.2000
G01 X96.6000 Y48.0000
G01 X96.2000 Y40.8000
G01 X95.0000 Y34.6000
G01 X92.0000 Y26.2000
G01 X89.2000 Y21.4000
G01 X85.0000 Y15.6000
G01 X79.2000 Y9.8000
G01 X74.6000 Y6.4000
G01 X68.4000 Y2.8000
G01 X60.6000 Y0.0000
G01 X54.6000 Y-1.2000
G01 X45.6000 Y-1.6000
G01 X38.2000 Y-0.8000
G01 X34.4000 Y0.0000
G01 X30.8000 Y1.2000
G01 X24.6000 Y3.8000
G01 X17.8000 Y8.2000
G01 X12.2000 Y13.4000
G01 X8.2000 Y17.8000
G01 Z-11.4470
G01 X3.6000 Y25.0000
G01 X1.4000 Y30.4000
G01 X0.0000 Y34.6000
G01 X-0.8000 Y38.6000
G01 X-1.6000 Y46.8000
G01 X-1.2000 Y54.2000
G01 X0.0000 Y60.4000
G01 X1.4000 Y64.6000
G01 X3.6000 Y70.0000
G01 X8.2000 Y77.2000
G01 X10.0000 Y79.4000
G01 X17.0000 Y86.2000
G01 X22.0000 Y89.6000
G01 X26.6000 Y92.2000
G01 X35.2000 Y95.2000
G01 X40.4000 Y96.2000
G01 X45.6000 Y96.6000
G01 X52.6000 Y96.4000
G01 X59.8000 Y95.2000
G01 X66.4000 Y93.0000
G01 X70.4000 Y91.2000
G01 X78.0000 Y86.2000
G01 X85.0000 Y79.4000
G01 X89.2000 Y73.6000
G01 X92.0000 Y68.8000
G01 X95.0000 Y60.4000
G01 X96.2000 Y54.2000
G01 X96.6000 Y48.0000
G01 X96.2000 Y40.8000
G01 X95.0000 Y34.6000
G01 X92.0000 Y26.2000
G01 X89.2000 Y21.4000
G01 X85.0000 Y15.6000
G01 X79.2000 Y9.8000
G01 X74.6000 Y6.4000
G01 X68.4000 Y2.8000
G01 X60.6000 Y0.0000
G01 X54.6000 Y-1.2000
G01 X45.6000 Y-1.6000
G01 X38.2000 Y-0.8000
G01 X34.4000 Y0.0000
G01 X30.8000 Y1.2000
G01 X24.6000 Y3.8000
G01 X17.8000 Y8.2000
G01 X12.2000 Y13.4000
G01 X8.2000 Y17.8000
G01 Z-11.9240
G01 X3.6000 Y25.0000
G01 X1.4000 Y30.4000
G01 X0.0000 Y34.6000
G01 X-0.8000 Y38.6000
G01 X-1.6000 Y46.8000
G01 X-1.2000 Y54.2000
G01 X0.0000 Y60.4000
G01 X1.4000 Y64.6000
G01 X3.6000 Y70.0000
G01 X8.2000 Y77.2000
G01 X10.0000 Y79.4000
G01 X17.0000 Y86.2000
G01 X22.0000 Y89.6000
G01 X26.6000 Y92.2000
G01 X35.2000 Y95.2000
G01 X40.4000 Y96.2000
G01 X45.6000 Y96.6000
G01 X52.6000 Y96.4000
G01 X59.8000 Y95.2000
G01 X66.4000 Y93.0000
G01 X70.4000 Y91.2000
G01 X78.0000 Y86.2000
G01 X85.0000 Y79.4000
G01 X89.2000 Y73.6000
G01 X92.0000 Y68.8000
G01 X95.0000 Y60.4000
G01 X96.2000 Y54.2000
G01 X96.6000 Y48.0000
G01 X96.2000 Y40.8000
G01 X95.0000 Y34.6000
G01 X92.0000 Y26.2000
G01 X89.2000 Y21.4000
G01 X85.0000 Y15.6000
G01 X79.2000 Y9.8000
G01 X74.6000 Y6.4000
G01 X68.4000 Y2.8000
G01 X60.6000 Y0.0000
G01 X54.6000 Y-1.2000
G01 X45.6000 Y-1.6000
G01 X38.2000 Y-0.8000
G01 X34.4000 Y0.0000
G01 X30.8000 Y1.2000
G01 X24.6000 Y3.8000
G01 X17.8000 Y8.2000
G01 X12.2000 Y13.4000
G01 X8.2000 Y17.8000
G01 Z-12.4010
G01 X3.6000 Y25.0000
G01 X1.4000 Y30.4000
G01 X0.0000 Y34.6000
G01 X-0.8000 Y38.6000
G01 X-1.6000 Y46.8000
G01 X-1.2000 Y54.2000
G01 X0.0000 Y60.4000
G01 X1.4000 Y64.6000
G01 X3.6000 Y70.0000
G01 X8.2000 Y77.2000
G01 X10.0000 Y79.4000
G01 X17.0000 Y86.2000
G01 X22.0000 Y89.6000
G01 X26.6000 Y92.2000
G01 X35.2000 Y95.2000
G01 X40.4000 Y96.2000
G01 X45.6000 Y96.6000
G01 X52.6000 Y96.4000
G01 X59.8000 Y95.2000
G01 X66.4000 Y93.0000
G01 X70.4000 Y91.2000
G01 X78.0000 Y86.2000
G01 X85.0000 Y79.4000
G01 X89.2000 Y73.6000
G01 X92.0000 Y68.8000
G01 X95.0000 Y60.4000
G01 X96.2000 Y54.2000
G01 X96.6000 Y48.0000
G01 X96.2000 Y40.8000
G01 X95.0000 Y34.6000
G01 X92.0000 Y26.2000
G01 X89.2000 Y21.4000
G01 X85.0000 Y15.6000
G01 X79.2000 Y9.8000
G01 X74.6000 Y6.4000
G01 X68.4000 Y2.8000
G01 X60.6000 Y0.0000
G01 X54.6000 Y-1.2000
G01 X45.6000 Y-1.6000
G01 X38.2000 Y-0.8000
G01 X34.4000 Y0.0000
G01 X30.8000 Y1.2000
G01 X24.6000 Y3.8000
G01 X17.8000 Y8.2000
G01 X12.2000 Y13.4000
G01 X8.2000 Y17.8000
G01 Z-12.8780
G01 X3.6000 Y25.0000
G01 X1.4000 Y30.4000
G01 X0.0000 Y34.6000
G01 X-0.8000 Y38.6000
G01 X-1.6000 Y46.8000
G01 X-1.2000 Y54.2000
G01 X0.0000 Y60.4000
G01 X1.4000 Y64.6000
G01 X3.6000 Y70.0000
G01 X8.2000 Y77.2000
G01 X10.0000 Y79.4000
G01 X17.0000 Y86.2000
G01 X22.0000 Y89.6000
G01 X26.6000 Y92.2000
G01 X35.2000 Y95.2000
G01 X40.4000 Y96.2000
G01 X45.6000 Y96.6000
G01 X52.6000 Y96.4000
G01 X59.8000 Y95.2000
G01 X66.4000 Y93.0000
G01 X70.4000 Y91.2000
G01 X78.0000 Y86.2000
G01 X85.0000 Y79.4000
G01 X89.2000 Y73.6000
G01 X92.0000 Y68.8000
G01 X95.0000 Y60.4000
G01 X96.2000 Y54.2000
G01 X96.6000 Y48.0000
G01 X96.2000 Y40.8000
G01 X95.0000 Y34.6000
G01 X92.0000 Y26.2000
G01 X89.2000 Y21.4000
G01 X85.0000 Y15.6000
G01 X79.2000 Y9.8000
G01 X74.6000 Y6.4000
G01 X68.4000 Y2.8000
G01 X60.6000 Y0.0000
G01 X54.6000 Y-1.2000
G01 X45.6000 Y-1.6000
G01 X38.2000 Y-0.8000
G01 X34.4000 Y0.0000
G01 X30.8000 Y1.2000
G01 X24.6000 Y3.8000
G01 X17.8000 Y8.2000
G01 X12.2000 Y13.4000
G01 X8.2000 Y17.8000
G01 Z-13.3550
G01 X3.6000 Y25.0000
G01 X1.4000 Y30.4000
G01 X0.0000 Y34.6000
G01 X-0.8000 Y38.6000
G01 X-1.6000 Y46.8000
G01 X-1.2000 Y54.2000
G01 X0.0000 Y60.4000
G01 X1.4000 Y64.6000
G01 X3.6000 Y70.0000
G01 X8.2000 Y77.2000
G01 X10.0000 Y79.4000
G01 X17.0000 Y86.2000
G01 X22.0000 Y89.6000
G01 X26.6000 Y92.2000
G01 X35.2000 Y95.2000
G01 X40.4000 Y96.2000
G01 X45.6000 Y96.6000
G01 X52.6000 Y96.4000
G01 X59.8000 Y95.2000
G01 X66.4000 Y93.0000
G01 X70.4000 Y91.2000
G01 X78.0000 Y86.2000
G01 X85.0000 Y79.4000
G01 X89.2000 Y73.6000
G01 X92.0000 Y68.8000
G01 X95.0000 Y60.4000
G01 X96.2000 Y54.2000
G01 X96.6000 Y48.0000
G01 X96.2000 Y40.8000
G01 X95.0000 Y34.6000
G01 X92.0000 Y26.2000
G01 X89.2000 Y21.4000
G01 X85.0000 Y15.6000
G01 X79.2000 Y9.8000
G01 X74.6000 Y6.4000
G01 X68.4000 Y2.8000
G01 X60.6000 Y0.0000
G01 X54.6000 Y-1.2000
G01 X45.6000 Y-1.6000
G01 X38.2000 Y-0.8000
G01 X34.4000 Y0.0000
G01 X30.8000 Y1.2000
G01 X24.6000 Y3.8000
G01 X17.8000 Y8.2000
G01 X12.2000 Y13.4000
G01 X8.2000 Y17.8000
G01 Z-13.8320
G01 X3.6000 Y25.0000
G01 X1.4000 Y30.4000
G01 X0.0000 Y34.6000
G01 X-0.8000 Y38.6000
G01 X-1.6000 Y46.8000
G01 X-1.2000 Y54.2000
G01 X0.0000 Y60.4000
G01 X1.4000 Y64.6000
G01 X3.6000 Y70.0000
G01 X8.2000 Y77.2000
G01 X10.0000 Y79.4000
G01 X17.0000 Y86.2000
G01 X22.0000 Y89.6000
G01 X26.6000 Y92.2000
G01 X35.2000 Y95.2000
G01 X40.4000 Y96.2000
G01 X45.6000 Y96.6000
G01 X52.6000 Y96.4000
G01 X59.8000 Y95.2000
G01 X66.4000 Y93.0000
G01 X70.4000 Y91.2000
G01 X78.0000 Y86.2000
G01 X85.0000 Y79.4000
G01 X89.2000 Y73.6000
G01 X92.0000 Y68.8000
G01 X95.0000 Y60.4000
G01 X96.2000 Y54.2000
G01 X96.6000 Y48.0000
G01 X96.2000 Y40.8000
G01 X95.0000 Y34.6000
G01 X92.0000 Y26.2000
G01 X89.2000 Y21.4000
G01 X85.0000 Y15.6000
G01 X79.2000 Y9.8000
G01 X74.6000 Y6.4000
G01 X68.4000 Y2.8000
G01 X60.6000 Y0.0000
G01 X54.6000 Y-1.2000
G01 X45.6000 Y-1.6000
G01 X38.2000 Y-0.8000
G01 X34.4000 Y0.0000
G01 X30.8000 Y1.2000
G01 X24.6000 Y3.8000
G01 X17.8000 Y8.2000
G01 X12.2000 Y13.4000
G01 X8.2000 Y17.8000
G01 Z-14.3090
G01 X3.6000 Y25.0000
G01 X1.4000 Y30.4000
G01 X0.0000 Y34.6000
G01 X-0.8000 Y38.6000
G01 X-1.6000 Y46.8000
G01 X-1.2000 Y54.2000
G01 X0.0000 Y60.4000
G01 X1.4000 Y64.6000
G01 X3.6000 Y70.0000
G01 X8.2000 Y77.2000
G01 X10.0000 Y79.4000
G01 X17.0000 Y86.2000
G01 X22.0000 Y89.6000
G01 X26.6000 Y92.2000
G01 X35.2000 Y95.2000
G01 X40.4000 Y96.2000
G01 X45.6000 Y96.6000
G01 X52.6000 Y96.4000
G01 X59.8000 Y95.2000
G01 X66.4000 Y93.0000
G01 X70.4000 Y91.2000
G01 X78.0000 Y86.2000
G01 X85.0000 Y79.4000
G01 X89.2000 Y73.6000
G01 X92.0000 Y68.8000
G01 X95.0000 Y60.4000
G01 X96.2000 Y54.2000
G01 X96.6000 Y48.0000
G01 X96.2000 Y40.8000
G01 X95.0000 Y34.6000
G01 X92.0000 Y26.2000
G01 X89.2000 Y21.4000
G01 X85.0000 Y15.6000
G01 X79.2000 Y9.8000
G01 X74.6000 Y6.4000
G01 X68.4000 Y2.8000
G01 X60.6000 Y0.0000
G01 X54.6000 Y-1.2000
G01 X45.6000 Y-1.6000
G01 X38.2000 Y-0.8000
G01 X34.4000 Y0.0000
G01 X30.8000 Y1.2000
G01 X24.6000 Y3.8000
G01 X17.8000 Y8.2000
G01 X12.2000 Y13.4000
G01 X8.2000 Y17.8000
G01 Z-14.7860
G01 X3.6000 Y25.0000
G01 X1.4000 Y30.4000
G01 X0.0000 Y34.6000
G01 X-0.8000 Y38.6000
G01 X-1.6000 Y46.8000
G01 X-1.2000 Y54.2000
G01 X0.0000 Y60.4000
G01 X1.4000 Y64.6000
G01 X3.6000 Y70.0000
G01 X8.2000 Y77.2000
G01 X10.0000 Y79.4000
G01 X17.0000 Y86.2000
G01 X22.0000 Y89.6000
G01 X26.6000 Y92.2000
G01 X35.2000 Y95.2000
G01 X40.4000 Y96.2000
G01 X45.6000 Y96.6000
G01 X52.6000 Y96.4000
G01 X59.8000 Y95.2000
G01 X66.4000 Y93.0000
