;Project loidolt@gmail
;Created by Estlcam version 8 build 8.065
;Machining time about 12:10:32 AM hours

G90
M03 S24000
G00 Z5.0000


;No. 1: Pocketing: Cutout 3
G00 Z5.0000
G00 X25.2265 Y20.0335
G00 Z0.5000
G01 Z-1.5000 F60 S24000
G01 X21.4304 F1800
G01 X20.6971 Y20.7394
G01 X20.0010 Y21.4645
G01 X23.6043
G01 X22.7429 Y22.2791
G01 X22.1405 Y22.8955
G01 X18.6964
G01 X18.4256 Y23.2008
G01 X17.5035 Y24.3265
G01 X20.8054
G01 X20.4160 Y24.7720
G01 X19.6049 Y25.7575
G01 X16.4119
G01 X15.4125 Y27.1885
G01 X18.5039
G01 X17.5057 Y28.6195
G01 X14.4979
G01 X13.6618 Y30.0505
G01 X16.5979
G01 X15.7682 Y31.4815
G01 X12.8988
G01 X12.2044 Y32.9125
G01 X15.0152
G01 X14.3352 Y34.3435
G01 X11.5747
G01 X11.0062 Y35.7745
G01 X13.7223
G01 X13.1732 Y37.2055
G01 X10.4937
G01 X10.3747 Y37.5484
G01 X10.0409 Y38.6365
G01 X12.6864
G01 X12.2615 Y40.0675
G01 X9.6423
G01 X9.4679 Y40.7263
G01 X9.2957 Y41.4985
G01 X11.8951
G01 X11.7826 Y41.9522
G01 X11.5811 Y42.9295
G01 X9.0000
G01 X8.8035 Y44.0091
G01 X8.7538 Y44.3605
G01 X11.3214
G01 X11.2077 Y45.0472
G01 X11.1145 Y45.7915
G01 X8.5561
G01 X8.4108 Y47.2225
G01 X10.9597
G01 X10.8780 Y48.1779
G01 X10.8562 Y48.6535
G01 X8.3177
G01 X8.2959 Y49.0058
G01 X8.2716 Y50.0845
G01 X10.8036
G01 X10.8003 Y51.5155
G01 X8.2723
G01 X8.2864 Y52.3551
G01 X8.3197 Y52.9465
G01 X10.8513
G01 X10.9590 Y54.3775
G01 X8.4142
G01 X8.5560 Y55.8085
G01 X11.1164
G01 X11.2077 Y56.5528
G01 X11.3214 Y57.2395
G01 X8.7504
G01 X8.9978 Y58.6705
G01 X11.5811
G01 X11.7826 Y59.6478
G01 X11.8949 Y60.1015
G01 X9.2948
G01 X9.4119 Y60.6410
G01 X9.6425 Y61.5325
G01 X12.2642
G01 X12.6914 Y62.9635
G01 X10.0424
G01 X10.3144 Y63.8665
G01 X10.4963 Y64.3945
G01 X13.1737
G01 X13.7224 Y65.8255
G01 X11.0062
G01 X11.5747 Y67.2565
G01 X14.3352
G01 X15.0190 Y68.6875
G01 X12.2044
G01 X12.8988 Y70.1185
G01 X15.7711
G01 X15.9140 Y70.3860
G01 X16.5977 Y71.5495
G01 X13.6618
G01 X14.4979 Y72.9805
G01 X17.5057
G01 X18.5039 Y74.4115
G01 X15.4125
G01 X16.4119 Y75.8425
G01 X19.6059
G01 X20.5441 Y76.9765
G01 X20.8119 Y77.2735
G01 X17.5035
G01 X18.4256 Y78.3992
G01 X18.6964 Y78.7045
G01 X22.1405
G01 X22.7429 Y79.3209
G01 X23.6043 Y80.1355
G01 X20.0010
G01 X20.6971 Y80.8606
G01 X21.4304 Y81.5665
G01 X25.2308
G01 X26.2975 Y82.4270
G01 X27.0683 Y82.9975
G01 X23.0000
G01 X24.4496 Y84.1988
G01 X24.7529 Y84.4285
G01 X29.1279
G01 X30.4185 Y85.2272
G01 X31.5305 Y85.8595
G01 X26.7049
G01 X27.7589 Y86.5621
G01 X28.9339 Y87.2905
G01 X34.3997
G01 X35.5806 Y87.8001
G01 X36.5564 Y88.1866
G01 X38.0635 Y88.7215
G01 X31.5290
G02 X34.6422 Y90.1525 I17.9203 J-34.8835
G01 X43.6079
G01 Y91.5835
G01 X38.7099
G01 X62.8937
G03 X56.0328 Y93.0145 I-11.8595 J-39.6971
G01 X45.5528
G00 Z5.0000
G00 X58.0084 Y91.5835
G00 Z0.5000
G01 Z-1.5000
G01 Y90.1525
G01 X66.9511
G01 X68.4924 Y89.4885
G01 X69.5734 Y88.9757
G01 X70.0691 Y88.7215
G01 X63.5473
G02 X67.1980 Y87.2905 I-12.1552 J-36.3816
G01 X72.6630
G01 X73.9416 Y86.4972
G01 X74.8901 Y85.8595
G01 X70.0685
G01 X70.9553 Y85.3602
G01 X71.8549 Y84.8196
G01 X72.4642 Y84.4285
G01 X76.8519
G01 X77.9873 Y83.5211
G01 X78.5965 Y82.9975
G01 X74.5406
G01 X75.7153 Y82.1029
G01 X76.3702 Y81.5665
G01 X80.1764
G01 X80.8182 Y80.9451
G01 X81.6087 Y80.1355
G01 X77.9995
G01 X79.0690 Y79.1107
G01 X79.4631 Y78.7045
G01 X82.9044
G01 X83.4061 Y78.1251
G01 X84.0997 Y77.2735
G01 X80.7935
G01 X81.4030 Y76.5698
G01 X81.9967 Y75.8425
G01 X85.1844
G01 X85.6530 Y75.1942
G01 X86.1829 Y74.4115
G01 X83.0918
G01 X83.5784 Y73.7393
G01 X84.0944 Y72.9805
G01 X87.1003
G01 X87.6945 Y71.9803
G01 X87.9328 Y71.5495
G01 X85.0015
G01 X85.3725 Y70.9337
G01 X85.8318 Y70.1185
G01 X88.6984
G01 X89.3981 Y68.6875
G01 X86.5835
G01 X87.0070 Y67.8203
G01 X87.2612 Y67.2565
G01 X90.0256
G01 X90.4311 Y66.2658
G01 X90.5956 Y65.8255
G01 X87.8770
G01 X88.4270 Y64.3945
G01 X91.1073
G01 X91.5643 Y62.9635
G01 X88.9106
G01 X89.3380 Y61.5325
G01 X91.9638
G01 X92.3103 Y60.1015
G01 X89.7110
G01 X90.0213 Y58.6705
G01 X92.6036
G01 X92.7377 Y57.9450
G01 X92.8464 Y57.2395
G01 X90.2828
G01 X90.4906 Y55.8085
G01 X93.0415
G01 X93.1887 Y54.3775
G01 X90.6464
G01 X90.7478 Y52.9465
G01 X93.2877
G01 X93.3331 Y51.5155
G01 X90.7963
G01 X90.8080 Y50.8000
G01 X90.7986 Y50.0845
G01 X93.3333
G01 X93.2838 Y48.6535
G01 X90.7497
G01 X90.6437 Y47.2225
G01 X93.1872
G01 X93.0431 Y45.7915
G01 X90.4898
G01 X90.2842 Y44.3605
G01 X92.8485
G01 X92.6073 Y42.9295
G01 X90.0256
G01 X89.7067 Y41.4985
G01 X92.3090
G01 X91.9616 Y40.0675
G01 X89.3382
G01 X88.9116 Y38.6365
G01 X91.5617
G01 X91.3944 Y38.0755
G01 X91.1061 Y37.2055
G01 X88.4250
G01 X88.1397 Y36.4338
G01 X87.8735 Y35.7745
G01 X90.5976
G01 X90.0282 Y34.3435
G01 X87.2655
G01 X86.5829 Y32.9125
G01 X89.3932
G01 X89.0522 Y32.1834
G01 X88.6972 Y31.4815
G01 X85.8316
G01 X85.0030 Y30.0505
G01 X87.9372
G01 X87.0980 Y28.6195
G01 X84.0929
G01 X83.0926 Y27.1885
G01 X86.1840
G01 X85.1900 Y25.7575
G01 X81.9947
G01 X81.6902 Y25.3748
G01 X80.7926 Y24.3265
G01 X84.0959
G01 X83.7115 Y23.8435
G01 X82.9109 Y22.8955
G01 X79.4679
G01 X78.6694 Y22.0957
G01 X78.0020 Y21.4645
G01 X81.6047
G01 X80.4772 Y20.3191
G01 X80.1742 Y20.0335
G01 X76.3701
G01 X75.3025 Y19.1730
G01 X74.5450 Y18.6025
G01 X78.6035
G01 X77.6175 Y17.7751
G01 X76.8511 Y17.1715
G01 X72.4725
G01 X71.4294 Y16.5208
G01 X70.0665 Y15.7405
G01 X74.8899
G01 X73.5385 Y14.8447
G01 X72.6635 Y14.3095
G01 X67.1949
G02 X63.5438 Y12.8785 I-15.5400 J34.2760
G01 X70.0775
G02 X66.9537 Y11.4475 I-17.8892 J34.9254
G01 X57.9923
G01 X62.8929
G01 Y10.0165
G01 X38.7215
G03 X45.5687 Y8.5855 I11.6328 J38.5646
G01 X56.0511
G00 Z5.0000
G00 X43.6256 Y10.0165
G00 Z0.5000
G01 Z-1.5000
G01 Y11.4475
G01 X34.6440
G02 X31.5197 Y12.8785 I15.4741 J37.9101
G01 X38.0655
G01 X37.7898 Y12.9665
G01 X36.3115 Y13.5076
G01 X34.8555 Y14.1065
G01 X34.4124 Y14.3095
G01 X28.9430
G01 X28.5693 Y14.5286
G01 X27.1587 Y15.4318
G01 X26.7160 Y15.7405
G01 X31.5424
G01 X30.4185 Y16.3728
G01 X29.1279 Y17.1715
G01 X24.7529
G01 X24.4496 Y17.4012
G01 X23.0000 Y18.6025
G01 X27.0650
G00 Z5.0000
G00 X25.2265 Y20.0335
G00 Z-1.0000
G01 Z-3.0000 F60
G01 X21.4304 F1800
G01 X20.6971 Y20.7394
G01 X20.0010 Y21.4645
G01 X23.6043
G01 X22.7429 Y22.2791
G01 X22.1405 Y22.8955
G01 X18.6964
G01 X18.4256 Y23.2008
G01 X17.5035 Y24.3265
G01 X20.8054
G01 X20.4160 Y24.7720
G01 X19.6049 Y25.7575
G01 X16.4119
G01 X15.4125 Y27.1885
G01 X18.5039
G01 X17.5057 Y28.6195
G01 X14.4979
G01 X13.6618 Y30.0505
G01 X16.5979
G01 X15.7682 Y31.4815
G01 X12.8988
G01 X12.2044 Y32.9125
G01 X15.0152
G01 X14.3352 Y34.3435
G01 X11.5747
G01 X11.0062 Y35.7745
G01 X13.7223
G01 X13.1732 Y37.2055
G01 X10.4937
G01 X10.3747 Y37.5484
G01 X10.0409 Y38.6365
G01 X12.6864
G01 X12.2615 Y40.0675
G01 X9.6423
G01 X9.4679 Y40.7263
G01 X9.2957 Y41.4985
G01 X11.8951
G01 X11.7826 Y41.9522
G01 X11.5811 Y42.9295
G01 X9.0000
G01 X8.8035 Y44.0091
G01 X8.7538 Y44.3605
G01 X11.3214
G01 X11.2077 Y45.0472
G01 X11.1145 Y45.7915
G01 X8.5561
G01 X8.4108 Y47.2225
G01 X10.9597
G01 X10.8780 Y48.1779
G01 X10.8562 Y48.6535
G01 X8.3177
G01 X8.2959 Y49.0058
G01 X8.2716 Y50.0845
G01 X10.8036
G01 X10.8003 Y51.5155
G01 X8.2723
G01 X8.2864 Y52.3551
G01 X8.3197 Y52.9465
G01 X10.8513
G01 X10.9590 Y54.3775
G01 X8.4142
G01 X8.5560 Y55.8085
G01 X11.1164
G01 X11.2077 Y56.5528
G01 X11.3214 Y57.2395
G01 X8.7504
G01 X8.9978 Y58.6705
G01 X11.5811
G01 X11.7826 Y59.6478
G01 X11.8949 Y60.1015
G01 X9.2948
G01 X9.4119 Y60.6410
G01 X9.6425 Y61.5325
G01 X12.2642
G01 X12.6914 Y62.9635
G01 X10.0424
G01 X10.3144 Y63.8665
G01 X10.4963 Y64.3945
G01 X13.1737
G01 X13.7224 Y65.8255
G01 X11.0062
G01 X11.5747 Y67.2565
G01 X14.3352
G01 X15.0190 Y68.6875
G01 X12.2044
G01 X12.8988 Y70.1185
G01 X15.7711
G01 X15.9140 Y70.3860
G01 X16.5977 Y71.5495
G01 X13.6618
G01 X14.4979 Y72.9805
G01 X17.5057
G01 X18.5039 Y74.4115
G01 X15.4125
G01 X16.4119 Y75.8425
G01 X19.6059
G01 X20.5441 Y76.9765
G01 X20.8119 Y77.2735
G01 X17.5035
G01 X18.4256 Y78.3992
G01 X18.6964 Y78.7045
G01 X22.1405
G01 X22.7429 Y79.3209
G01 X23.6043 Y80.1355
G01 X20.0010
G01 X20.6971 Y80.8606
G01 X21.4304 Y81.5665
G01 X25.2308
G01 X26.2975 Y82.4270
G01 X27.0683 Y82.9975
G01 X23.0000
G01 X24.4496 Y84.1988
G01 X24.7529 Y84.4285
G01 X29.1279
G01 X30.4185 Y85.2272
G01 X31.5305 Y85.8595
G01 X26.7049
G01 X27.7589 Y86.5621
G01 X28.9339 Y87.2905
G01 X34.3997
G01 X35.5806 Y87.8001
G01 X36.5564 Y88.1866
G01 X38.0635 Y88.7215
G01 X31.5290
G02 X34.6422 Y90.1525 I17.9203 J-34.8835
G01 X43.6079
G01 Y91.5835
G01 X38.7099
G01 X62.8937
G03 X56.0328 Y93.0145 I-11.8595 J-39.6971
G01 X45.5528
G00 Z5.0000
G00 X58.0084 Y91.5835
G00 Z-1.0000
G01 Z-3.0000
G01 Y90.1525
G01 X66.9511
G01 X68.4924 Y89.4885
G01 X69.5734 Y88.9757
G01 X70.0691 Y88.7215
G01 X63.5473
G02 X67.1980 Y87.2905 I-12.1552 J-36.3816
G01 X72.6630
G01 X73.9416 Y86.4972
G01 X74.8901 Y85.8595
G01 X70.0685
G01 X70.9553 Y85.3602
G01 X71.8549 Y84.8196
G01 X72.4642 Y84.4285
G01 X76.8519
G01 X77.9873 Y83.5211
G01 X78.5965 Y82.9975
G01 X74.5406
G01 X75.7153 Y82.1029
G01 X76.3702 Y81.5665
G01 X80.1764
G01 X80.8182 Y80.9451
G01 X81.6087 Y80.1355
G01 X77.9995
G01 X79.0690 Y79.1107
G01 X79.4631 Y78.7045
G01 X82.9044
G01 X83.4061 Y78.1251
G01 X84.0997 Y77.2735
G01 X80.7935
G01 X81.4030 Y76.5698
G01 X81.9967 Y75.8425
G01 X85.1844
G01 X85.6530 Y75.1942
G01 X86.1829 Y74.4115
G01 X83.0918
G01 X83.5784 Y73.7393
G01 X84.0944 Y72.9805
G01 X87.1003
G01 X87.6945 Y71.9803
G01 X87.9328 Y71.5495
G01 X85.0015
G01 X85.3725 Y70.9337
G01 X85.8318 Y70.1185
G01 X88.6984
G01 X89.3981 Y68.6875
G01 X86.5835
G01 X87.0070 Y67.8203
G01 X87.2612 Y67.2565
G01 X90.0256
G01 X90.4311 Y66.2658
G01 X90.5956 Y65.8255
G01 X87.8770
G01 X88.4270 Y64.3945
G01 X91.1073
G01 X91.5643 Y62.9635
G01 X88.9106
G01 X89.3380 Y61.5325
G01 X91.9638
G01 X92.3103 Y60.1015
G01 X89.7110
G01 X90.0213 Y58.6705
G01 X92.6036
G01 X92.7377 Y57.9450
G01 X92.8464 Y57.2395
G01 X90.2828
G01 X90.4906 Y55.8085
G01 X93.0415
G01 X93.1887 Y54.3775
G01 X90.6464
G01 X90.7478 Y52.9465
G01 X93.2877
G01 X93.3331 Y51.5155
G01 X90.7963
G01 X90.8080 Y50.8000
G01 X90.7986 Y50.0845
G01 X93.3333
G01 X93.2838 Y48.6535
G01 X90.7497
G01 X90.6437 Y47.2225
G01 X93.1872
G01 X93.0431 Y45.7915
G01 X90.4898
G01 X90.2842 Y44.3605
G01 X92.8485
G01 X92.6073 Y42.9295
G01 X90.0256
G01 X89.7067 Y41.4985
G01 X92.3090
G01 X91.9616 Y40.0675
G01 X89.3382
G01 X88.9116 Y38.6365
G01 X91.5617
G01 X91.3944 Y38.0755
G01 X91.1061 Y37.2055
G01 X88.4250
G01 X88.1397 Y36.4338
G01 X87.8735 Y35.7745
G01 X90.5976
G01 X90.0282 Y34.3435
G01 X87.2655
G01 X86.5829 Y32.9125
G01 X89.3932
G01 X89.0522 Y32.1834
G01 X88.6972 Y31.4815
G01 X85.8316
G01 X85.0030 Y30.0505
G01 X87.9372
G01 X87.0980 Y28.6195
G01 X84.0929
G01 X83.0926 Y27.1885
G01 X86.1840
G01 X85.1900 Y25.7575
G01 X81.9947
G01 X81.6902 Y25.3748
G01 X80.7926 Y24.3265
G01 X84.0959
G01 X83.7115 Y23.8435
G01 X82.9109 Y22.8955
G01 X79.4679
G01 X78.6694 Y22.0957
G01 X78.0020 Y21.4645
G01 X81.6047
G01 X80.4772 Y20.3191
G01 X80.1742 Y20.0335
G01 X76.3701
G01 X75.3025 Y19.1730
G01 X74.5450 Y18.6025
G01 X78.6035
G01 X77.6175 Y17.7751
G01 X76.8511 Y17.1715
G01 X72.4725
G01 X71.4294 Y16.5208
G01 X70.0665 Y15.7405
G01 X74.8899
G01 X73.5385 Y14.8447
G01 X72.6635 Y14.3095
G01 X67.1949
G02 X63.5438 Y12.8785 I-15.5400 J34.2760
G01 X70.0775
G02 X66.9537 Y11.4475 I-17.8892 J34.9254
G01 X57.9923
G01 X62.8929
G01 Y10.0165
G01 X38.7215
G03 X45.5687 Y8.5855 I11.6328 J38.5646
G01 X56.0511
G00 Z5.0000
G00 X43.6256 Y10.0165
G00 Z-1.0000
G01 Z-3.0000
G01 Y11.4475
G01 X34.6440
G02 X31.5197 Y12.8785 I15.4741 J37.9101
G01 X38.0655
G01 X37.7898 Y12.9665
G01 X36.3115 Y13.5076
G01 X34.8555 Y14.1065
G01 X34.4124 Y14.3095
G01 X28.9430
G01 X28.5693 Y14.5286
G01 X27.1587 Y15.4318
G01 X26.7160 Y15.7405
G01 X31.5424
G01 X30.4185 Y16.3728
G01 X29.1279 Y17.1715
G01 X24.7529
G01 X24.4496 Y17.4012
G01 X23.0000 Y18.6025
G01 X27.0650
G00 Z5.0000
G00 X25.2265 Y20.0335
G00 Z-2.5000
G01 Z-4.5000 F60
G01 X21.4304 F1800
G01 X20.6971 Y20.7394
G01 X20.0010 Y21.4645
G01 X23.6043
G01 X22.7429 Y22.2791
G01 X22.1405 Y22.8955
G01 X18.6964
G01 X18.4256 Y23.2008
G01 X17.5035 Y24.3265
G01 X20.8054
G01 X20.4160 Y24.7720
G01 X19.6049 Y25.7575
G01 X16.4119
G01 X15.4125 Y27.1885
G01 X18.5039
G01 X17.5057 Y28.6195
G01 X14.4979
G01 X13.6618 Y30.0505
G01 X16.5979
G01 X15.7682 Y31.4815
G01 X12.8988
G01 X12.2044 Y32.9125
G01 X15.0152
G01 X14.3352 Y34.3435
G01 X11.5747
G01 X11.0062 Y35.7745
G01 X13.7223
G01 X13.1732 Y37.2055
G01 X10.4937
G01 X10.3747 Y37.5484
G01 X10.0409 Y38.6365
G01 X12.6864
G01 X12.2615 Y40.0675
G01 X9.6423
G01 X9.4679 Y40.7263
G01 X9.2957 Y41.4985
G01 X11.8951
G01 X11.7826 Y41.9522
G01 X11.5811 Y42.9295
G01 X9.0000
G01 X8.8035 Y44.0091
G01 X8.7538 Y44.3605
G01 X11.3214
G01 X11.2077 Y45.0472
G01 X11.1145 Y45.7915
G01 X8.5561
G01 X8.4108 Y47.2225
G01 X10.9597
G01 X10.8780 Y48.1779
G01 X10.8562 Y48.6535
G01 X8.3177
G01 X8.2959 Y49.0058
G01 X8.2716 Y50.0845
G01 X10.8036
G01 X10.8003 Y51.5155
G01 X8.2723
G01 X8.2864 Y52.3551
G01 X8.3197 Y52.9465
G01 X10.8513
G01 X10.9590 Y54.3775
G01 X8.4142
G01 X8.5560 Y55.8085
G01 X11.1164
G01 X11.2077 Y56.5528
G01 X11.3214 Y57.2395
G01 X8.7504
G01 X8.9978 Y58.6705
G01 X11.5811
G01 X11.7826 Y59.6478
G01 X11.8949 Y60.1015
G01 X9.2948
G01 X9.4119 Y60.6410
G01 X9.6425 Y61.5325
G01 X12.2642
G01 X12.6914 Y62.9635
G01 X10.0424
G01 X10.3144 Y63.8665
G01 X10.4963 Y64.3945
G01 X13.1737
G01 X13.7224 Y65.8255
G01 X11.0062
G01 X11.5747 Y67.2565
G01 X14.3352
G01 X15.0190 Y68.6875
G01 X12.2044
G01 X12.8988 Y70.1185
G01 X15.7711
G01 X15.9140 Y70.3860
G01 X16.5977 Y71.5495
G01 X13.6618
G01 X14.4979 Y72.9805
G01 X17.5057
G01 X18.5039 Y74.4115
G01 X15.4125
G01 X16.4119 Y75.8425
G01 X19.6059
G01 X20.5441 Y76.9765
G01 X20.8119 Y77.2735
G01 X17.5035
G01 X18.4256 Y78.3992
G01 X18.6964 Y78.7045
G01 X22.1405
G01 X22.7429 Y79.3209
G01 X23.6043 Y80.1355
G01 X20.0010
G01 X20.6971 Y80.8606
G01 X21.4304 Y81.5665
G01 X25.2308
G01 X26.2975 Y82.4270
G01 X27.0683 Y82.9975
G01 X23.0000
G01 X24.4496 Y84.1988
G01 X24.7529 Y84.4285
G01 X29.1279
G01 X30.4185 Y85.2272
G01 X31.5305 Y85.8595
G01 X26.7049
G01 X27.7589 Y86.5621
G01 X28.9339 Y87.2905
G01 X34.3997
G01 X35.5806 Y87.8001
G01 X36.5564 Y88.1866
G01 X38.0635 Y88.7215
G01 X31.5290
G02 X34.6422 Y90.1525 I17.9203 J-34.8835
G01 X43.6079
G01 Y91.5835
G01 X38.7099
G01 X62.8937
G03 X56.0328 Y93.0145 I-11.8595 J-39.6971
G01 X45.5528
G00 Z5.0000
G00 X58.0084 Y91.5835
G00 Z-2.5000
G01 Z-4.5000
G01 Y90.1525
G01 X66.9511
G01 X68.4924 Y89.4885
G01 X69.5734 Y88.9757
G01 X70.0691 Y88.7215
G01 X63.5473
G02 X67.1980 Y87.2905 I-12.1552 J-36.3816
G01 X72.6630
G01 X73.9416 Y86.4972
G01 X74.8901 Y85.8595
G01 X70.0685
G01 X70.9553 Y85.3602
G01 X71.8549 Y84.8196
G01 X72.4642 Y84.4285
G01 X76.8519
G01 X77.9873 Y83.5211
G01 X78.5965 Y82.9975
G01 X74.5406
G01 X75.7153 Y82.1029
G01 X76.3702 Y81.5665
G01 X80.1764
G01 X80.8182 Y80.9451
G01 X81.6087 Y80.1355
G01 X77.9995
G01 X79.0690 Y79.1107
G01 X79.4631 Y78.7045
G01 X82.9044
G01 X83.4061 Y78.1251
G01 X84.0997 Y77.2735
G01 X80.7935
G01 X81.4030 Y76.5698
G01 X81.9967 Y75.8425
G01 X85.1844
G01 X85.6530 Y75.1942
G01 X86.1829 Y74.4115
G01 X83.0918
G01 X83.5784 Y73.7393
G01 X84.0944 Y72.9805
G01 X87.1003
G01 X87.6945 Y71.9803
G01 X87.9328 Y71.5495
G01 X85.0015
G01 X85.3725 Y70.9337
G01 X85.8318 Y70.1185
G01 X88.6984
G01 X89.3981 Y68.6875
G01 X86.5835
G01 X87.0070 Y67.8203
G01 X87.2612 Y67.2565
G01 X90.0256
G01 X90.4311 Y66.2658
G01 X90.5956 Y65.8255
G01 X87.8770
G01 X88.4270 Y64.3945
G01 X91.1073
G01 X91.5643 Y62.9635
G01 X88.9106
G01 X89.3380 Y61.5325
G01 X91.9638
G01 X92.3103 Y60.1015
G01 X89.7110
G01 X90.0213 Y58.6705
G01 X92.6036
G01 X92.7377 Y57.9450
G01 X92.8464 Y57.2395
G01 X90.2828
G01 X90.4906 Y55.8085
G01 X93.0415
G01 X93.1887 Y54.3775
G01 X90.6464
G01 X90.7478 Y52.9465
G01 X93.2877
G01 X93.3331 Y51.5155
G01 X90.7963
G01 X90.8080 Y50.8000
G01 X90.7986 Y50.0845
G01 X93.3333
G01 X93.2838 Y48.6535
G01 X90.7497
G01 X90.6437 Y47.2225
G01 X93.1872
G01 X93.0431 Y45.7915
G01 X90.4898
G01 X90.2842 Y44.3605
G01 X92.8485
G01 X92.6073 Y42.9295
G01 X90.0256
G01 X89.7067 Y41.4985
G01 X92.3090
G01 X91.9616 Y40.0675
G01 X89.3382
G01 X88.9116 Y38.6365
G01 X91.5617
G01 X91.3944 Y38.0755
G01 X91.1061 Y37.2055
G01 X88.4250
G01 X88.1397 Y36.4338
G01 X87.8735 Y35.7745
G01 X90.5976
G01 X90.0282 Y34.3435
G01 X87.2655
G01 X86.5829 Y32.9125
G01 X89.3932
G01 X89.0522 Y32.1834
G01 X88.6972 Y31.4815
G01 X85.8316
G01 X85.0030 Y30.0505
G01 X87.9372
G01 X87.0980 Y28.6195
G01 X84.0929
G01 X83.0926 Y27.1885
G01 X86.1840
G01 X85.1900 Y25.7575
G01 X81.9947
G01 X81.6902 Y25.3748
G01 X80.7926 Y24.3265
G01 X84.0959
G01 X83.7115 Y23.8435
G01 X82.9109 Y22.8955
G01 X79.4679
G01 X78.6694 Y22.0957
G01 X78.0020 Y21.4645
G01 X81.6047
G01 X80.4772 Y20.3191
G01 X80.1742 Y20.0335
G01 X76.3701
G01 X75.3025 Y19.1730
G01 X74.5450 Y18.6025
G01 X78.6035
G01 X77.6175 Y17.7751
G01 X76.8511 Y17.1715
G01 X72.4725
G01 X71.4294 Y16.5208
G01 X70.0665 Y15.7405
G01 X74.8899
G01 X73.5385 Y14.8447
G01 X72.6635 Y14.3095
G01 X67.1949
G02 X63.5438 Y12.8785 I-15.5400 J34.2760
G01 X70.0775
G02 X66.9537 Y11.4475 I-17.8892 J34.9254
G01 X57.9923
G01 X62.8929
G01 Y10.0165
G01 X38.7215
G03 X45.5687 Y8.5855 I11.6328 J38.5646
G01 X56.0511
G00 Z5.0000
G00 X43.6256 Y10.0165
G00 Z-2.5000
G01 Z-4.5000
G01 Y11.4475
G01 X34.6440
G02 X31.5197 Y12.8785 I15.4741 J37.9101
G01 X38.0655
G01 X37.7898 Y12.9665
G01 X36.3115 Y13.5076
G01 X34.8555 Y14.1065
G01 X34.4124 Y14.3095
G01 X28.9430
G01 X28.5693 Y14.5286
G01 X27.1587 Y15.4318
G01 X26.7160 Y15.7405
G01 X31.5424
G01 X30.4185 Y16.3728
G01 X29.1279 Y17.1715
G01 X24.7529
G01 X24.4496 Y17.4012
G01 X23.0000 Y18.6025
G01 X27.0650
G00 Z5.0000
G00 X25.2265 Y20.0335
G00 Z-4.0000
G01 Z-6.0000 F60
G01 X21.4304 F1800
G01 X20.6971 Y20.7394
G01 X20.0010 Y21.4645
G01 X23.6043
G01 X22.7429 Y22.2791
G01 X22.1405 Y22.8955
G01 X18.6964
G01 X18.4256 Y23.2008
G01 X17.5035 Y24.3265
G01 X20.8054
G01 X20.4160 Y24.7720
G01 X19.6049 Y25.7575
G01 X16.4119
G01 X15.4125 Y27.1885
G01 X18.5039
G01 X17.5057 Y28.6195
G01 X14.4979
G01 X13.6618 Y30.0505
G01 X16.5979
G01 X15.7682 Y31.4815
G01 X12.8988
G01 X12.2044 Y32.9125
G01 X15.0152
G01 X14.3352 Y34.3435
G01 X11.5747
G01 X11.0062 Y35.7745
G01 X13.7223
G01 X13.1732 Y37.2055
G01 X10.4937
G01 X10.3747 Y37.5484
G01 X10.0409 Y38.6365
G01 X12.6864
G01 X12.2615 Y40.0675
G01 X9.6423
G01 X9.4679 Y40.7263
G01 X9.2957 Y41.4985
G01 X11.8951
G01 X11.7826 Y41.9522
G01 X11.5811 Y42.9295
G01 X9.0000
G01 X8.8035 Y44.0091
G01 X8.7538 Y44.3605
G01 X11.3214
G01 X11.2077 Y45.0472
G01 X11.1145 Y45.7915
G01 X8.5561
G01 X8.4108 Y47.2225
G01 X10.9597
G01 X10.8780 Y48.1779
G01 X10.8562 Y48.6535
G01 X8.3177
G01 X8.2959 Y49.0058
G01 X8.2716 Y50.0845
G01 X10.8036
G01 X10.8003 Y51.5155
G01 X8.2723
G01 X8.2864 Y52.3551
G01 X8.3197 Y52.9465
G01 X10.8513
G01 X10.9590 Y54.3775
G01 X8.4142
G01 X8.5560 Y55.8085
G01 X11.1164
G01 X11.2077 Y56.5528
G01 X11.3214 Y57.2395
G01 X8.7504
G01 X8.9978 Y58.6705
G01 X11.5811
G01 X11.7826 Y59.6478
G01 X11.8949 Y60.1015
G01 X9.2948
G01 X9.4119 Y60.6410
G01 X9.6425 Y61.5325
G01 X12.2642
G01 X12.6914 Y62.9635
G01 X10.0424
G01 X10.3144 Y63.8665
G01 X10.4963 Y64.3945
G01 X13.1737
G01 X13.7224 Y65.8255
G01 X11.0062
G01 X11.5747 Y67.2565
G01 X14.3352
G01 X15.0190 Y68.6875
G01 X12.2044
G01 X12.8988 Y70.1185
G01 X15.7711
G01 X15.9140 Y70.3860
G01 X16.5977 Y71.5495
G01 X13.6618
G01 X14.4979 Y72.9805
G01 X17.5057
G01 X18.5039 Y74.4115
G01 X15.4125
G01 X16.4119 Y75.8425
G01 X19.6059
G01 X20.5441 Y76.9765
G01 X20.8119 Y77.2735
G01 X17.5035
G01 X18.4256 Y78.3992
G01 X18.6964 Y78.7045
G01 X22.1405
G01 X22.7429 Y79.3209
G01 X23.6043 Y80.1355
G01 X20.0010
G01 X20.6971 Y80.8606
G01 X21.4304 Y81.5665
G01 X25.2308
G01 X26.2975 Y82.4270
G01 X27.0683 Y82.9975
G01 X23.0000
G01 X24.4496 Y84.1988
G01 X24.7529 Y84.4285
G01 X29.1279
G01 X30.4185 Y85.2272
G01 X31.5305 Y85.8595
G01 X26.7049
G01 X27.7589 Y86.5621
G01 X28.9339 Y87.2905
G01 X34.3997
G01 X35.5806 Y87.8001
G01 X36.5564 Y88.1866
G01 X38.0635 Y88.7215
G01 X31.5290
G02 X34.6422 Y90.1525 I17.9203 J-34.8835
G01 X43.6079
G01 Y91.5835
G01 X38.7099
G01 X62.8937
G03 X56.0328 Y93.0145 I-11.8595 J-39.6971
G01 X45.5528
G00 Z5.0000
G00 X58.0084 Y91.5835
G00 Z-4.0000
G01 Z-6.0000
G01 Y90.1525
G01 X66.9511
G01 X68.4924 Y89.4885
G01 X69.5734 Y88.9757
G01 X70.0691 Y88.7215
G01 X63.5473
G02 X67.1980 Y87.2905 I-12.1552 J-36.3816
G01 X72.6630
G01 X73.9416 Y86.4972
G01 X74.8901 Y85.8595
G01 X70.0685
G01 X70.9553 Y85.3602
G01 X71.8549 Y84.8196
G01 X72.4642 Y84.4285
G01 X76.8519
G01 X77.9873 Y83.5211
G01 X78.5965 Y82.9975
G01 X74.5406
G01 X75.7153 Y82.1029
G01 X76.3702 Y81.5665
G01 X80.1764
G01 X80.8182 Y80.9451
G01 X81.6087 Y80.1355
G01 X77.9995
G01 X79.0690 Y79.1107
G01 X79.4631 Y78.7045
G01 X82.9044
G01 X83.4061 Y78.1251
G01 X84.0997 Y77.2735
G01 X80.7935
G01 X81.4030 Y76.5698
G01 X81.9967 Y75.8425
G01 X85.1844
G01 X85.6530 Y75.1942
G01 X86.1829 Y74.4115
G01 X83.0918
G01 X83.5784 Y73.7393
G01 X84.0944 Y72.9805
G01 X87.1003
G01 X87.6945 Y71.9803
G01 X87.9328 Y71.5495
G01 X85.0015
G01 X85.3725 Y70.9337
G01 X85.8318 Y70.1185
G01 X88.6984
G01 X89.3981 Y68.6875
G01 X86.5835
G01 X87.0070 Y67.8203
G01 X87.2612 Y67.2565
G01 X90.0256
G01 X90.4311 Y66.2658
G01 X90.5956 Y65.8255
G01 X87.8770
G01 X88.4270 Y64.3945
G01 X91.1073
G01 X91.5643 Y62.9635
G01 X88.9106
G01 X89.3380 Y61.5325
G01 X91.9638
G01 X92.3103 Y60.1015
G01 X89.7110
G01 X90.0213 Y58.6705
G01 X92.6036
G01 X92.7377 Y57.9450
G01 X92.8464 Y57.2395
G01 X90.2828
G01 X90.4906 Y55.8085
G01 X93.0415
G01 X93.1887 Y54.3775
G01 X90.6464
G01 X90.7478 Y52.9465
G01 X93.2877
G01 X93.3331 Y51.5155
G01 X90.7963
G01 X90.8080 Y50.8000
G01 X90.7986 Y50.0845
G01 X93.3333
G01 X93.2838 Y48.6535
G01 X90.7497
G01 X90.6437 Y47.2225
G01 X93.1872
G01 X93.0431 Y45.7915
G01 X90.4898
G01 X90.2842 Y44.3605
G01 X92.8485
G01 X92.6073 Y42.9295
G01 X90.0256
G01 X89.7067 Y41.4985
G01 X92.3090
G01 X91.9616 Y40.0675
G01 X89.3382
G01 X88.9116 Y38.6365
G01 X91.5617
G01 X91.3944 Y38.0755
G01 X91.1061 Y37.2055
G01 X88.4250
G01 X88.1397 Y36.4338
G01 X87.8735 Y35.7745
G01 X90.5976
G01 X90.0282 Y34.3435
G01 X87.2655
G01 X86.5829 Y32.9125
G01 X89.3932
G01 X89.0522 Y32.1834
G01 X88.6972 Y31.4815
G01 X85.8316
G01 X85.0030 Y30.0505
G01 X87.9372
G01 X87.0980 Y28.6195
G01 X84.0929
G01 X83.0926 Y27.1885
G01 X86.1840
G01 X85.1900 Y25.7575
G01 X81.9947
G01 X81.6902 Y25.3748
G01 X80.7926 Y24.3265
G01 X84.0959
G01 X83.7115 Y23.8435
G01 X82.9109 Y22.8955
G01 X79.4679
G01 X78.6694 Y22.0957
G01 X78.0020 Y21.4645
G01 X81.6047
G01 X80.4772 Y20.3191
G01 X80.1742 Y20.0335
G01 X76.3701
G01 X75.3025 Y19.1730
G01 X74.5450 Y18.6025
G01 X78.6035
G01 X77.6175 Y17.7751
G01 X76.8511 Y17.1715
G01 X72.4725
G01 X71.4294 Y16.5208
G01 X70.0665 Y15.7405
G01 X74.8899
G01 X73.5385 Y14.8447
G01 X72.6635 Y14.3095
G01 X67.1949
G02 X63.5438 Y12.8785 I-15.5400 J34.2760
G01 X70.0775
G02 X66.9537 Y11.4475 I-17.8892 J34.9254
G01 X57.9923
G01 X62.8929
G01 Y10.0165
G01 X38.7215
G03 X45.5687 Y8.5855 I11.6328 J38.5646
G01 X56.0511
G00 Z5.0000
G00 X43.6256 Y10.0165
G00 Z-4.0000
G01 Z-6.0000
G01 Y11.4475
G01 X34.6440
G02 X31.5197 Y12.8785 I15.4741 J37.9101
G01 X38.0655
G01 X37.7898 Y12.9665
G01 X36.3115 Y13.5076
G01 X34.8555 Y14.1065
G01 X34.4124 Y14.3095
G01 X28.9430
G01 X28.5693 Y14.5286
G01 X27.1587 Y15.4318
G01 X26.7160 Y15.7405
G01 X31.5424
G01 X30.4185 Y16.3728
G01 X29.1279 Y17.1715
G01 X24.7529
G01 X24.4496 Y17.4012
G01 X23.0000 Y18.6025
G01 X27.0650
G00 Z5.0000


;No. 2: Island side wall: Part 8
G00 X27.0650 Y18.6025 Z5.0000
G00 X50.8000 Y11.1100
G00 Z0.5000
G01 Z-1.5000 F60
G02 X11.1100 Y50.8000 I0.0000 J39.6900 F1800
G02 X50.8000 Y90.4900 I39.6900 J0.0000
G02 X90.4900 Y50.8000 I0.0000 J-39.6900
G02 X50.8000 Y11.1100 I-39.6900 J0.0000
G01 Z-3.0000 F60
G02 X11.1100 Y50.8000 I0.0000 J39.6900 F1800
G02 X50.8000 Y90.4900 I39.6900 J0.0000
G02 X90.4900 Y50.8000 I0.0000 J-39.6900
G02 X50.8000 Y11.1100 I-39.6900 J0.0000
G01 Z-4.5000 F60
G02 X11.1100 Y50.8000 I0.0000 J39.6900 F1800
G02 X50.8000 Y90.4900 I39.6900 J0.0000
G02 X90.4900 Y50.8000 I0.0000 J-39.6900
G02 X50.8000 Y11.1100 I-39.6900 J0.0000
G01 Z-6.0000 F60
G02 X11.1100 Y50.8000 I0.0000 J39.6900 F1800
G02 X50.8000 Y90.4900 I39.6900 J0.0000
G02 X90.4900 Y50.8000 I0.0000 J-39.6900
G02 X50.8000 Y11.1100 I-39.6900 J0.0000
G00 Z5.0000


;No. 3: Pocket side wall: Cutout 3
G00 X50.8000 Y11.1100 Z5.0000
G00 X50.8002 Y7.9411
G00 Z0.5000
G01 Z-1.5000 F60
G02 X7.9407 Y50.8007 I0.0000 J42.8596 F1800
G02 X50.8002 Y93.6603 I42.8596 J0.0000
G02 X93.6598 Y50.8007 I0.0000 J-42.8596
G02 X50.8002 Y7.9411 I-42.8596 J0.0000
G01 Z-3.0000 F60
G02 X7.9407 Y50.8007 I0.0000 J42.8596 F1800
G02 X50.8002 Y93.6603 I42.8596 J0.0000
G02 X93.6598 Y50.8007 I0.0000 J-42.8596
G02 X50.8002 Y7.9411 I-42.8596 J0.0000
G01 Z-4.5000 F60
G02 X7.9407 Y50.8007 I0.0000 J42.8596 F1800
G02 X50.8002 Y93.6603 I42.8596 J0.0000
G02 X93.6598 Y50.8007 I0.0000 J-42.8596
G02 X50.8002 Y7.9411 I-42.8596 J0.0000
G01 Z-6.0000 F60
G02 X7.9407 Y50.8007 I0.0000 J42.8596 F1800
G02 X50.8002 Y93.6603 I42.8596 J0.0000
G02 X93.6598 Y50.8007 I0.0000 J-42.8596
G02 X50.8002 Y7.9411 I-42.8596 J0.0000
G00 Z5.0000
G00 X50.8002 Y7.9411 Z5.0000


;No. 4: Pocketing: Cutout 4
G00 X50.8002 Y7.9411 Z5.0000
G00 X59.7734 Y15.7405
G00 Z0.5000
G01 Z-1.5000 F60
G01 X41.8212 F1800
G02 X37.4390 Y17.1715 I8.3577 J33.0196
G01 X64.1689
G03 X67.3184 Y18.6025 I-12.0792 J30.7666
G01 X34.2725
G02 X31.7510 Y20.0335 I15.0676 J29.4870
G01 X69.8543
G01 X71.0427 Y20.7984
G01 X71.9916 Y21.4645
G01 X29.6093
G01 X28.8227 Y22.0449
G01 X27.7536 Y22.8955
G01 X73.8442
G01 X74.5364 Y23.4791
G01 X75.4740 Y24.3265
G01 X26.1267
G01 X24.9164 Y25.5038
G01 X24.6764 Y25.7575
G01 X76.9289
G01 X77.6588 Y26.5417
G01 X78.2240 Y27.1885
G01 X23.3774
G01 X23.1603 Y27.4354
G01 X22.2055 Y28.6195
G01 X79.3945
G01 X79.8259 Y29.1819
G01 X80.4529 Y30.0505
G01 X21.1538
G01 X20.8070 Y30.5449
G01 X20.1989 Y31.4815
G01 X81.4012
G01 X82.2619 Y32.9125
G01 X19.3392
G01 X18.7876 Y33.9161
G01 X18.5711 Y34.3435
G01 X83.0289
G01 X83.3488 Y34.9748
G01 X83.7215 Y35.7745
G01 X17.8815
G01 X17.6594 Y36.2550
G01 X17.2609 Y37.2055
G01 X84.3405
G01 X84.6627 Y38.0259
G01 X84.8817 Y38.6365
G01 X16.7161
G01 X16.3550 Y39.6921
G01 X16.2414 Y40.0675
G01 X85.3610
G01 X85.7724 Y41.4985
G01 X15.8287
G01 X15.6684 Y42.1032
G01 X15.4811 Y42.9295
G01 X86.1209
G01 X86.2465 Y43.4921
G01 X86.4107 Y44.3605
G01 X15.1922
G01 X15.0934 Y44.8923
G01 X14.9598 Y45.7915
G01 X86.6424
G01 X86.8101 Y47.2225
G01 X14.7864
G01 X14.6719 Y48.6535
G01 X86.9236
G01 X86.9539 Y49.1390
G01 X86.9822 Y50.0845
G01 X14.6186
G01 X14.6190 Y51.5155
G01 X86.9818
G01 X86.9539 Y52.4610
G01 X86.9236 Y52.9465
G01 X14.6752
G01 X14.7395 Y53.8821
G01 X14.7915 Y54.3775
G01 X86.8121
G01 X86.6431 Y55.8085
G01 X14.9614
G01 X15.0555 Y56.4734
G01 X15.1918 Y57.2395
G01 X86.4114
G01 X86.2790 Y57.9475
G01 X86.1219 Y58.6705
G01 X15.4789
G01 X15.5574 Y59.0352
G01 X15.8281 Y60.1015
G01 X85.7749
G01 X85.3618 Y61.5325
G01 X16.2363
G01 X16.7182 Y62.9635
G01 X84.8821
G01 X84.3406 Y64.3945
G01 X17.2644
G01 X17.6538 Y65.3324
G01 X17.8797 Y65.8255
G01 X83.7206
G01 X83.4519 Y66.4114
G01 X83.0306 Y67.2565
G01 X18.5694
G01 X19.3383 Y68.6875
G01 X82.2591
G01 X81.8829 Y69.3396
G01 X81.4008 Y70.1185
G01 X20.2011
G01 X20.7322 Y70.9442
G01 X21.1529 Y71.5495
G01 X80.4492
G01 X80.0520 Y72.1115
G01 X79.3968 Y72.9805
G01 X22.2035
G01 X23.1514 Y74.1541
G01 X23.3763 Y74.4115
G01 X78.2227
G01 X77.8173 Y74.8816
G01 X76.9239 Y75.8425
G01 X24.6732
G01 X25.5647 Y76.7429
G01 X26.1251 Y77.2735
G01 X75.4777
G01 X74.7225 Y77.9581
G01 X73.8463 Y78.7045
G01 X27.7592
G01 X28.9530 Y79.6541
G01 X29.6077 Y80.1355
G01 X71.9959
G01 X71.2111 Y80.6871
G01 X70.2487 Y81.3222
G01 X69.8512 Y81.5665
G01 X31.7405
G01 X32.6568 Y82.1157
G01 X33.6020 Y82.6448
G01 X34.2816 Y82.9975
G01 X67.3241
G01 X66.3042 Y83.5029
G01 X65.2237 Y83.9936
G01 X64.1769 Y84.4285
G01 X37.4345
G02 X41.8253 Y85.8595 I12.8205 J-31.8860
G01 X59.7793
G00 Z5.0000
G00 X59.7734 Y15.7405
G00 Z-1.0000
G01 Z-3.0000 F60
G01 X41.8212 F1800
G02 X37.4390 Y17.1715 I8.3577 J33.0196
G01 X64.1689
G03 X67.3184 Y18.6025 I-12.0792 J30.7666
G01 X34.2725
G02 X31.7510 Y20.0335 I15.0676 J29.4870
G01 X69.8543
G01 X71.0427 Y20.7984
G01 X71.9916 Y21.4645
G01 X29.6093
G01 X28.8227 Y22.0449
G01 X27.7536 Y22.8955
G01 X73.8442
G01 X74.5364 Y23.4791
G01 X75.4740 Y24.3265
G01 X26.1267
G01 X24.9164 Y25.5038
G01 X24.6764 Y25.7575
G01 X76.9289
G01 X77.6588 Y26.5417
G01 X78.2240 Y27.1885
G01 X23.3774
G01 X23.1603 Y27.4354
G01 X22.2055 Y28.6195
G01 X79.3945
G01 X79.8259 Y29.1819
G01 X80.4529 Y30.0505
G01 X21.1538
G01 X20.8070 Y30.5449
G01 X20.1989 Y31.4815
G01 X81.4012
G01 X82.2619 Y32.9125
G01 X19.3392
G01 X18.7876 Y33.9161
G01 X18.5711 Y34.3435
G01 X83.0289
G01 X83.3488 Y34.9748
G01 X83.7215 Y35.7745
G01 X17.8815
G01 X17.6594 Y36.2550
G01 X17.2609 Y37.2055
G01 X84.3405
G01 X84.6627 Y38.0259
G01 X84.8817 Y38.6365
G01 X16.7161
G01 X16.3550 Y39.6921
G01 X16.2414 Y40.0675
G01 X85.3610
G01 X85.7724 Y41.4985
G01 X15.8287
G01 X15.6684 Y42.1032
G01 X15.4811 Y42.9295
G01 X86.1209
G01 X86.2465 Y43.4921
G01 X86.4107 Y44.3605
G01 X15.1922
G01 X15.0934 Y44.8923
G01 X14.9598 Y45.7915
G01 X86.6424
G01 X86.8101 Y47.2225
G01 X14.7864
G01 X14.6719 Y48.6535
G01 X86.9236
G01 X86.9539 Y49.1390
G01 X86.9822 Y50.0845
G01 X14.6186
G01 X14.6190 Y51.5155
G01 X86.9818
G01 X86.9539 Y52.4610
G01 X86.9236 Y52.9465
G01 X14.6752
G01 X14.7395 Y53.8821
G01 X14.7915 Y54.3775
G01 X86.8121
G01 X86.6431 Y55.8085
G01 X14.9614
G01 X15.0555 Y56.4734
G01 X15.1918 Y57.2395
G01 X86.4114
G01 X86.2790 Y57.9475
G01 X86.1219 Y58.6705
G01 X15.4789
G01 X15.5574 Y59.0352
G01 X15.8281 Y60.1015
G01 X85.7749
G01 X85.3618 Y61.5325
G01 X16.2363
G01 X16.7182 Y62.9635
G01 X84.8821
G01 X84.3406 Y64.3945
G01 X17.2644
G01 X17.6538 Y65.3324
G01 X17.8797 Y65.8255
G01 X83.7206
G01 X83.4519 Y66.4114
G01 X83.0306 Y67.2565
G01 X18.5694
G01 X19.3383 Y68.6875
G01 X82.2591
G01 X81.8829 Y69.3396
G01 X81.4008 Y70.1185
G01 X20.2011
G01 X20.7322 Y70.9442
G01 X21.1529 Y71.5495
G01 X80.4492
G01 X80.0520 Y72.1115
G01 X79.3968 Y72.9805
G01 X22.2035
G01 X23.1514 Y74.1541
G01 X23.3763 Y74.4115
G01 X78.2227
G01 X77.8173 Y74.8816
G01 X76.9239 Y75.8425
G01 X24.6732
G01 X25.5647 Y76.7429
G01 X26.1251 Y77.2735
G01 X75.4777
G01 X74.7225 Y77.9581
G01 X73.8463 Y78.7045
G01 X27.7592
G01 X28.9530 Y79.6541
G01 X29.6077 Y80.1355
G01 X71.9959
G01 X71.2111 Y80.6871
G01 X70.2487 Y81.3222
G01 X69.8512 Y81.5665
G01 X31.7405
G01 X32.6568 Y82.1157
G01 X33.6020 Y82.6448
G01 X34.2816 Y82.9975
G01 X67.3241
G01 X66.3042 Y83.5029
G01 X65.2237 Y83.9936
G01 X64.1769 Y84.4285
G01 X37.4345
G02 X41.8253 Y85.8595 I12.8205 J-31.8860
G01 X59.7793
G00 Z5.0000


;No. 5: Pocket side wall: Cutout 4
G00 X59.7793 Y85.8595 Z5.0000
G00 X50.8000 Y14.2917
G00 Z0.5000
G01 Z-1.5000 F60
G02 X50.9197 Y87.3098 I-0.0008 J36.5091 F1800
G02 X50.8000 Y14.2917 I-0.1189 J-36.5089
G01 Z-3.0000 F60
G02 X50.9197 Y87.3098 I-0.0008 J36.5091 F1800
G02 X50.8000 Y14.2917 I-0.1189 J-36.5089
G00 Z5.0000


;No. 6: Part 5
G00 X50.8000 Y14.2917 Z5.0000
G00 X48.3581 Y103.1306
G00 Z0.5000
G01 Z-1.5000 F60
G03 X-1.5346 Y53.1989 I2.4373 J-52.3281 F1800
G00 Z0.0000
G03 X-1.5351 Y48.4305 I51.5441 J-2.3897
G01 Z-1.5000 F60
G03 X48.0851 Y-1.5119 I52.3193 J2.3605 F1800
G00 Z0.0000
G03 X52.8529 Y-1.5451 I2.7117 J47.0119
G01 Z-1.5000 F60
G03 X103.1475 Y48.7019 I-2.0441 J52.3405 F1800
G00 Z0.0000
G03 X103.1196 Y53.4703 I-51.1765 J2.0859
G01 Z-1.5000 F60
G03 X53.1265 Y103.1375 I-52.3163 J-2.6654 F1800
G00 Z0.0000
G03 X48.3581 Y103.1306 I-2.3114 J-50.4842
G00 Z-1.0000
G01 Z-3.0000 F60
G03 X-1.5346 Y53.1989 I2.4373 J-52.3281 F1800
G00 Z0.0000
G03 X-1.5351 Y48.4305 I51.5441 J-2.3897
G00 Z-1.0000
G01 Z-3.0000 F60
G03 X48.0851 Y-1.5119 I52.3193 J2.3605 F1800
G00 Z0.0000
G03 X52.8529 Y-1.5451 I2.7117 J47.0119
G00 Z-1.0000
G01 Z-3.0000 F60
G03 X103.1475 Y48.7019 I-2.0441 J52.3405 F1800
G00 Z0.0000
G03 X103.1196 Y53.4703 I-51.1765 J2.0859
G00 Z-1.0000
G01 Z-3.0000 F60
G03 X53.1265 Y103.1375 I-52.3163 J-2.6654 F1800
G00 Z0.0000
G03 X48.3581 Y103.1306 I-2.3114 J-50.4842
G00 Z-2.5000
G01 Z-4.5000 F60
G03 X-1.5346 Y53.1989 I2.4373 J-52.3281 F1800
G00 Z0.0000
G03 X-1.5351 Y48.4305 I51.5441 J-2.3897
G00 Z-2.5000
G01 Z-4.5000 F60
G03 X48.0851 Y-1.5119 I52.3193 J2.3605 F1800
G00 Z0.0000
G03 X52.8529 Y-1.5451 I2.7117 J47.0119
G00 Z-2.5000
G01 Z-4.5000 F60
G03 X103.1475 Y48.7019 I-2.0441 J52.3405 F1800
G00 Z0.0000
G03 X103.1196 Y53.4703 I-51.1765 J2.0859
G00 Z-2.5000
G01 Z-4.5000 F60
G03 X53.1265 Y103.1375 I-52.3163 J-2.6654 F1800
G00 Z0.0000
G03 X48.3581 Y103.1306 I-2.3114 J-50.4842
G00 Z-4.0000
G01 Z-6.0000 F60
G03 X-1.5346 Y53.1989 I2.4373 J-52.3281 F1800
G00 Z0.0000
G03 X-1.5351 Y48.4305 I51.5441 J-2.3897
G00 Z-4.0000
G01 Z-6.0000 F60
G03 X48.0851 Y-1.5119 I52.3193 J2.3605 F1800
G00 Z0.0000
G03 X52.8529 Y-1.5451 I2.7117 J47.0119
G00 Z-4.0000
G01 Z-6.0000 F60
G03 X103.1475 Y48.7019 I-2.0441 J52.3405 F1800
G00 Z0.0000
G03 X103.1196 Y53.4703 I-51.1765 J2.0859
G00 Z-4.0000
G01 Z-6.0000 F60
G03 X53.1265 Y103.1375 I-52.3163 J-2.6654 F1800
G00 Z0.0000
G03 X48.3581 Y103.1306 I-2.3114 J-50.4842
G00 Z-5.5000
G01 Z-7.5000 F60
G03 X-1.5346 Y53.1989 I2.4373 J-52.3281 F1800
G00 Z0.0000
G03 X-1.5351 Y48.4305 I51.5441 J-2.3897
G00 Z-5.5000
G01 Z-7.5000 F60
G03 X48.0851 Y-1.5119 I52.3193 J2.3605 F1800
G00 Z0.0000
G03 X52.8529 Y-1.5451 I2.7117 J47.0119
G00 Z-5.5000
G01 Z-7.5000 F60
G03 X103.1475 Y48.7019 I-2.0441 J52.3405 F1800
G00 Z0.0000
G03 X103.1196 Y53.4703 I-51.1765 J2.0859
G00 Z-5.5000
G01 Z-7.5000 F60
G03 X53.1265 Y103.1375 I-52.3163 J-2.6654 F1800
G00 Z0.0000
G03 X48.3581 Y103.1306 I-2.3114 J-50.4842
G00 Z-7.0000
G01 Z-9.0000 F60
G03 X-1.5346 Y53.1989 I2.4373 J-52.3281 F1800
G00 Z0.0000
G03 X-1.5351 Y48.4305 I51.5441 J-2.3897
G00 Z-7.0000
G01 Z-9.0000 F60
G03 X48.0851 Y-1.5119 I52.3193 J2.3605 F1800
G00 Z0.0000
G03 X52.8529 Y-1.5451 I2.7117 J47.0119
G00 Z-7.0000
G01 Z-9.0000 F60
G03 X103.1475 Y48.7019 I-2.0441 J52.3405 F1800
G00 Z0.0000
G03 X103.1196 Y53.4703 I-51.1765 J2.0859
G00 Z-7.0000
G01 Z-9.0000 F60
G03 X53.1265 Y103.1375 I-52.3163 J-2.6654 F1800
G00 Z0.0000
G03 X48.3581 Y103.1306 I-2.3114 J-50.4842
G00 Z-8.5000
G01 Z-10.5000 F60
G03 X-1.5346 Y53.1989 I2.4373 J-52.3281 F1800
G00 Z0.0000
G03 X-1.5351 Y48.4305 I51.5441 J-2.3897
G00 Z-8.5000
G01 Z-10.5000 F60
G03 X48.0851 Y-1.5119 I52.3193 J2.3605 F1800
G00 Z0.0000
G03 X52.8529 Y-1.5451 I2.7117 J47.0119
G00 Z-8.5000
G01 Z-10.5000 F60
G03 X103.1475 Y48.7019 I-2.0441 J52.3405 F1800
G00 Z0.0000
G03 X103.1196 Y53.4703 I-51.1765 J2.0859
G00 Z-8.5000
G01 Z-10.5000 F60
G03 X53.1265 Y103.1375 I-52.3163 J-2.6654 F1800
G00 Z0.0000
G03 X48.3581 Y103.1306 I-2.3114 J-50.4842
G00 Z-10.0000
G01 Z-12.0000 F60
G03 X-1.5346 Y53.1989 I2.4373 J-52.3281 F1800
G00 Z0.0000
G03 X-1.5351 Y48.4305 I51.5441 J-2.3897
G00 Z-10.0000
G01 Z-12.0000 F60
G03 X48.0851 Y-1.5119 I52.3193 J2.3605 F1800
G00 Z0.0000
G03 X52.8529 Y-1.5451 I2.7117 J47.0119
G00 Z-10.0000
G01 Z-12.0000 F60
G03 X103.1475 Y48.7019 I-2.0441 J52.3405 F1800
G00 Z0.0000
G03 X103.1196 Y53.4703 I-51.1765 J2.0859
G00 Z-10.0000
G01 Z-12.0000 F60
G03 X53.1265 Y103.1375 I-52.3163 J-2.6654 F1800
G00 Z0.0000
G03 X48.3581 Y103.1306 I-2.3114 J-50.4842
G00 Z-11.5000
G01 Z-13.5000 F60
G03 X-1.5346 Y53.1989 I2.4373 J-52.3281 F1800
G00 Z0.0000
G03 X-1.5351 Y48.4305 I51.5441 J-2.3897
G00 Z-11.5000
G01 Z-13.5000 F60
G03 X48.0851 Y-1.5119 I52.3193 J2.3605 F1800
G00 Z0.0000
G03 X52.8529 Y-1.5451 I2.7117 J47.0119
G00 Z-11.5000
G01 Z-13.5000 F60
G03 X103.1475 Y48.7019 I-2.0441 J52.3405 F1800
G00 Z0.0000
G03 X103.1196 Y53.4703 I-51.1765 J2.0859
G00 Z-11.5000
G01 Z-13.5000 F60
G03 X53.1265 Y103.1375 I-52.3163 J-2.6654 F1800
G00 Z0.0000
G03 X48.3581 Y103.1306 I-2.3114 J-50.4842
G00 Z-13.0000
G01 Z-14.0000 F60
G03 X-1.5346 Y53.1989 I2.4373 J-52.3281 F1800
G00 Z0.0000
G03 X-1.5351 Y48.4305 I51.5441 J-2.3897
G00 Z-13.0000
G01 Z-14.0000 F60
G03 X48.0851 Y-1.5119 I52.3193 J2.3605 F1800
G00 Z0.0000
G03 X52.8529 Y-1.5451 I2.7117 J47.0119
G00 Z-13.0000
G01 Z-14.0000 F60
G03 X103.1475 Y48.7019 I-2.0441 J52.3405 F1800
G00 Z0.0000
G03 X103.1196 Y53.4703 I-51.1765 J2.0859
G00 Z-13.0000
G01 Z-14.0000 F60
G03 X53.1265 Y103.1375 I-52.3163 J-2.6654 F1800
G00 Z0.0000
G03 X48.3581 Y103.1306 I-2.3114 J-50.4842
G00 Z5.0000
G00 X0.0000 Y0.0000

M05
