;Project loidolt@gmail
;Created by Estlcam version 8 build 8.065
;Machining time about 12:04:35 AM hours

G90
M03 S24000
G00 Z5.0000


;No. 1: Engraving 15
G00 X50.8000 Y0.0000
G00 Z0.5000
G01 Z-1.0000 F60 S24000
G03 X101.6000 Y50.8000 I0.0000 J50.8000 F1800
G03 X50.8000 Y101.6000 I-50.8000 J0.0000
G03 X0.0000 Y50.8000 I0.0000 J-50.8000
G03 X50.8000 Y0.0000 I50.8000 J0.0000
G01 Z-2.0000 F60
G03 X101.6000 Y50.8000 I0.0000 J50.8000 F1800
G03 X50.8000 Y101.6000 I-50.8000 J0.0000
G03 X0.0000 Y50.8000 I0.0000 J-50.8000
G03 X50.8000 Y0.0000 I50.8000 J0.0000
G00 Z5.0000


;No. 2: Engraving 16
G00 X50.8000 Y0.0000 Z5.0000
G00 Y6.3500
G00 Z0.5000
G01 Z-1.0000 F60
G03 X95.2500 Y50.8000 I0.0000 J44.4500 F1800
G03 X50.8000 Y95.2500 I-44.4500 J0.0000
G03 X6.3500 Y50.8000 I0.0000 J-44.4500
G03 X50.8000 Y6.3500 I44.4500 J0.0000
G01 Z-2.0000 F60
G03 X95.2500 Y50.8000 I0.0000 J44.4500 F1800
G03 X50.8000 Y95.2500 I-44.4500 J0.0000
G03 X6.3500 Y50.8000 I0.0000 J-44.4500
G03 X50.8000 Y6.3500 I44.4500 J0.0000
G00 Z5.0000


;No. 3: Engraving 17
G00 X50.8000 Y6.3500 Z5.0000
G00 X25.4000 Y78.9940
G00 Z-2.5000
G01 Z-4.0000 F60
G01 Y22.6060 F1800
G00 Z5.0000
G00 Y78.9940
G00 Z-3.5000
G01 Z-5.0000 F60
G01 Y22.6060 F1800
G00 Z5.0000
G00 Y78.9940
G00 Z-4.5000
G01 Z-6.0000 F60
G01 Y22.6060 F1800
G00 Z5.0000


;No. 4: Engraving 18
G00 X25.4000 Y22.6060 Z5.0000
G00 X38.1000 Y86.6140
G00 Z-2.5000
G01 Z-4.0000 F60
G01 Y14.9860 F1800
G00 Z5.0000
G00 Y86.6140
G00 Z-3.5000
G01 Z-5.0000 F60
G01 Y14.9860 F1800
G00 Z5.0000
G00 Y86.6140
G00 Z-4.5000
G01 Z-6.0000 F60
G01 Y14.9860 F1800
G00 Z5.0000


;No. 5: Engraving 19
G00 X38.1000 Y14.9860 Z5.0000
G00 X50.8000 Y88.9000
G00 Z-2.5000
G01 Z-4.0000 F60
G01 Y12.7000 F1800
G00 Z5.0000
G00 Y88.9000
G00 Z-3.5000
G01 Z-5.0000 F60
G01 Y12.7000 F1800
G00 Z5.0000
G00 Y88.9000
G00 Z-4.5000
G01 Z-6.0000 F60
G01 Y12.7000 F1800
G00 Z5.0000


;No. 6: Engraving 20
G00 X50.8000 Y12.7000 Z5.0000
G00 X63.5000 Y86.6140
G00 Z-2.5000
G01 Z-4.0000 F60
G01 Y14.9860 F1800
G00 Z5.0000
G00 Y86.6140
G00 Z-3.5000
G01 Z-5.0000 F60
G01 Y14.9860 F1800
G00 Z5.0000
G00 Y86.6140
G00 Z-4.5000
G01 Z-6.0000 F60
G01 Y14.9860 F1800
G00 Z5.0000


;No. 7: Engraving 21
G00 X63.5000 Y14.9860 Z5.0000
G00 X76.2000 Y78.9940
G00 Z-2.5000
G01 Z-4.0000 F60
G01 Y22.6060 F1800
G00 Z5.0000
G00 Y78.9940
G00 Z-3.5000
G01 Z-5.0000 F60
G01 Y22.6060 F1800
G00 Z5.0000
G00 Y78.9940
G00 Z-4.5000
G01 Z-6.0000 F60
G01 Y22.6060 F1800
G00 Z5.0000


;No. 8: Engraving 22
G00 X76.2000 Y22.6060 Z5.0000
G00 X22.6060 Y25.4000
G00 Z-2.5000
G01 Z-4.0000 F60
G01 X78.9940 F1800
G00 Z5.0000
G00 X22.6060
G00 Z-3.5000
G01 Z-5.0000 F60
G01 X78.9940 F1800
G00 Z5.0000
G00 X22.6060
G00 Z-4.5000
G01 Z-6.0000 F60
G01 X78.9940 F1800
G00 Z5.0000


;No. 9: Engraving 23
G00 X78.9940 Y25.4000 Z5.0000
G00 X14.9860 Y38.1000
G00 Z-2.5000
G01 Z-4.0000 F60
G01 X86.6140 F1800
G00 Z5.0000
G00 X14.9860
G00 Z-3.5000
G01 Z-5.0000 F60
G01 X86.6140 F1800
G00 Z5.0000
G00 X14.9860
G00 Z-4.5000
G01 Z-6.0000 F60
G01 X86.6140 F1800
G00 Z5.0000


;No. 10: Engraving 24
G00 X86.6140 Y38.1000 Z5.0000
G00 X12.7000 Y50.8000
G00 Z-2.5000
G01 Z-4.0000 F60
G01 X88.9000 F1800
G00 Z5.0000
G00 X12.7000
G00 Z-3.5000
G01 Z-5.0000 F60
G01 X88.9000 F1800
G00 Z5.0000
G00 X12.7000
G00 Z-4.5000
G01 Z-6.0000 F60
G01 X88.9000 F1800
G00 Z5.0000


;No. 11: Engraving 25
G00 X88.9000 Y50.8000 Z5.0000
G00 X14.9860 Y63.5000
G00 Z-2.5000
G01 Z-4.0000 F60
G01 X86.6140 F1800
G00 Z5.0000
G00 X14.9860
G00 Z-3.5000
G01 Z-5.0000 F60
G01 X86.6140 F1800
G00 Z5.0000
G00 X14.9860
G00 Z-4.5000
G01 Z-6.0000 F60
G01 X86.6140 F1800
G00 Z5.0000


;No. 12: Engraving 26
G00 X86.6140 Y63.5000 Z5.0000
G00 X22.6060 Y76.2000
G00 Z-2.5000
G01 Z-4.0000 F60
G01 X78.9940 F1800
G00 Z5.0000
G00 X22.6060
G00 Z-3.5000
G01 Z-5.0000 F60
G01 X78.9940 F1800
G00 Z5.0000
G00 X22.6060
G00 Z-4.5000
G01 Z-6.0000 F60
G01 X78.9940 F1800
G00 Z5.0000


;No. 13: Engraving 27
G00 X78.9940 Y76.2000 Z5.0000
G00 X50.8000 Y12.7000
G00 Z-2.5000
G01 Z-4.0000 F60
G03 X88.9000 Y50.8000 I0.0000 J38.1000 F1800
G03 X50.8000 Y88.9000 I-38.1000 J0.0000
G03 X12.7000 Y50.8000 I0.0000 J-38.1000
G03 X50.8000 Y12.7000 I38.1000 J0.0000
G01 Z-5.0000 F60
G03 X88.9000 Y50.8000 I0.0000 J38.1000 F1800
G03 X50.8000 Y88.9000 I-38.1000 J0.0000
G03 X12.7000 Y50.8000 I0.0000 J-38.1000
G03 X50.8000 Y12.7000 I38.1000 J0.0000
G01 Z-6.0000 F60
G03 X88.9000 Y50.8000 I0.0000 J38.1000 F1800
G03 X50.8000 Y88.9000 I-38.1000 J0.0000
G03 X12.7000 Y50.8000 I0.0000 J-38.1000
G03 X50.8000 Y12.7000 I38.1000 J0.0000
G00 Z5.0000
G00 X0.0000 Y0.0000

M05
