;Project loidolt@gmail
;Created by Estlcam version 8 build 8.065
;Machining time about 12:10:29 AM hours

G90
M03 S24000
G00 Z2.0000


;No. 1: Pocketing: Cutout 2
G00 Z2.0000
G00 X80.1785 Y20.0335
G00 Z0.5000
G01 Z-1.5000 F60 S24000
G01 X21.4213 F1800
G01 X20.8665 Y20.5705
G01 X19.9942 Y21.4645
G01 X81.6061
G01 X82.4654 Y22.3902
G01 X82.9085 Y22.8955
G01 X18.6892
G01 X18.1170 Y23.5667
G01 X17.5016 Y24.3265
G01 X84.0963
G01 X84.4564 Y24.7796
G01 X85.1867 Y25.7575
G01 X16.4132
G01 X15.4141 Y27.1885
G01 X86.1862
G01 X87.0986 Y28.6195
G01 X14.5008
G01 X13.6643 Y30.0505
G01 X87.9370
G01 X88.6994 Y31.4815
G01 X12.8980
G01 X12.2056 Y32.9125
G01 X89.3961
G01 X90.0267 Y34.3435
G01 X11.5700
G01 X11.0028 Y35.7745
G01 X90.5997
G01 X91.1084 Y37.2055
G01 X10.4895
G01 X10.0366 Y38.6365
G01 X91.5646
G01 X91.9631 Y40.0675
G01 X9.6363
G01 X9.2904 Y41.4985
G01 X92.3118
G01 X92.6050 Y42.9295
G01 X8.9949
G01 X8.7494 Y44.3605
G01 X92.8486
G01 X93.0435 Y45.7915
G01 X8.5573
G01 X8.4097 Y47.2225
G01 X93.1891
G01 X93.2836 Y48.6535
G01 X8.3152
G01 X8.2664 Y50.0845
G01 X93.3358
G01 X93.3330 Y51.5155
G01 X8.2654
G01 X8.3155 Y52.9465
G01 X93.2856
G01 X93.1909 Y54.3775
G01 X8.4112
G01 X8.5549 Y55.8085
G01 X93.0428
G01 X92.8491 Y57.2395
G01 X8.7506
G01 X8.9933 Y58.6705
G01 X92.6049
G01 X92.3098 Y60.1015
G01 X9.2903
G01 X9.6362 Y61.5325
G01 X91.9638
G01 X91.5630 Y62.9635
G01 X10.0360
G01 X10.4924 Y64.3945
G01 X91.1082
G01 X90.5970 Y65.8255
G01 X11.0015
G01 X11.5736 Y67.2565
G01 X90.0270
G01 X89.3975 Y68.6875
G01 X12.2028
G01 X12.5453 Y69.4121
G01 X12.9014 Y70.1185
G01 X88.7000
G01 X87.9348 Y71.5495
G01 X13.6644
G01 X14.1207 Y72.3512
G01 X14.5001 Y72.9805
G01 X87.1006
G01 X86.5215 Y73.9036
G01 X86.1830 Y74.4115
G01 X15.4150
G01 X16.4118 Y75.8425
G01 X85.1880
G01 X84.6022 Y76.6306
G01 X84.0994 Y77.2735
G01 X17.4989
G01 X18.2613 Y78.2054
G01 X18.6914 Y78.7045
G01 X82.9080
G01 X82.6247 Y79.0312
G01 X81.6057 Y80.1355
G01 X19.9955
G01 X21.0371 Y81.1973
G01 X21.4249 Y81.5665
G01 X80.1755
G01 X79.6262 Y82.0866
G01 X78.6013 Y82.9975
G01 X22.9990
G01 X24.2620 Y84.0500
G01 X24.7473 Y84.4285
G01 X76.8516
G01 X75.7182 Y85.2803
G01 X74.8949 Y85.8595
G01 X26.7047
G01 X27.5579 Y86.4319
G01 X28.9355 Y87.2905
G01 X72.6645
G01 X71.2715 Y88.0925
G01 X70.0735 Y88.7215
G01 X31.5254
G01 X32.9987 Y89.4386
G01 X34.0789 Y89.9181
G01 X34.6450 Y90.1525
G01 X66.9510
G03 X62.8952 Y91.5835 I-15.3358 J-37.0018
G01 X38.6993
G02 X45.5641 Y93.0145 I11.8973 J-39.8925
G01 X56.0496
G00 Z2.0000
G00 X22.9972 Y20.0335
G00 Z0.5000
G01 Z-1.5000
G01 Y18.6025
G01 X78.6025
G01 X77.8139 Y17.9357
G01 X76.8530 Y17.1715
G01 X24.7452
G01 X25.5914 Y16.5311
G01 X26.7096 Y15.7405
G01 X74.8906
G01 X73.5676 Y14.8633
G01 X72.6674 Y14.3095
G01 X28.9358
G01 X30.0142 Y13.6815
G01 X31.5222 Y12.8785
G01 X70.0795
G02 X66.9548 Y11.4475 I-18.2124 J35.6406
G01 X34.6411
G01 X35.4221 Y11.1346
G01 X36.5436 Y10.7178
G01 X37.4490 Y10.4072
G01 X38.7046 Y10.0165
G01 X62.8977
G02 X56.0632 Y8.5855 I-12.0299 J40.4186
G01 X45.5373
G00 Z2.0000
G00 X80.1785 Y20.0335
G00 Z-1.0000
G01 Z-3.0000 F60
G01 X21.4213 F1800
G01 X20.8665 Y20.5705
G01 X19.9942 Y21.4645
G01 X81.6061
G01 X82.4654 Y22.3902
G01 X82.9085 Y22.8955
G01 X18.6892
G01 X18.1170 Y23.5667
G01 X17.5016 Y24.3265
G01 X84.0963
G01 X84.4564 Y24.7796
G01 X85.1867 Y25.7575
G01 X16.4132
G01 X15.4141 Y27.1885
G01 X86.1862
G01 X87.0986 Y28.6195
G01 X14.5008
G01 X13.6643 Y30.0505
G01 X87.9370
G01 X88.6994 Y31.4815
G01 X12.8980
G01 X12.2056 Y32.9125
G01 X89.3961
G01 X90.0267 Y34.3435
G01 X11.5700
G01 X11.0028 Y35.7745
G01 X90.5997
G01 X91.1084 Y37.2055
G01 X10.4895
G01 X10.0366 Y38.6365
G01 X91.5646
G01 X91.9631 Y40.0675
G01 X9.6363
G01 X9.2904 Y41.4985
G01 X92.3118
G01 X92.6050 Y42.9295
G01 X8.9949
G01 X8.7494 Y44.3605
G01 X92.8486
G01 X93.0435 Y45.7915
G01 X8.5573
G01 X8.4097 Y47.2225
G01 X93.1891
G01 X93.2836 Y48.6535
G01 X8.3152
G01 X8.2664 Y50.0845
G01 X93.3358
G01 X93.3330 Y51.5155
G01 X8.2654
G01 X8.3155 Y52.9465
G01 X93.2856
G01 X93.1909 Y54.3775
G01 X8.4112
G01 X8.5549 Y55.8085
G01 X93.0428
G01 X92.8491 Y57.2395
G01 X8.7506
G01 X8.9933 Y58.6705
G01 X92.6049
G01 X92.3098 Y60.1015
G01 X9.2903
G01 X9.6362 Y61.5325
G01 X91.9638
G01 X91.5630 Y62.9635
G01 X10.0360
G01 X10.4924 Y64.3945
G01 X91.1082
G01 X90.5970 Y65.8255
G01 X11.0015
G01 X11.5736 Y67.2565
G01 X90.0270
G01 X89.3975 Y68.6875
G01 X12.2028
G01 X12.5453 Y69.4121
G01 X12.9014 Y70.1185
G01 X88.7000
G01 X87.9348 Y71.5495
G01 X13.6644
G01 X14.1207 Y72.3512
G01 X14.5001 Y72.9805
G01 X87.1006
G01 X86.5215 Y73.9036
G01 X86.1830 Y74.4115
G01 X15.4150
G01 X16.4118 Y75.8425
G01 X85.1880
G01 X84.6022 Y76.6306
G01 X84.0994 Y77.2735
G01 X17.4989
G01 X18.2613 Y78.2054
G01 X18.6914 Y78.7045
G01 X82.9080
G01 X82.6247 Y79.0312
G01 X81.6057 Y80.1355
G01 X19.9955
G01 X21.0371 Y81.1973
G01 X21.4249 Y81.5665
G01 X80.1755
G01 X79.6262 Y82.0866
G01 X78.6013 Y82.9975
G01 X22.9990
G01 X24.2620 Y84.0500
G01 X24.7473 Y84.4285
G01 X76.8516
G01 X75.7182 Y85.2803
G01 X74.8949 Y85.8595
G01 X26.7047
G01 X27.5579 Y86.4319
G01 X28.9355 Y87.2905
G01 X72.6645
G01 X71.2715 Y88.0925
G01 X70.0735 Y88.7215
G01 X31.5254
G01 X32.9987 Y89.4386
G01 X34.0789 Y89.9181
G01 X34.6450 Y90.1525
G01 X66.9510
G03 X62.8952 Y91.5835 I-15.3358 J-37.0018
G01 X38.6993
G02 X45.5641 Y93.0145 I11.8973 J-39.8925
G01 X56.0496
G00 Z2.0000
G00 X22.9972 Y20.0335
G00 Z-1.0000
G01 Z-3.0000
G01 Y18.6025
G01 X78.6025
G01 X77.8139 Y17.9357
G01 X76.8530 Y17.1715
G01 X24.7452
G01 X25.5914 Y16.5311
G01 X26.7096 Y15.7405
G01 X74.8906
G01 X73.5676 Y14.8633
G01 X72.6674 Y14.3095
G01 X28.9358
G01 X30.0142 Y13.6815
G01 X31.5222 Y12.8785
G01 X70.0795
G02 X66.9548 Y11.4475 I-18.2124 J35.6406
G01 X34.6411
G01 X35.4221 Y11.1346
G01 X36.5436 Y10.7178
G01 X37.4490 Y10.4072
G01 X38.7046 Y10.0165
G01 X62.8977
G02 X56.0632 Y8.5855 I-12.0299 J40.4186
G01 X45.5373
G00 Z2.0000


;No. 2: Pocket side wall: Cutout 2
G00 X45.5373 Y8.5855 Z2.0000
G00 X50.7998 Y7.9406
G00 Z0.5000
G01 Z-1.5000 F60
G02 X7.9401 Y50.8004 I0.0000 J42.8597 F1800
G02 X50.7998 Y93.6601 I42.8597 J0.0000
G02 X93.6596 Y50.8004 I0.0000 J-42.8597
G02 X50.7998 Y7.9406 I-42.8597 J0.0000
G01 Z-3.0000 F60
G02 X7.9401 Y50.8004 I0.0000 J42.8597 F1800
G02 X50.7998 Y93.6601 I42.8597 J0.0000
G02 X93.6596 Y50.8004 I0.0000 J-42.8597
G02 X50.7998 Y7.9406 I-42.8597 J0.0000
G00 Z2.0000
G00 X50.7998 Y7.9406 Z2.0000


;No. 3: Pocketing: Cutout 1
G00 X50.7998 Y7.9406 Z2.0000
G00 X56.0318 Y8.5855
G00 Z-2.5000
G01 Z-4.5000 F60
G01 X45.5608 F1800
G02 X38.7142 Y10.0165 I4.9017 J40.5465
G01 X62.8939
G03 X66.9510 Y11.4475 I-11.1682 J38.1303
G01 X34.6529
G02 X31.5341 Y12.8785 I13.0499 J32.5566
G01 X70.0741
G01 X71.0614 Y13.3929
G01 X72.1054 Y13.9775
G01 X72.6610 Y14.3095
G01 X28.9465
G01 X28.1625 Y14.7809
G01 X26.7054 Y15.7405
G01 X42.3420
G01 X42.2744 Y15.7691
G01 X41.9600 Y15.9843
G01 X40.7960 Y17.1715
G01 X24.7567
G01 X24.0754 Y17.6998
G01 X23.0013 Y18.6025
G01 X32.5134
G01 X29.7994 Y19.8504
G01 X29.5327 Y20.0335
G01 X21.4213
G01 X20.8665 Y20.5705
G01 X19.9978 Y21.4645
G01 X27.4475
G01 X26.5236 Y22.0986
G01 X23.5517 Y22.8955
G01 X18.6978
G01 X17.9643 Y23.7510
G01 X17.5089 Y24.3265
G01 X19.8257
G01 X19.6506 Y24.6032
G01 X19.0730 Y25.7575
G01 X16.4197
G01 X15.9381 Y26.4179
G01 X15.4215 Y27.1885
G01 X18.3706
G01 X18.3759 Y28.6195
G01 X14.5072
G01 X14.1281 Y29.2361
G01 X13.6705 Y30.0505
G01 X19.4000
G01 X20.5299 Y31.4815
G01 X12.8980
G01 X12.4563 Y32.3721
G01 X12.2098 Y32.9125
G01 X21.6599
G01 X22.7898 Y34.3435
G01 X11.5767
G01 X11.0050 Y35.7745
G01 X23.2718
G01 X22.5931 Y36.5423
G01 X20.7694 Y37.2055
G01 X10.4914
G01 X10.0340 Y38.6365
G01 X14.9808
G01 X14.1395 Y39.2178
G01 X13.8596 Y39.4763
G01 X13.6367 Y39.7852
G01 X13.5083 Y40.0675
G01 X9.6375
G01 X9.2934 Y41.4985
G01 X12.8571
G01 X12.2059 Y42.9295
G01 X9.0001
G01 X8.8824 Y43.5370
G01 X8.7493 Y44.3605
G01 X11.9645
G02 X12.0683 Y45.7915 I2.8091 J0.5154
G01 X8.5596
G01 X8.4109 Y47.2225
G01 X12.4952
G01 X13.2656 Y48.6535
G01 X8.3141
G01 X8.2694 Y50.0845
G01 X13.2461
G02 X13.0832 Y51.5155 I2.0370 J0.9566
G01 X8.2715
G01 X8.2782 Y52.1159
G01 X8.3203 Y52.9465
G01 X14.2005
G01 X15.9597 Y54.3775
G01 X8.4161
G01 X8.5135 Y55.4570
G01 X8.5592 Y55.8085
G01 X17.7190
G01 X19.0752 Y56.9117
G01 X19.1453 Y57.2395
G01 X8.7493
G01 X8.9944 Y58.6705
G01 X18.4575
G01 X17.5227 Y60.1015
G01 X9.2950
G01 X9.4117 Y60.6410
G01 X9.6423 Y61.5325
G01 X16.5879
G02 X15.9629 Y62.9635 I2.2040 J1.8146
G01 X10.0423
G01 X10.3142 Y63.8665
G01 X10.4962 Y64.3945
G01 X15.7377
G01 X15.7382 Y64.5734
G01 X15.9917 Y65.8255
G01 X11.0061
G01 X11.5745 Y67.2565
G01 X16.2814
G01 X16.3735 Y67.7117
G01 X16.4852 Y68.0807
G02 X16.9018 Y68.6875 I1.3964 J-0.5125
G01 X12.2042
G01 X12.8980 Y70.1185
G01 X17.7339
G01 X17.9952 Y71.1923
G01 X18.0976 Y71.5495
G01 X13.6633
G01 X14.5024 Y72.9805
G01 X18.5078
G01 X18.9179 Y74.4115
G01 X15.4161
G01 X16.4127 Y75.8425
G01 X19.4737
G01 X20.3449 Y76.9750
G01 X20.6849 Y77.2735
G01 X17.4991
G01 X18.6921 Y78.7045
G01 X23.0378
G01 Y80.1355
G01 X19.9986
G01 X36.8759
G01 X36.2580 Y81.5665
G01 X21.4213
G01 X22.2459 Y82.3355
G01 X23.0068 Y82.9975
G01 X35.7015
G02 X35.7792 Y84.4285 I4.8937 J0.4521
G01 X24.7464
G01 X26.1733 Y85.4894
G01 X26.7170 Y85.8595
G01 X36.0238
G02 X36.9977 Y87.2905 I6.8414 J-3.6093
G01 X28.9381
G01 X29.5980 Y87.6822
G01 X30.6435 Y88.2639
G01 X31.5235 Y88.7215
G01 X38.1100
G01 Y90.1525
G01 X34.6532
G01 X66.9482
G03 X62.8953 Y91.5835 I-15.2179 J-36.6457
G01 X38.7011
G02 X45.5753 Y93.0145 I11.8618 J-39.7550
G01 X56.0510
G00 Z2.0000
G00 X57.4565 Y84.4285
G00 Z-2.5000
G01 Z-4.5000 F60
G01 X76.8497 F1800
G01 X76.2965 Y84.8550
G01 X75.3287 Y85.5585
G01 X74.8874 Y85.8595
G01 X47.2800
G01 X46.6879 Y87.2905
G01 X72.6610
G01 X72.1054 Y87.6224
G01 X71.0614 Y88.2070
G01 X70.0790 Y88.7215
G01 X45.3265
G00 Z2.0000
G00 X47.8720 Y85.8595
G00 Z-2.5000
G01 Z-4.5000
G01 Y84.4285
G01 X51.3494
G01 X49.3341 Y82.9975
G01 X48.4641
G00 Z2.0000
G00 X60.8319 Y81.5665
G00 Z-2.5000
G01 Z-4.5000 F60
G01 X80.1755 F1800
G01 X80.9203 Y80.8427
G01 X81.6048 Y80.1355
G01 X73.6933
G02 X74.3229 Y78.7045 I-4.1206 J-2.6669
G01 X82.9064
G01 X83.4060 Y78.1251
G01 X84.0995 Y77.2735
G01 X74.2483
G01 X74.0316 Y75.8425
G01 X85.1861
G01 X85.7300 Y75.0838
G01 X86.1835 Y74.4115
G01 X73.8149
G01 X73.6331 Y73.2107
G01 X73.7243 Y72.9805
G01 X87.1003
G01 X87.6523 Y72.0537
G01 X87.9337 Y71.5495
G01 X74.2911
G01 X74.3056 Y71.5131
G01 X75.8804 Y70.1185
G01 X88.6985
G01 X89.3979 Y68.6875
G01 X77.4279
G01 X77.5700 Y68.4890
G01 X78.1359 Y67.5034
G01 X78.2563 Y67.2565
G01 X90.0263
G01 X90.3562 Y66.4563
G01 X90.5956 Y65.8255
G01 X78.5766
G01 X78.8595 Y64.3945
G01 X91.1088
G01 X91.5645 Y62.9635
G01 X84.3768
G01 X86.1530 Y61.5325
G01 X91.9638
G01 X92.3086 Y60.1015
G01 X87.9293
G01 X89.1632 Y59.1073
G01 X89.3550 Y58.9331
G01 X89.4802 Y58.7892
G01 X89.5555 Y58.6705
G01 X92.6033
G01 X92.8467 Y57.2395
G01 X90.1615
G01 X90.4044 Y56.6142
G01 X90.4829 Y56.3673
G01 X90.5189 Y56.1800
G01 X90.5339 Y55.8085
G01 X93.0431
G01 X93.1910 Y54.3775
G01 X90.3109
G01 X90.1470 Y53.3342
G01 X90.0695 Y53.0124
G01 X90.0398 Y52.9465
G01 X93.2849
G01 X93.3318 Y51.5155
G01 X89.2464
G01 X89.2071 Y51.4477
G01 X88.9658 Y51.1529
G01 X87.6698 Y50.0845
G01 X93.3318
G01 X93.2824 Y48.6535
G01 X86.4591
G01 X86.4755 Y48.5453
G01 X86.4776 Y47.2225
G01 X93.1883
G01 X93.0459 Y45.7915
G01 X87.3424
G01 X88.5859 Y44.4499
G01 X88.6493 Y44.3605
G01 X92.8489
G01 X92.6031 Y42.9295
G01 X89.1600
G01 X89.4080 Y41.8030
G01 X89.4371 Y41.4985
G01 X92.3065
G01 X92.1601 Y40.8426
G01 X91.9619 Y40.0675
G01 X89.1070
G01 X88.6569 Y38.6365
G01 X91.5645
G01 X91.1088 Y37.2055
G01 X88.2068
G01 X87.7566 Y35.7745
G01 X90.5956
G01 X90.3562 Y35.1437
G01 X90.0240 Y34.3435
G01 X86.1258
G01 X86.0798 Y34.3254
G01 X85.5918 Y32.9125
G01 X89.3958
G01 X88.7000 Y31.4815
G01 X84.8318
G01 X83.6906 Y30.0505
G01 X87.9337
G01 X87.6523 Y29.5462
G01 X87.1003 Y28.6195
G01 X82.5495
G01 X81.9472 Y27.8641
G01 X81.7709 Y27.6687
G01 X81.4718 Y27.4326
G01 X81.0889 Y27.1885
G01 X86.1858
G01 X85.5928 Y26.3200
G01 X85.1851 Y25.7575
G01 X76.2320
G01 X75.0311 Y24.5744
G01 X74.9989 Y24.5360
G01 X75.0267 Y24.3265
G01 X84.0995
G01 X83.4060 Y23.4749
G01 X82.9064 Y22.8955
G01 X74.9603
G01 X74.8382 Y22.6470
G01 X74.6112 Y22.3410
G01 X73.6391 Y21.4645
G01 X81.6070
G01 X80.8181 Y20.6548
G01 X80.1762 Y20.0335
G01 X72.0521
G01 X70.4651 Y18.6025
G01 X78.5989
G01 X78.1708 Y18.2323
G01 X76.8488 Y17.1715
G01 X68.8781
G01 Y15.7405
G01 X74.8911
G01 X46.5214
G01 X49.6948 Y17.1715
G01 X63.0145
G01 X62.8486 Y17.3549
G01 X61.9313 Y18.6025
G01 X52.2932
G01 X54.0967 Y19.7457
G01 X54.5248 Y20.0335
G01 X60.8791
G01 X60.5256 Y20.5143
G01 X59.0293 Y21.4645
G01 X57.5623
G00 Z2.0000
G00 X37.3918 Y17.1715
G00 Z-2.5000
G01 Z-4.5000
G01 Y18.6025
G01 X39.4090
G00 Z2.0000
G00 X37.1395 Y77.2735
G00 Z-2.5000
G01 Z-4.5000 F60
G01 X29.2584 F1800
G01 X28.0070 Y78.3980
G01 X27.8588 Y78.5180
G01 X27.5410 Y78.7045
G01 X37.3905
G00 Z2.0000
G00 X61.6738 Y81.5665
G00 Z-2.5000
G01 Z-4.5000
G01 Y80.1355
G01 X66.3624
G00 Z2.0000
G00 X59.1999 Y84.4285
G00 Z-2.5000
G01 Z-4.5000
G01 Y82.9975
G01 X78.5989
G00 Z2.0000
G00 X56.0318 Y8.5855
G00 Z-4.0000
G01 Z-6.0000 F60
G01 X45.5608 F1800
G02 X38.7142 Y10.0165 I4.9017 J40.5465
G01 X62.8939
G03 X66.9510 Y11.4475 I-11.1682 J38.1303
G01 X34.6529
G02 X31.5341 Y12.8785 I13.0499 J32.5566
G01 X70.0741
G01 X71.0614 Y13.3929
G01 X72.1054 Y13.9775
G01 X72.6610 Y14.3095
G01 X28.9465
G01 X28.1625 Y14.7809
G01 X26.7054 Y15.7405
G01 X42.3420
G01 X42.2744 Y15.7691
G01 X41.9600 Y15.9843
G01 X40.7960 Y17.1715
G01 X24.7567
G01 X24.0754 Y17.6998
G01 X23.0013 Y18.6025
G01 X32.5134
G01 X29.7994 Y19.8504
G01 X29.5327 Y20.0335
G01 X21.4213
G01 X20.8665 Y20.5705
G01 X19.9978 Y21.4645
G01 X27.4475
G01 X26.5236 Y22.0986
G01 X23.5517 Y22.8955
G01 X18.6978
G01 X17.9643 Y23.7510
G01 X17.5089 Y24.3265
G01 X19.8257
G01 X19.6506 Y24.6032
G01 X19.0730 Y25.7575
G01 X16.4197
G01 X15.9381 Y26.4179
G01 X15.4215 Y27.1885
G01 X18.3706
G01 X18.3759 Y28.6195
G01 X14.5072
G01 X14.1281 Y29.2361
G01 X13.6705 Y30.0505
G01 X19.4000
G01 X20.5299 Y31.4815
G01 X12.8980
G01 X12.4563 Y32.3721
G01 X12.2098 Y32.9125
G01 X21.6599
G01 X22.7898 Y34.3435
G01 X11.5767
G01 X11.0050 Y35.7745
G01 X23.2718
G01 X22.5931 Y36.5423
G01 X20.7694 Y37.2055
G01 X10.4914
G01 X10.0340 Y38.6365
G01 X14.9808
G01 X14.1395 Y39.2178
G01 X13.8596 Y39.4763
G01 X13.6367 Y39.7852
G01 X13.5083 Y40.0675
G01 X9.6375
G01 X9.2934 Y41.4985
G01 X12.8571
G01 X12.2059 Y42.9295
G01 X9.0001
G01 X8.8824 Y43.5370
G01 X8.7493 Y44.3605
G01 X11.9645
G02 X12.0683 Y45.7915 I2.8091 J0.5154
G01 X8.5596
G01 X8.4109 Y47.2225
G01 X12.4952
G01 X13.2656 Y48.6535
G01 X8.3141
G01 X8.2694 Y50.0845
G01 X13.2461
G02 X13.0832 Y51.5155 I2.0370 J0.9566
G01 X8.2715
G01 X8.2782 Y52.1159
G01 X8.3203 Y52.9465
G01 X14.2005
G01 X15.9597 Y54.3775
G01 X8.4161
G01 X8.5135 Y55.4570
G01 X8.5592 Y55.8085
G01 X17.7190
G01 X19.0752 Y56.9117
G01 X19.1453 Y57.2395
G01 X8.7493
G01 X8.9944 Y58.6705
G01 X18.4575
G01 X17.5227 Y60.1015
G01 X9.2950
G01 X9.4117 Y60.6410
G01 X9.6423 Y61.5325
G01 X16.5879
G02 X15.9629 Y62.9635 I2.2040 J1.8146
G01 X10.0423
G01 X10.3142 Y63.8665
G01 X10.4962 Y64.3945
G01 X15.7377
G01 X15.7382 Y64.5734
G01 X15.9917 Y65.8255
G01 X11.0061
G01 X11.5745 Y67.2565
G01 X16.2814
G01 X16.3735 Y67.7117
G01 X16.4852 Y68.0807
G02 X16.9018 Y68.6875 I1.3964 J-0.5125
G01 X12.2042
G01 X12.8980 Y70.1185
G01 X17.7339
G01 X17.9952 Y71.1923
G01 X18.0976 Y71.5495
G01 X13.6633
G01 X14.5024 Y72.9805
G01 X18.5078
G01 X18.9179 Y74.4115
G01 X15.4161
G01 X16.4127 Y75.8425
G01 X19.4737
G01 X20.3449 Y76.9750
G01 X20.6849 Y77.2735
G01 X17.4991
G01 X18.6921 Y78.7045
G01 X23.0378
G01 Y80.1355
G01 X19.9986
G01 X36.8759
G01 X36.2580 Y81.5665
G01 X21.4213
G01 X22.2459 Y82.3355
G01 X23.0068 Y82.9975
G01 X35.7015
G02 X35.7792 Y84.4285 I4.8937 J0.4521
G01 X24.7464
G01 X26.1733 Y85.4894
G01 X26.7170 Y85.8595
G01 X36.0238
G02 X36.9977 Y87.2905 I6.8414 J-3.6093
G01 X28.9381
G01 X29.5980 Y87.6822
G01 X30.6435 Y88.2639
G01 X31.5235 Y88.7215
G01 X38.1100
G01 Y90.1525
G01 X34.6532
G01 X66.9482
G03 X62.8953 Y91.5835 I-15.2179 J-36.6457
G01 X38.7011
G02 X45.5753 Y93.0145 I11.8618 J-39.7550
G01 X56.0510
G00 Z2.0000
G00 X57.4565 Y84.4285
G00 Z-4.0000
G01 Z-6.0000 F60
G01 X76.8497 F1800
G01 X76.2965 Y84.8550
G01 X75.3287 Y85.5585
G01 X74.8874 Y85.8595
G01 X47.2800
G01 X46.6879 Y87.2905
G01 X72.6610
G01 X72.1054 Y87.6224
G01 X71.0614 Y88.2070
G01 X70.0790 Y88.7215
G01 X45.3265
G00 Z2.0000
G00 X47.8720 Y85.8595
G00 Z-4.0000
G01 Z-6.0000
G01 Y84.4285
G01 X51.3494
G01 X49.3341 Y82.9975
G01 X48.4641
G00 Z2.0000
G00 X60.8319 Y81.5665
G00 Z-4.0000
G01 Z-6.0000 F60
G01 X80.1755 F1800
G01 X80.9203 Y80.8427
G01 X81.6048 Y80.1355
G01 X73.6933
G02 X74.3229 Y78.7045 I-4.1206 J-2.6669
G01 X82.9064
G01 X83.4060 Y78.1251
G01 X84.0995 Y77.2735
G01 X74.2483
G01 X74.0316 Y75.8425
G01 X85.1861
G01 X85.7300 Y75.0838
G01 X86.1835 Y74.4115
G01 X73.8149
G01 X73.6331 Y73.2107
G01 X73.7243 Y72.9805
G01 X87.1003
G01 X87.6523 Y72.0537
G01 X87.9337 Y71.5495
G01 X74.2911
G01 X74.3056 Y71.5131
G01 X75.8804 Y70.1185
G01 X88.6985
G01 X89.3979 Y68.6875
G01 X77.4279
G01 X77.5700 Y68.4890
G01 X78.1359 Y67.5034
G01 X78.2563 Y67.2565
G01 X90.0263
G01 X90.3562 Y66.4563
G01 X90.5956 Y65.8255
G01 X78.5766
G01 X78.8595 Y64.3945
G01 X91.1088
G01 X91.5645 Y62.9635
G01 X84.3768
G01 X86.1530 Y61.5325
G01 X91.9638
G01 X92.3086 Y60.1015
G01 X87.9293
G01 X89.1632 Y59.1073
G01 X89.3550 Y58.9331
G01 X89.4802 Y58.7892
G01 X89.5555 Y58.6705
G01 X92.6033
G01 X92.8467 Y57.2395
G01 X90.1615
G01 X90.4044 Y56.6142
G01 X90.4829 Y56.3673
G01 X90.5189 Y56.1800
G01 X90.5339 Y55.8085
G01 X93.0431
G01 X93.1910 Y54.3775
G01 X90.3109
G01 X90.1470 Y53.3342
G01 X90.0695 Y53.0124
G01 X90.0398 Y52.9465
G01 X93.2849
G01 X93.3318 Y51.5155
G01 X89.2464
G01 X89.2071 Y51.4477
G01 X88.9658 Y51.1529
G01 X87.6698 Y50.0845
G01 X93.3318
G01 X93.2824 Y48.6535
G01 X86.4591
G01 X86.4755 Y48.5453
G01 X86.4776 Y47.2225
G01 X93.1883
G01 X93.0459 Y45.7915
G01 X87.3424
G01 X88.5859 Y44.4499
G01 X88.6493 Y44.3605
G01 X92.8489
G01 X92.6031 Y42.9295
G01 X89.1600
G01 X89.4080 Y41.8030
G01 X89.4371 Y41.4985
G01 X92.3065
G01 X92.1601 Y40.8426
G01 X91.9619 Y40.0675
G01 X89.1070
G01 X88.6569 Y38.6365
G01 X91.5645
G01 X91.1088 Y37.2055
G01 X88.2068
G01 X87.7566 Y35.7745
G01 X90.5956
G01 X90.3562 Y35.1437
G01 X90.0240 Y34.3435
G01 X86.1258
G01 X86.0798 Y34.3254
G01 X85.5918 Y32.9125
G01 X89.3958
G01 X88.7000 Y31.4815
G01 X84.8318
G01 X83.6906 Y30.0505
G01 X87.9337
G01 X87.6523 Y29.5462
G01 X87.1003 Y28.6195
G01 X82.5495
G01 X81.9472 Y27.8641
G01 X81.7709 Y27.6687
G01 X81.4718 Y27.4326
G01 X81.0889 Y27.1885
G01 X86.1858
G01 X85.5928 Y26.3200
G01 X85.1851 Y25.7575
G01 X76.2320
G01 X75.0311 Y24.5744
G01 X74.9989 Y24.5360
G01 X75.0267 Y24.3265
G01 X84.0995
G01 X83.4060 Y23.4749
G01 X82.9064 Y22.8955
G01 X74.9603
G01 X74.8382 Y22.6470
G01 X74.6112 Y22.3410
G01 X73.6391 Y21.4645
G01 X81.6070
G01 X80.8181 Y20.6548
G01 X80.1762 Y20.0335
G01 X72.0521
G01 X70.4651 Y18.6025
G01 X78.5989
G01 X78.1708 Y18.2323
G01 X76.8488 Y17.1715
G01 X68.8781
G01 Y15.7405
G01 X74.8911
G01 X46.5214
G01 X49.6948 Y17.1715
G01 X63.0145
G01 X62.8486 Y17.3549
G01 X61.9313 Y18.6025
G01 X52.2932
G01 X54.0967 Y19.7457
G01 X54.5248 Y20.0335
G01 X60.8791
G01 X60.5256 Y20.5143
G01 X59.0293 Y21.4645
G01 X57.5623
G00 Z2.0000
G00 X37.3918 Y17.1715
G00 Z-4.0000
G01 Z-6.0000
G01 Y18.6025
G01 X39.4090
G00 Z2.0000
G00 X37.1395 Y77.2735
G00 Z-4.0000
G01 Z-6.0000 F60
G01 X29.2584 F1800
G01 X28.0070 Y78.3980
G01 X27.8588 Y78.5180
G01 X27.5410 Y78.7045
G01 X37.3905
G00 Z2.0000
G00 X61.6738 Y81.5665
G00 Z-4.0000
G01 Z-6.0000
G01 Y80.1355
G01 X66.3624
G00 Z2.0000
G00 X59.1999 Y84.4285
G00 Z-4.0000
G01 Z-6.0000
G01 Y82.9975
G01 X78.5989
G00 Z2.0000


;No. 4: Island side wall: Part 2
G00 X78.5989 Y82.9975 Z2.0000
G00 X46.3386 Y87.3029
G00 Z-2.5000
G01 Z-4.5000 F60
G03 X45.7921 Y87.9910 I-1.4712 J-0.6075 F1800
G01 X44.1537 Y89.1809
G01 X43.8654 Y89.3138
G01 X43.5564 Y89.3868
G01 X41.0898 Y89.5979
G01 X40.7723 Y89.5931
G01 X40.6156 Y89.5669
G01 X40.3137 Y89.4684
G01 X38.6667 Y88.7110
G01 X38.3930 Y88.5502
G01 X38.1567 Y88.3382
G01 X36.4803 Y86.0271
G01 X36.3215 Y85.7521
G01 X36.2205 Y85.4512
G01 X36.1931 Y85.2946
G01 X35.9975 Y83.4927
G03 X36.1088 Y82.7139 I1.5807 J-0.1714
G01 X37.7363 Y78.9453
G01 X37.5401 Y77.2659
G03 X36.9571 Y76.1815 I1.4859 J-1.4977
G01 X35.2902 Y76.2548
G01 X35.0796 Y76.2300
G01 X32.3514 Y75.7537
G01 X30.0803 Y76.1173
G01 X27.7948 Y78.1612
G01 X27.5384 Y78.3484
G01 X27.3974 Y78.4219
G01 X27.2499 Y78.4809
G01 X26.9408 Y78.5535
G01 X24.2800 Y78.7445
G03 X23.3649 Y78.5308 I-0.1121 J-1.5860
G01 X20.9478 Y77.0678
G01 X20.6940 Y76.8771
G01 X20.4953 Y76.6567
G01 X19.7034 Y75.6195
G01 X19.5369 Y75.3492
G01 X19.4747 Y75.2029
G01 X18.3028 Y71.1111
G01 X17.7941 Y69.0209
G01 X17.1327 Y68.4818
G01 X16.9294 Y68.2379
G01 X16.7787 Y67.9585
G01 X16.6850 Y67.6477
G01 X16.0545 Y64.5408
G01 X16.0536 Y64.2233
G01 X16.0778 Y64.0610
G01 X16.3320 Y62.7247
G01 X16.3695 Y62.5703
G01 X16.4896 Y62.2764
G01 X19.5435 Y57.5895
G01 X19.3616 Y56.7285
G01 X13.9382 Y52.3232
G01 X13.7130 Y52.0994
G01 X13.6183 Y51.9718
G03 X13.3605 Y50.9123 I1.3224 J-0.8828
G01 X13.4174 Y50.6330
G01 X13.8624 Y49.0753
G01 X12.7848 Y47.0925
G01 X12.7303 Y46.9432
G01 X12.3008 Y45.4491
G01 X12.2646 Y45.2943
G01 X12.2393 Y44.9779
G01 X12.3335 Y43.6490
G01 X12.3879 Y43.3362
G01 X12.4382 Y43.1855
G01 X13.8391 Y40.0860
G03 X14.3309 Y39.4718 I1.4485 J0.6558
G01 X15.7827 Y38.4688
G01 X16.0607 Y38.3156
G01 X16.2098 Y38.2605
G01 X16.5211 Y38.1961
G01 X20.1366 Y37.7746
G01 X22.7784 Y36.8128
G01 X23.6196 Y35.8611
G01 X23.5469 Y34.7878
G01 X18.8850 Y28.8851
G01 X18.7142 Y28.6174
G01 X18.6000 Y28.3212
G03 X18.6894 Y27.2345 I1.5333 J-0.4209
G01 X19.9349 Y24.7456
G01 X20.1047 Y24.4773
G01 X20.3244 Y24.2481
G01 X20.5852 Y24.0672
G01 X20.8768 Y23.9416
G01 X26.6353 Y22.4027
G01 X29.9527 Y20.1290
G01 X33.5492 Y18.4762
G01 X33.8496 Y18.3734
G01 X34.0059 Y18.3450
G01 X34.2420 Y18.3318
G01 X35.7533 Y18.3417
G01 X36.0689 Y18.3754
G01 X36.3716 Y18.4712
G01 X38.1891 Y19.3278
G01 X39.5477 Y18.9147
G01 X42.0488 Y16.3359
G01 X42.1650 Y16.2275
G01 X42.4270 Y16.0481
G01 X42.7193 Y15.9243
G01 X42.8733 Y15.8849
G01 X45.0343 Y15.5955
G01 X45.3511 Y15.6161
G01 X45.6575 Y15.6991
G01 X50.7177 Y17.9799
G01 X53.9230 Y20.0121
G01 X55.9336 Y21.3580
G01 X58.5662 Y22.0653
G01 X58.7036 Y22.0476
G01 X60.7467 Y20.7506
G01 X63.1045 Y17.5436
G01 X63.3175 Y17.3081
G01 X63.5729 Y17.1197
G03 X64.2990 Y16.8992 I0.8125 J1.3700
G01 X67.1695 Y16.7085
G01 X67.4868 Y16.7192
G01 X67.7956 Y16.7927
G01 X68.0837 Y16.9261
G01 X68.3531 Y17.1263
G01 X74.3760 Y22.5550
G03 X74.7747 Y23.4060 I-1.1761 J1.0700
G01 X74.7869 Y23.7232
G01 X74.6635 Y24.6379
G01 X74.7877 Y24.7790
G01 X76.5724 Y26.5425
G01 X78.5011 Y26.5558
G01 X78.7355 Y26.5979
G01 X79.8409 Y26.8690
G01 X80.1401 Y26.9750
G01 X80.2803 Y27.0499
G01 X81.3007 Y27.7007
G01 X81.5499 Y27.8974
G01 X81.6989 Y28.0628
G01 X84.9327 Y32.1156
G01 X85.0779 Y32.3979
G01 X85.8313 Y34.5803
G01 X86.4702 Y34.8144
G01 X86.7560 Y34.9526
G03 X87.3040 Y35.5172 I-0.8315 J1.3552
G01 X87.4336 Y35.8070
G01 X89.0531 Y40.9557
G03 X89.0961 Y41.7413 I-1.5168 J0.4770
G01 X88.7003 Y43.5385
G01 X88.6584 Y43.6918
G01 X88.5298 Y43.9820
G01 X88.3462 Y44.2410
G01 X87.1683 Y45.5237
G01 X86.9892 Y45.6631
G01 X85.9078 Y46.4062
G01 X86.0677 Y46.7511
G01 X86.1479 Y47.0582
G01 X86.1670 Y47.3240
G01 Y48.3548
G03 X85.7832 Y49.4452 I-1.8539 J-0.0399
G03 X86.7718 Y49.7624 I-0.0137 J1.7417
G01 X88.6232 Y51.2712
G01 X88.7411 Y51.3778
G01 X88.9422 Y51.6235
G01 X89.6376 Y52.8238
G01 X89.7679 Y53.1133
G01 X89.8331 Y53.3848
G01 X90.2169 Y55.8183
G03 X90.1074 Y56.5004 I-1.5914 J0.0944
G01 X89.4003 Y58.3247
G01 X89.2301 Y58.5928
G01 X89.1258 Y58.7127
G01 X88.9634 Y58.8600
G01 X83.9536 Y62.8980
G01 X83.8164 Y62.9783
G01 X83.5613 Y63.0841
G01 X82.3633 Y63.4789
G01 X82.0533 Y63.5476
G01 X81.7772 Y63.5564
G01 X78.8599 Y63.4305
G01 X78.7152 Y63.5362
G01 X78.0507 Y66.8463
G01 X77.9580 Y67.1499
G01 X77.8893 Y67.2933
G01 X77.2942 Y68.3306
G01 X77.1094 Y68.5888
G01 X76.9545 Y68.7424
G01 X74.0348 Y71.3280
G01 X73.3022 Y73.1701
G01 X74.0408 Y78.0273
G01 X74.0570 Y78.3443
G01 X74.0098 Y78.6583
G01 X73.9630 Y78.8102
G01 X73.5513 Y79.7808
G03 X73.0177 Y80.3591 I-1.3990 J-0.7556
G03 X71.9550 Y80.6029 I-0.8655 J-1.3338
G01 X62.3055 Y79.2423
G01 X61.5459 Y79.4221
G01 X61.4340 Y79.8905
G01 X61.3100 Y80.1828
G01 X60.6545 Y81.2751
G01 X60.4646 Y81.5295
G01 X60.3515 Y81.6412
G01 X56.6308 Y84.7067
G03 X55.7612 Y85.0630 I-1.0107 J-1.2274
G01 X53.4759 Y85.1470
G01 X53.1591 Y85.1266
G01 X52.8526 Y85.0437
G01 X52.7072 Y84.9797
G01 X52.4822 Y84.8429
G01 X48.6230 Y82.1025
G01 X48.4680 Y82.1459
G01 X48.4571 Y82.1702
G01 X46.3386 Y87.3029
G01 Z-6.0000 F60
G03 X45.7921 Y87.9910 I-1.4712 J-0.6075 F1800
G01 X44.1537 Y89.1809
G01 X43.8654 Y89.3138
G01 X43.5564 Y89.3868
G01 X41.0898 Y89.5979
G01 X40.7723 Y89.5931
G01 X40.6156 Y89.5669
G01 X40.3137 Y89.4684
G01 X38.6667 Y88.7110
G01 X38.3930 Y88.5502
G01 X38.1567 Y88.3382
G01 X36.4803 Y86.0271
G01 X36.3215 Y85.7521
G01 X36.2205 Y85.4512
G01 X36.1931 Y85.2946
G01 X35.9975 Y83.4927
G03 X36.1088 Y82.7139 I1.5807 J-0.1714
G01 X37.7363 Y78.9453
G01 X37.5401 Y77.2659
G03 X36.9571 Y76.1815 I1.4859 J-1.4977
G01 X35.2902 Y76.2548
G01 X35.0796 Y76.2300
G01 X32.3514 Y75.7537
G01 X30.0803 Y76.1173
G01 X27.7948 Y78.1612
G01 X27.5384 Y78.3484
G01 X27.3974 Y78.4219
G01 X27.2499 Y78.4809
G01 X26.9408 Y78.5535
G01 X24.2800 Y78.7445
G03 X23.3649 Y78.5308 I-0.1121 J-1.5860
G01 X20.9478 Y77.0678
G01 X20.6940 Y76.8771
G01 X20.4953 Y76.6567
G01 X19.7034 Y75.6195
G01 X19.5369 Y75.3492
G01 X19.4747 Y75.2029
G01 X18.3028 Y71.1111
G01 X17.7941 Y69.0209
G01 X17.1327 Y68.4818
G01 X16.9294 Y68.2379
G01 X16.7787 Y67.9585
G01 X16.6850 Y67.6477
G01 X16.0545 Y64.5408
G01 X16.0536 Y64.2233
G01 X16.0778 Y64.0610
G01 X16.3320 Y62.7247
G01 X16.3695 Y62.5703
G01 X16.4896 Y62.2764
G01 X19.5435 Y57.5895
G01 X19.3616 Y56.7285
G01 X13.9382 Y52.3232
G01 X13.7130 Y52.0994
G01 X13.6183 Y51.9718
G03 X13.3605 Y50.9123 I1.3224 J-0.8828
G01 X13.4174 Y50.6330
G01 X13.8624 Y49.0753
G01 X12.7848 Y47.0925
G01 X12.7303 Y46.9432
G01 X12.3008 Y45.4491
G01 X12.2646 Y45.2943
G01 X12.2393 Y44.9779
G01 X12.3335 Y43.6490
G01 X12.3879 Y43.3362
G01 X12.4382 Y43.1855
G01 X13.8391 Y40.0860
G03 X14.3309 Y39.4718 I1.4485 J0.6558
G01 X15.7827 Y38.4688
G01 X16.0607 Y38.3156
G01 X16.2098 Y38.2605
G01 X16.5211 Y38.1961
G01 X20.1366 Y37.7746
G01 X22.7784 Y36.8128
G01 X23.6196 Y35.8611
G01 X23.5469 Y34.7878
G01 X18.8850 Y28.8851
G01 X18.7142 Y28.6174
G01 X18.6000 Y28.3212
G03 X18.6894 Y27.2345 I1.5333 J-0.4209
G01 X19.9349 Y24.7456
G01 X20.1047 Y24.4773
G01 X20.3244 Y24.2481
G01 X20.5852 Y24.0672
G01 X20.8768 Y23.9416
G01 X26.6353 Y22.4027
G01 X29.9527 Y20.1290
G01 X33.5492 Y18.4762
G01 X33.8496 Y18.3734
G01 X34.0059 Y18.3450
G01 X34.2420 Y18.3318
G01 X35.7533 Y18.3417
G01 X36.0689 Y18.3754
G01 X36.3716 Y18.4712
G01 X38.1891 Y19.3278
G01 X39.5477 Y18.9147
G01 X42.0488 Y16.3359
G01 X42.1650 Y16.2275
G01 X42.4270 Y16.0481
G01 X42.7193 Y15.9243
G01 X42.8733 Y15.8849
G01 X45.0343 Y15.5955
G01 X45.3511 Y15.6161
G01 X45.6575 Y15.6991
G01 X50.7177 Y17.9799
G01 X53.9230 Y20.0121
G01 X55.9336 Y21.3580
G01 X58.5662 Y22.0653
G01 X58.7036 Y22.0476
G01 X60.7467 Y20.7506
G01 X63.1045 Y17.5436
G01 X63.3175 Y17.3081
G01 X63.5729 Y17.1197
G03 X64.2990 Y16.8992 I0.8125 J1.3700
G01 X67.1695 Y16.7085
G01 X67.4868 Y16.7192
G01 X67.7956 Y16.7927
G01 X68.0837 Y16.9261
G01 X68.3531 Y17.1263
G01 X74.3760 Y22.5550
G03 X74.7747 Y23.4060 I-1.1761 J1.0700
G01 X74.7869 Y23.7232
G01 X74.6635 Y24.6379
G01 X74.7877 Y24.7790
G01 X76.5724 Y26.5425
G01 X78.5011 Y26.5558
G01 X78.7355 Y26.5979
G01 X79.8409 Y26.8690
G01 X80.1401 Y26.9750
G01 X80.2803 Y27.0499
G01 X81.3007 Y27.7007
G01 X81.5499 Y27.8974
G01 X81.6989 Y28.0628
G01 X84.9327 Y32.1156
G01 X85.0779 Y32.3979
G01 X85.8313 Y34.5803
G01 X86.4702 Y34.8144
G01 X86.7560 Y34.9526
G03 X87.3040 Y35.5172 I-0.8315 J1.3552
G01 X87.4336 Y35.8070
G01 X89.0531 Y40.9557
G03 X89.0961 Y41.7413 I-1.5168 J0.4770
G01 X88.7003 Y43.5385
G01 X88.6584 Y43.6918
G01 X88.5298 Y43.9820
G01 X88.3462 Y44.2410
G01 X87.1683 Y45.5237
G01 X86.9892 Y45.6631
G01 X85.9078 Y46.4062
G01 X86.0677 Y46.7511
G01 X86.1479 Y47.0582
G01 X86.1670 Y47.3240
G01 Y48.3548
G03 X85.7832 Y49.4452 I-1.8539 J-0.0399
G03 X86.7718 Y49.7624 I-0.0137 J1.7417
G01 X88.6232 Y51.2712
G01 X88.7411 Y51.3778
G01 X88.9422 Y51.6235
G01 X89.6376 Y52.8238
G01 X89.7679 Y53.1133
G01 X89.8331 Y53.3848
G01 X90.2169 Y55.8183
G03 X90.1074 Y56.5004 I-1.5914 J0.0944
G01 X89.4003 Y58.3247
G01 X89.2301 Y58.5928
G01 X89.1258 Y58.7127
G01 X88.9634 Y58.8600
G01 X83.9536 Y62.8980
G01 X83.8164 Y62.9783
G01 X83.5613 Y63.0841
G01 X82.3633 Y63.4789
G01 X82.0533 Y63.5476
G01 X81.7772 Y63.5564
G01 X78.8599 Y63.4305
G01 X78.7152 Y63.5362
G01 X78.0507 Y66.8463
G01 X77.9580 Y67.1499
G01 X77.8893 Y67.2933
G01 X77.2942 Y68.3306
G01 X77.1094 Y68.5888
G01 X76.9545 Y68.7424
G01 X74.0348 Y71.3280
G01 X73.3022 Y73.1701
G01 X74.0408 Y78.0273
G01 X74.0570 Y78.3443
G01 X74.0098 Y78.6583
G01 X73.9630 Y78.8102
G01 X73.5513 Y79.7808
G03 X73.0177 Y80.3591 I-1.3990 J-0.7556
G03 X71.9550 Y80.6029 I-0.8655 J-1.3338
G01 X62.3055 Y79.2423
G01 X61.5459 Y79.4221
G01 X61.4340 Y79.8905
G01 X61.3100 Y80.1828
G01 X60.6545 Y81.2751
G01 X60.4646 Y81.5295
G01 X60.3515 Y81.6412
G01 X56.6308 Y84.7067
G03 X55.7612 Y85.0630 I-1.0107 J-1.2274
G01 X53.4759 Y85.1470
G01 X53.1591 Y85.1266
G01 X52.8526 Y85.0437
G01 X52.7072 Y84.9797
G01 X52.4822 Y84.8429
G01 X48.6230 Y82.1025
G01 X48.4680 Y82.1459
G01 X48.4571 Y82.1702
G01 X46.3386 Y87.3029
G00 Z2.0000


;No. 5: Pocket side wall: Cutout 1
G00 X46.3386 Y87.3029 Z2.0000
G00 X50.8001 Y7.9411
G00 Z-2.5000
G01 Z-4.5000 F60
G02 X7.9405 Y50.8007 I0.0000 J42.8596 F1800
G02 X50.8001 Y93.6603 I42.8596 J0.0000
G02 X93.6596 Y50.8007 I0.0000 J-42.8596
G02 X50.8001 Y7.9411 I-42.8596 J0.0000
G01 Z-6.0000 F60
G02 X7.9405 Y50.8007 I0.0000 J42.8596 F1800
G02 X50.8001 Y93.6603 I42.8596 J0.0000
G02 X93.6596 Y50.8007 I0.0000 J-42.8596
G02 X50.8001 Y7.9411 I-42.8596 J0.0000
G00 Z2.0000


;No. 6: Part 1
G00 X50.8001 Y7.9411 Z2.0000
G00 X48.6815 Y103.1416
G00 Z0.5000
G01 Z-1.5000 F60
G03 X-1.5431 Y53.0148 I2.1083 J-52.3370 F1800
G03 X-1.5270 Y48.2465 I51.3425 J-2.2106
G03 X48.9172 Y-1.5522 I52.3186 J2.5484
G03 X53.6853 Y-1.5104 I1.9446 J50.0506
G03 X103.1455 Y48.7472 I-2.8816 J52.3024
G03 X103.1156 Y53.5152 I-48.7448 J2.0779
G03 X53.4497 Y103.1228 I-52.3122 J-2.7077
G03 X48.6815 Y103.1416 I-2.5779 J-49.1755
G01 Z-3.0000 F60
G03 X-1.5431 Y53.0148 I2.1083 J-52.3370 F1800
G03 X-1.5270 Y48.2465 I51.3425 J-2.2106
G03 X48.9172 Y-1.5522 I52.3186 J2.5484
G03 X53.6853 Y-1.5104 I1.9446 J50.0506
G03 X103.1455 Y48.7472 I-2.8816 J52.3024
G03 X103.1156 Y53.5152 I-48.7448 J2.0779
G03 X53.4497 Y103.1228 I-52.3122 J-2.7077
G03 X48.6815 Y103.1416 I-2.5779 J-49.1755
G01 Z-4.5000 F60
G03 X-1.5431 Y53.0148 I2.1083 J-52.3370 F1800
G03 X-1.5270 Y48.2465 I51.3425 J-2.2106
G03 X48.9172 Y-1.5522 I52.3186 J2.5484
G03 X53.6853 Y-1.5104 I1.9446 J50.0506
G03 X103.1455 Y48.7472 I-2.8816 J52.3024
G03 X103.1156 Y53.5152 I-48.7448 J2.0779
G03 X53.4497 Y103.1228 I-52.3122 J-2.7077
G03 X48.6815 Y103.1416 I-2.5779 J-49.1755
G01 Z-6.0000 F60
G03 X-1.5431 Y53.0148 I2.1083 J-52.3370 F1800
G03 X-1.5270 Y48.2465 I51.3425 J-2.2106
G03 X48.9172 Y-1.5522 I52.3186 J2.5484
G03 X53.6853 Y-1.5104 I1.9446 J50.0506
G03 X103.1455 Y48.7472 I-2.8816 J52.3024
G03 X103.1156 Y53.5152 I-48.7448 J2.0779
G03 X53.4497 Y103.1228 I-52.3122 J-2.7077
G03 X48.6815 Y103.1416 I-2.5779 J-49.1755
G01 Z-7.5000 F60
G03 X-1.5431 Y53.0148 I2.1083 J-52.3370 F1800
G00 Z-7.0000
G03 X-1.5270 Y48.2465 I51.3425 J-2.2106
G01 Z-7.5000 F60
G03 X48.9172 Y-1.5522 I52.3186 J2.5484 F1800
G00 Z-7.0000
G03 X53.6853 Y-1.5104 I1.9446 J50.0506
G01 Z-7.5000 F60
G03 X103.1455 Y48.7472 I-2.8816 J52.3024 F1800
G00 Z-7.0000
G03 X103.1156 Y53.5152 I-48.7448 J2.0779
G01 Z-7.5000 F60
G03 X53.4497 Y103.1228 I-52.3122 J-2.7077 F1800
G00 Z-7.0000
G03 X48.6815 Y103.1416 I-2.5779 J-49.1755
G01 Z-9.0000 F60
G03 X-1.5431 Y53.0148 I2.1083 J-52.3370 F1800
G00 Z-7.0000
G03 X-1.5270 Y48.2465 I51.3425 J-2.2106
G01 Z-9.0000 F60
G03 X48.9172 Y-1.5522 I52.3186 J2.5484 F1800
G00 Z-7.0000
G03 X53.6853 Y-1.5104 I1.9446 J50.0506
G01 Z-9.0000 F60
G03 X103.1455 Y48.7472 I-2.8816 J52.3024 F1800
G00 Z-7.0000
G03 X103.1156 Y53.5152 I-48.7448 J2.0779
G01 Z-9.0000 F60
G03 X53.4497 Y103.1228 I-52.3122 J-2.7077 F1800
G00 Z-7.0000
G03 X48.6815 Y103.1416 I-2.5779 J-49.1755
G00 Z-8.5000
G01 Z-10.5000 F60
G03 X-1.5431 Y53.0148 I2.1083 J-52.3370 F1800
G00 Z-7.0000
G03 X-1.5270 Y48.2465 I51.3425 J-2.2106
G00 Z-8.5000
G01 Z-10.5000 F60
G03 X48.9172 Y-1.5522 I52.3186 J2.5484 F1800
G00 Z-7.0000
G03 X53.6853 Y-1.5104 I1.9446 J50.0506
G00 Z-8.5000
G01 Z-10.5000 F60
G03 X103.1455 Y48.7472 I-2.8816 J52.3024 F1800
G00 Z-7.0000
G03 X103.1156 Y53.5152 I-48.7448 J2.0779
G00 Z-8.5000
G01 Z-10.5000 F60
G03 X53.4497 Y103.1228 I-52.3122 J-2.7077 F1800
G00 Z-7.0000
G03 X48.6815 Y103.1416 I-2.5779 J-49.1755
G00 Z-10.0000
G01 Z-12.0000 F60
G03 X-1.5431 Y53.0148 I2.1083 J-52.3370 F1800
G00 Z-7.0000
G03 X-1.5270 Y48.2465 I51.3425 J-2.2106
G00 Z-10.0000
G01 Z-12.0000 F60
G03 X48.9172 Y-1.5522 I52.3186 J2.5484 F1800
G00 Z-7.0000
G03 X53.6853 Y-1.5104 I1.9446 J50.0506
G00 Z-10.0000
G01 Z-12.0000 F60
G03 X103.1455 Y48.7472 I-2.8816 J52.3024 F1800
G00 Z-7.0000
G03 X103.1156 Y53.5152 I-48.7448 J2.0779
G00 Z-10.0000
G01 Z-12.0000 F60
G03 X53.4497 Y103.1228 I-52.3122 J-2.7077 F1800
G00 Z-7.0000
G03 X48.6815 Y103.1416 I-2.5779 J-49.1755
G00 Z-11.5000
G01 Z-13.0000 F60
G03 X-1.5431 Y53.0148 I2.1083 J-52.3370 F1800
G00 Z-7.0000
G03 X-1.5270 Y48.2465 I51.3425 J-2.2106
G00 Z-11.5000
G01 Z-13.0000 F60
G03 X48.9172 Y-1.5522 I52.3186 J2.5484 F1800
G00 Z-7.0000
G03 X53.6853 Y-1.5104 I1.9446 J50.0506
G00 Z-11.5000
G01 Z-13.0000 F60
G03 X103.1455 Y48.7472 I-2.8816 J52.3024 F1800
G00 Z-7.0000
G03 X103.1156 Y53.5152 I-48.7448 J2.0779
G00 Z-11.5000
G01 Z-13.0000 F60
G03 X53.4497 Y103.1228 I-52.3122 J-2.7077 F1800
G00 Z-7.0000
G03 X48.6815 Y103.1416 I-2.5779 J-49.1755
G00 Z2.0000
G00 X0.0000 Y0.0000

M05
