;Project loidolt@gmail
;Created by Estlcam version 8 build 8.065
;Machining time about 12:04:31 AM hours

G90
M03 S24000
G00 Z2.0000


;No. 1: Engraving 1
G00 X50.7998 Y0.0000
G00 Z0.5000
G01 Z-1.0000 F60 S24000
G03 X101.5998 Y50.8000 I0.0000 J50.8000 F1800
G03 X50.7998 Y101.6000 I-50.8000 J0.0000
G03 X-0.0002 Y50.8000 I0.0000 J-50.8000
G03 X50.7998 Y0.0000 I50.8000 J0.0000
G01 Z-2.0000 F60
G03 X101.5998 Y50.8000 I0.0000 J50.8000 F1800
G03 X50.7998 Y101.6000 I-50.8000 J0.0000
G03 X-0.0002 Y50.8000 I0.0000 J-50.8000
G03 X50.7998 Y0.0000 I50.8000 J0.0000
G00 Z2.0000


;No. 2: Engraving 2
G00 X50.7998 Y0.0000 Z2.0000
G00 Y6.3500
G00 Z0.5000
G01 Z-1.0000 F60
G03 X95.2498 Y50.8000 I0.0000 J44.4500 F1800
G03 X50.7998 Y95.2500 I-44.4500 J0.0000
G03 X6.3498 Y50.8000 I0.0000 J-44.4500
G03 X50.7998 Y6.3500 I44.4500 J0.0000
G01 Z-2.0000 F60
G03 X95.2498 Y50.8000 I0.0000 J44.4500 F1800
G03 X50.7998 Y95.2500 I-44.4500 J0.0000
G03 X6.3498 Y50.8000 I0.0000 J-44.4500
G03 X50.7998 Y6.3500 I44.4500 J0.0000
G00 Z2.0000


;No. 3: Engraving 7
G00 X50.7998 Y6.3500 Z2.0000
G00 X24.1679 Y77.1584
G00 Z-2.5000
G01 Z-4.0000 F60
G01 X21.6868 Y75.6540 F1800
G03 X21.1400 Y75.0809 I0.8737 J-1.3810
G01 X21.0529 Y74.9010
G01 X20.9671 Y74.6545
G01 X19.8156 Y70.6079
G03 X19.8681 Y69.6220 I1.7625 J-0.4006
G03 X20.8542 Y68.5488 I1.7129 J0.5842
G01 X27.1136 Y66.5002
G01 X27.4053 Y66.4314
G01 X27.7043 Y66.4114
G03 X28.8122 Y66.8125 I-0.0293 J1.8114
G01 X28.9851 Y66.9714
G01 X29.5127 Y67.5361
G01 X29.6804 Y67.7844
G01 X29.7993 Y68.0593
G01 X29.8639 Y68.3519
G01 X29.8825 Y68.6055
G01 X29.9643 Y73.2406
G01 X29.9512 Y73.5401
G01 X29.8933 Y73.8341
G03 X29.4798 Y74.5090 I-1.5187 J-0.4663
G01 X26.7337 Y76.9770
G01 X26.4136 Y77.2159
G03 X25.4411 Y77.4377 I-0.8455 J-1.4637
G01 X24.9328 Y77.4123
G01 X24.6655 Y77.3682
G01 X24.4087 Y77.2824
G01 X24.1679 Y77.1584
G01 Z-5.0000 F60
G01 X21.6868 Y75.6540 F1800
G03 X21.1400 Y75.0809 I0.8737 J-1.3810
G01 X21.0529 Y74.9010
G01 X20.9671 Y74.6545
G01 X19.8156 Y70.6079
G03 X19.8681 Y69.6220 I1.7625 J-0.4006
G03 X20.8542 Y68.5488 I1.7129 J0.5842
G01 X27.1136 Y66.5002
G01 X27.4053 Y66.4314
G01 X27.7043 Y66.4114
G03 X28.8122 Y66.8125 I-0.0293 J1.8114
G01 X28.9851 Y66.9714
G01 X29.5127 Y67.5361
G01 X29.6804 Y67.7844
G01 X29.7993 Y68.0593
G01 X29.8639 Y68.3519
G01 X29.8825 Y68.6055
G01 X29.9643 Y73.2406
G01 X29.9512 Y73.5401
G01 X29.8933 Y73.8341
G03 X29.4798 Y74.5090 I-1.5187 J-0.4663
G01 X26.7337 Y76.9770
G01 X26.4136 Y77.2159
G03 X25.4411 Y77.4377 I-0.8455 J-1.4637
G01 X24.9328 Y77.4123
G01 X24.6655 Y77.3682
G01 X24.4087 Y77.2824
G01 X24.1679 Y77.1584
G00 Z2.0000


;No. 4: Engraving 8
G00 X24.1679 Y77.1584 Z2.0000
G00 X32.1620 Y74.0975
G00 Z-2.5000
G01 Z-4.0000 F60
G03 X30.8860 Y72.6897 I0.5051 J-1.7401 F1800
G01 X30.8555 Y72.3893
G01 X30.8088 Y69.5817
G03 X31.0599 Y68.7271 I1.8079 J0.0671
G03 X32.1467 Y67.9005 I1.5590 J0.9218
G01 X32.3431 Y67.8588
G01 X36.0546 Y67.2860
G01 X36.3535 Y67.2647
G03 X38.1300 Y68.8525 I-0.0238 J1.8143
G01 X38.1416 Y69.1519
G01 X38.1173 Y69.3815
G01 X37.4685 Y73.1862
G03 X37.2222 Y73.8369 I-1.7874 J-0.3046
G03 X35.8225 Y74.6884 I-1.5410 J-0.9568
G01 X35.6226 Y74.6927
G01 X35.3717 Y74.6669
G01 X32.3568 Y74.1426
G01 X32.1620 Y74.0975
G01 Z-5.0000 F60
G03 X30.8860 Y72.6897 I0.5051 J-1.7401 F1800
G01 X30.8555 Y72.3893
G01 X30.8088 Y69.5817
G03 X31.0599 Y68.7271 I1.8079 J0.0671
G03 X32.1467 Y67.9005 I1.5590 J0.9218
G01 X32.3431 Y67.8588
G01 X36.0546 Y67.2860
G01 X36.3535 Y67.2647
G03 X38.1300 Y68.8525 I-0.0238 J1.8143
G01 X38.1416 Y69.1519
G01 X38.1173 Y69.3815
G01 X37.4685 Y73.1862
G03 X37.2222 Y73.8369 I-1.7874 J-0.3046
G03 X35.8225 Y74.6884 I-1.5410 J-0.9568
G01 X35.6226 Y74.6927
G01 X35.3717 Y74.6669
G01 X32.3568 Y74.1426
G01 X32.1620 Y74.0975
G00 Z2.0000


;No. 5: Engraving 6
G00 X32.1620 Y74.0975 Z2.0000
G00 X38.5684 Y76.0148
G00 Z-2.5000
G01 Z-4.0000 F60
G03 X38.1324 Y74.7293 I1.1479 J-1.1061 F1800
G01 X39.4560 Y66.9764
G03 X39.7709 Y66.3572 I1.5667 J0.4071
G01 X39.9452 Y66.1685
G01 X40.8125 Y65.3411
G03 X41.8200 Y64.9536 I1.0578 J1.2469
G03 X42.7674 Y65.2211 I0.0509 J1.6316
G01 X44.5989 Y66.7035
G01 X44.8059 Y66.9202
G01 X44.9710 Y67.1702
G01 X45.1143 Y67.5221
G01 X47.3604 Y74.9917
G03 X47.3574 Y75.7801 I-1.2933 J0.3892
G03 X46.3733 Y76.6805 I-1.2475 J-0.3755
G01 X40.4044 Y77.2281
G03 X39.4593 Y76.9608 I-0.0881 J-1.4930
G03 X38.5684 Y76.0148 I2.9360 J-3.6578
G01 Z-5.0000 F60
G03 X38.1324 Y74.7293 I1.1479 J-1.1061 F1800
G01 X39.4560 Y66.9764
G03 X39.7709 Y66.3572 I1.5667 J0.4071
G01 X39.9452 Y66.1685
G01 X40.8125 Y65.3411
G03 X41.8200 Y64.9536 I1.0578 J1.2469
G03 X42.7674 Y65.2211 I0.0509 J1.6316
G01 X44.5989 Y66.7035
G01 X44.8059 Y66.9202
G01 X44.9710 Y67.1702
G01 X45.1143 Y67.5221
G01 X47.3604 Y74.9917
G03 X47.3574 Y75.7801 I-1.2933 J0.3892
G03 X46.3733 Y76.6805 I-1.2475 J-0.3755
G01 X40.4044 Y77.2281
G03 X39.4593 Y76.9608 I-0.0881 J-1.4930
G03 X38.5684 Y76.0148 I2.9360 J-3.6578
G00 Z2.0000


;No. 6: Engraving 3
G00 X38.5684 Y76.0148 Z2.0000
G00 X37.5782 Y83.3213
G00 Z-2.5000
G01 Z-4.0000 F60
G01 X39.4049 Y79.0990 F1800
G03 X39.9864 Y78.4241 I1.6220 J0.8096
G03 X40.7203 Y78.1222 I1.0398 J1.4847
G01 X45.5978 Y77.6730
G03 X46.8900 Y78.3125 I0.0409 J1.5426
G01 X46.9962 Y78.4818
G01 X47.0795 Y78.6635
G01 X47.3619 Y79.6417
G03 X47.4256 Y80.3342 I-1.6594 J0.5017
G01 X47.3895 Y80.5308
G01 X47.2926 Y80.8241
G01 X44.8689 Y86.6963
G03 X44.2578 Y87.4719 I-1.6760 J-0.6920
G03 X43.5289 Y87.7857 I-1.0634 J-1.4668
G01 X40.9553 Y88.0136
G03 X39.8126 Y87.7261 I-0.1530 J-1.8062
G01 X39.5759 Y87.5423
G01 X39.3312 Y87.2665
G01 X37.7709 Y85.0983
G01 X37.6166 Y84.8414
G03 X37.5782 Y83.3213 I1.6252 J-0.8016
G01 Z-5.0000 F60
G01 X39.4049 Y79.0990 F1800
G03 X39.9864 Y78.4241 I1.6220 J0.8096
G03 X40.7203 Y78.1222 I1.0398 J1.4847
G01 X45.5978 Y77.6730
G03 X46.8900 Y78.3125 I0.0409 J1.5426
G01 X46.9962 Y78.4818
G01 X47.0795 Y78.6635
G01 X47.3619 Y79.6417
G03 X47.4256 Y80.3342 I-1.6594 J0.5017
G01 X47.3895 Y80.5308
G01 X47.2926 Y80.8241
G01 X44.8689 Y86.6963
G03 X44.2578 Y87.4719 I-1.6760 J-0.6920
G03 X43.5289 Y87.7857 I-1.0634 J-1.4668
G01 X40.9553 Y88.0136
G03 X39.8126 Y87.7261 I-0.1530 J-1.8062
G01 X39.5759 Y87.5423
G01 X39.3312 Y87.2665
G01 X37.7709 Y85.0983
G01 X37.6166 Y84.8414
G03 X37.5782 Y83.3213 I1.6252 J-0.8016
G00 Z2.0000


;No. 7: Engraving 13
G00 X37.5782 Y83.3213 Z2.0000
G00 X40.6610 Y64.2266
G00 Z-2.5000
G01 Z-4.0000 F60
G01 X39.2209 Y65.6045 F1800
G03 X38.6181 Y65.9503 I-1.1057 J-1.2295
G01 X38.3167 Y66.0202
G01 X31.4180 Y67.0848
G03 X30.3463 Y66.9500 I-0.3413 J-1.6147
G01 X30.1757 Y66.8458
G01 X29.9436 Y66.6563
G01 X29.2798 Y65.9653
G03 X28.8447 Y64.7769 I1.1594 J-1.0984
G01 X29.1740 Y60.0211
G03 X29.3549 Y59.3493 I1.8101 J0.1271
G03 X30.1844 Y58.5201 I1.6272 J0.7983
G01 X33.3742 Y56.9604
G03 X34.0550 Y56.8173 I0.7065 J1.6701
G03 X35.1180 Y57.1434 I0.0252 J1.8132
G01 X40.3915 Y60.8263
G01 X40.6265 Y61.0125
G01 X40.7672 Y61.1544
G03 X41.1165 Y61.8638 I-1.1251 J0.9947
G01 X41.1593 Y62.1554
G01 X41.2120 Y62.7623
G01 X41.2200 Y63.0620
G03 X40.6610 Y64.2266 I-1.6082 J-0.0555
G01 Z-5.0000 F60
G01 X39.2209 Y65.6045 F1800
G03 X38.6181 Y65.9503 I-1.1057 J-1.2295
G01 X38.3167 Y66.0202
G01 X31.4180 Y67.0848
G03 X30.3463 Y66.9500 I-0.3413 J-1.6147
G01 X30.1757 Y66.8458
G01 X29.9436 Y66.6563
G01 X29.2798 Y65.9653
G03 X28.8447 Y64.7769 I1.1594 J-1.0984
G01 X29.1740 Y60.0211
G03 X29.3549 Y59.3493 I1.8101 J0.1271
G03 X30.1844 Y58.5201 I1.6272 J0.7983
G01 X33.3742 Y56.9604
G03 X34.0550 Y56.8173 I0.7065 J1.6701
G03 X35.1180 Y57.1434 I0.0252 J1.8132
G01 X40.3915 Y60.8263
G01 X40.6265 Y61.0125
G01 X40.7672 Y61.1544
G03 X41.1165 Y61.8638 I-1.1251 J0.9947
G01 X41.1593 Y62.1554
G01 X41.2120 Y62.7623
G01 X41.2200 Y63.0620
G03 X40.6610 Y64.2266 I-1.6082 J-0.0555
G00 Z2.0000


;No. 8: Engraving 14
G00 X40.6610 Y64.2266 Z2.0000
G00 X53.3810 Y58.4356
G00 Z-2.5000
G01 Z-4.0000 F60
G01 X54.2315 Y62.4250 F1800
G01 X54.2695 Y62.7223
G03 X53.7433 Y64.0815 I-1.8107 J0.0804
G03 X52.8574 Y64.5706 I-1.2827 J-1.2763
G01 X46.3223 Y66.0422
G01 X46.0264 Y66.0907
G01 X45.8268 Y66.0997
G03 X44.9003 Y65.7716 I0.0373 J-1.5773
G01 X42.7106 Y63.9926
G01 X42.5004 Y63.7789
G01 X42.3813 Y63.6184
G01 X42.2449 Y63.3518
G01 X42.1616 Y63.0640
G01 X42.1254 Y62.8084
G01 X42.0664 Y62.1285
G01 X42.0581 Y61.8288
G03 X42.5255 Y60.7559 I1.5310 J0.0287
G01 X47.6327 Y56.0367
G03 X48.4379 Y55.6556 I1.1543 J1.3976
G03 X49.4220 Y55.7368 I0.3487 J1.7769
G01 X52.5808 Y57.2803
G03 X53.3810 Y58.4356 I-0.7889 J1.4011
G01 Z-5.0000 F60
G01 X54.2315 Y62.4250 F1800
G01 X54.2695 Y62.7223
G03 X53.7433 Y64.0815 I-1.8107 J0.0804
G03 X52.8574 Y64.5706 I-1.2827 J-1.2763
G01 X46.3223 Y66.0422
G01 X46.0264 Y66.0907
G01 X45.8268 Y66.0997
G03 X44.9003 Y65.7716 I0.0373 J-1.5773
G01 X42.7106 Y63.9926
G01 X42.5004 Y63.7789
G01 X42.3813 Y63.6184
G01 X42.2449 Y63.3518
G01 X42.1616 Y63.0640
G01 X42.1254 Y62.8084
G01 X42.0664 Y62.1285
G01 X42.0581 Y61.8288
G03 X42.5255 Y60.7559 I1.5310 J0.0287
G01 X47.6327 Y56.0367
G03 X48.4379 Y55.6556 I1.1543 J1.3976
G03 X49.4220 Y55.7368 I0.3487 J1.7769
G01 X52.5808 Y57.2803
G03 X53.3810 Y58.4356 I-0.7889 J1.4011
G00 Z2.0000


;No. 9: Engraving 9
G00 X53.3810 Y58.4356 Z2.0000
G00 X55.4943 Y65.8297
G00 Z-2.5000
G01 Z-4.0000 F60
G01 X54.5062 Y72.4156 F1800
G03 X54.2194 Y73.1556 I-1.7934 J-0.2695
G03 X53.2808 Y73.8679 I-1.5048 J-1.0084
G01 X50.0270 Y74.6969
G01 X49.7314 Y74.7462
G01 X49.5316 Y74.7518
G03 X47.9021 Y73.6193 I0.0506 J-1.8113
G01 X46.4819 Y68.9235
G01 X46.4350 Y68.7292
G03 X46.7123 Y67.3923 I1.7800 J-0.3279
G03 X47.6510 Y66.6806 I1.5001 J1.0036
G01 X54.6613 Y65.0932
G03 X55.4943 Y65.8297 I0.1658 J0.6518
G01 Z-5.0000 F60
G01 X54.5062 Y72.4156 F1800
G03 X54.2194 Y73.1556 I-1.7934 J-0.2695
G03 X53.2808 Y73.8679 I-1.5048 J-1.0084
G01 X50.0270 Y74.6969
G01 X49.7314 Y74.7462
G01 X49.5316 Y74.7518
G03 X47.9021 Y73.6193 I0.0506 J-1.8113
G01 X46.4819 Y68.9235
G01 X46.4350 Y68.7292
G03 X46.7123 Y67.3923 I1.7800 J-0.3279
G03 X47.6510 Y66.6806 I1.5001 J1.0036
G01 X54.6613 Y65.0932
G03 X55.4943 Y65.8297 I0.1658 J0.6518
G00 Z2.0000


;No. 10: Engraving 10
G00 X55.4943 Y65.8297 Z2.0000
G00 X57.9256 Y65.6935
G00 Z-2.5000
G01 Z-4.0000 F60
G01 X62.5472 Y65.5278 F1800
G03 X63.2273 Y65.6742 I-0.0340 J1.8115
G03 X64.1004 Y66.4653 I-0.7141 J1.6655
G01 X64.2056 Y66.6917
G01 X64.7372 Y68.0803
G01 X64.8495 Y68.4637
G03 X64.6746 Y69.5260 I-1.5006 J0.2985
G01 X61.1580 Y75.2167
G03 X59.7144 Y75.9915 I-1.4859 J-1.0365
G03 X58.9364 Y75.8357 I-0.0437 J-1.8024
G01 X56.2190 Y74.2955
G03 X55.4153 Y73.0795 I0.9819 J-1.5225
G01 X55.3892 Y72.7810
G01 X55.4092 Y72.5039
G01 X56.1996 Y67.2356
G01 X56.2684 Y66.9440
G03 X57.9256 Y65.6935 I1.7233 J0.5606
G01 Z-5.0000 F60
G01 X62.5472 Y65.5278 F1800
G03 X63.2273 Y65.6742 I-0.0340 J1.8115
G03 X64.1004 Y66.4653 I-0.7141 J1.6655
G01 X64.2056 Y66.6917
G01 X64.7372 Y68.0803
G01 X64.8495 Y68.4637
G03 X64.6746 Y69.5260 I-1.5006 J0.2985
G01 X61.1580 Y75.2167
G03 X59.7144 Y75.9915 I-1.4859 J-1.0365
G03 X58.9364 Y75.8357 I-0.0437 J-1.8024
G01 X56.2190 Y74.2955
G03 X55.4153 Y73.0795 I0.9819 J-1.5225
G01 X55.3892 Y72.7810
G01 X55.4092 Y72.5039
G01 X56.1996 Y67.2356
G01 X56.2684 Y66.9440
G03 X57.9256 Y65.6935 I1.7233 J0.5606
G00 Z2.0000


;No. 11: Engraving 15
G00 X57.9256 Y65.6935 Z2.0000
G00 X62.6831 Y64.6134
G00 Z-2.5000
G01 Z-4.0000 F60
G01 X56.4504 Y64.8311 F1800
G03 X55.5354 Y64.0924 I0.1905 J-1.1719
G01 X55.4607 Y63.8451
G01 X54.3957 Y58.8364
G03 X54.4788 Y57.9495 I1.7890 J-0.2797
G03 X55.2990 Y56.9768 I1.7066 J0.6069
G01 X58.0693 Y55.6868
G03 X58.7486 Y55.5391 I0.6926 J1.5503
G03 X59.4817 Y55.7169 I-0.0594 J1.8453
G01 X64.2624 Y57.8608
G03 X65.0769 Y58.7036 I-0.6469 J1.4400
G01 X65.4836 Y59.9479
G01 X65.5554 Y60.2390
G03 X65.4595 Y61.1217 I-1.5486 J0.2783
G01 X64.2417 Y63.6052
G01 X64.1433 Y63.7793
G01 X64.0265 Y63.9415
G03 X62.6831 Y64.6134 I-1.4096 J-1.1392
G01 Z-5.0000 F60
G01 X56.4504 Y64.8311 F1800
G03 X55.5354 Y64.0924 I0.1905 J-1.1719
G01 X55.4607 Y63.8451
G01 X54.3957 Y58.8364
G03 X54.4788 Y57.9495 I1.7890 J-0.2797
G03 X55.2990 Y56.9768 I1.7066 J0.6069
G01 X58.0693 Y55.6868
G03 X58.7486 Y55.5391 I0.6926 J1.5503
G03 X59.4817 Y55.7169 I-0.0594 J1.8453
G01 X64.2624 Y57.8608
G03 X65.0769 Y58.7036 I-0.6469 J1.4400
G01 X65.4836 Y59.9479
G01 X65.5554 Y60.2390
G03 X65.4595 Y61.1217 I-1.5486 J0.2783
G01 X64.2417 Y63.6052
G01 X64.1433 Y63.7793
G01 X64.0265 Y63.9415
G03 X62.6831 Y64.6134 I-1.4096 J-1.1392
G00 Z2.0000


;No. 12: Engraving 5
G00 X62.6831 Y64.6134 Z2.0000
G00 X62.2302 Y77.6259
G00 Z-2.5000
G01 Z-4.0000 F60
G01 X72.1523 Y79.0252 F1800
G02 X72.3579 Y78.9330 I0.0479 J-0.1685
G02 X72.4689 Y78.2663 I-0.9021 J-0.4928
G01 X71.6671 Y72.9939
G02 X71.4100 Y72.3024 I-1.7932 J0.2732
G02 X70.6768 Y71.6410 I-1.5350 J0.9645
G01 X67.1740 Y70.1455
G02 X66.4214 Y70.0010 I-0.7101 J1.6666
G02 X65.0372 Y70.6953 I0.0425 J1.8118
G01 X64.9227 Y70.8592
G01 X61.5863 Y76.2521
G02 X62.2302 Y77.6259 I0.7706 J0.4766
G01 Z-5.0000 F60
G01 X72.1523 Y79.0252 F1800
G02 X72.3579 Y78.9330 I0.0479 J-0.1685
G02 X72.4689 Y78.2663 I-0.9021 J-0.4928
G01 X71.6671 Y72.9939
G02 X71.4100 Y72.3024 I-1.7932 J0.2732
G02 X70.6768 Y71.6410 I-1.5350 J0.9645
G01 X67.1740 Y70.1455
G02 X66.4214 Y70.0010 I-0.7101 J1.6666
G02 X65.0372 Y70.6953 I0.0425 J1.8118
G01 X64.9227 Y70.8592
G01 X61.5863 Y76.2521
G02 X62.2302 Y77.6259 I0.7706 J0.4766
G00 Z2.0000


;No. 13: Engraving 4
G00 X62.2302 Y77.6259 Z2.0000
G00 X59.2920 Y80.4556
G00 Z-2.5000
G01 Z-4.0000 F60
G01 X55.5411 Y83.5407 F1800
G03 X54.4164 Y83.8918 I-1.0730 J-1.4602
G03 X53.4191 Y83.5580 I0.0517 J-1.8114
G01 X48.9247 Y80.3666
G01 X48.6929 Y80.1766
G01 X48.5566 Y80.0303
G01 X48.3894 Y79.7818
G01 X48.2694 Y79.5072
G01 X47.7747 Y77.7647
G01 X47.7247 Y77.4695
G03 X48.2129 Y76.3103 I1.4670 J-0.0645
G03 X48.9652 Y75.9005 I1.1818 J1.2741
G01 X53.9576 Y74.6357
G01 X54.2524 Y74.5813
G01 X54.4520 Y74.5704
G03 X55.2993 Y74.8177 I-0.0415 J1.7176
G01 X59.9280 Y77.4536
G01 X60.1077 Y77.5973
G03 X60.2050 Y77.9588 I-0.3713 J0.2937
G01 X59.8669 Y79.6127
G03 X59.2920 Y80.4556 I-1.6134 J-0.4829
G01 Z-5.0000 F60
G01 X55.5411 Y83.5407 F1800
G03 X54.4164 Y83.8918 I-1.0730 J-1.4602
G03 X53.4191 Y83.5580 I0.0517 J-1.8114
G01 X48.9247 Y80.3666
G01 X48.6929 Y80.1766
G01 X48.5566 Y80.0303
G01 X48.3894 Y79.7818
G01 X48.2694 Y79.5072
G01 X47.7747 Y77.7647
G01 X47.7247 Y77.4695
G03 X48.2129 Y76.3103 I1.4670 J-0.0645
G03 X48.9652 Y75.9005 I1.1818 J1.2741
G01 X53.9576 Y74.6357
G01 X54.2524 Y74.5813
G01 X54.4520 Y74.5704
G03 X55.2993 Y74.8177 I-0.0415 J1.7176
G01 X59.9280 Y77.4536
G01 X60.1077 Y77.5973
G03 X60.2050 Y77.9588 I-0.3713 J0.2937
G01 X59.8669 Y79.6127
G03 X59.2920 Y80.4556 I-1.6134 J-0.4829
G00 Z2.0000


;No. 14: Engraving 11
G00 X59.2920 Y80.4556 Z2.0000
G00 X75.9154 Y67.5388
G00 Z-2.5000
G01 Z-4.0000 F60
G01 X72.6203 Y70.4531 F1800
G03 X71.7084 Y70.8318 I-1.1250 J-1.4215
G03 X70.7853 Y70.6993 I-0.2125 J-1.8011
G01 X66.6229 Y68.9258
G01 X66.3552 Y68.7910
G01 X66.1893 Y68.6794
G03 X65.6409 Y67.9066 I1.0466 J-1.3237
G01 X64.7629 Y65.5905
G03 X64.7067 Y64.8984 I1.5019 J-0.4703
G01 X64.7782 Y64.6075
G01 X64.8944 Y64.3295
G01 X65.9257 Y62.2423
G01 X66.0240 Y62.0683
G01 X66.1409 Y61.9061
G03 X67.5356 Y61.2331 I1.4091 J1.1385
G01 X76.6656 Y61.8558
G03 X77.0319 Y62.0008 I-0.0452 J0.6495
G03 X77.2639 Y62.6541 I-0.4314 J0.5210
G01 X76.4913 Y66.5359
G03 X75.9154 Y67.5388 I-1.6702 J-0.2923
G01 Z-5.0000 F60
G01 X72.6203 Y70.4531 F1800
G03 X71.7084 Y70.8318 I-1.1250 J-1.4215
G03 X70.7853 Y70.6993 I-0.2125 J-1.8011
G01 X66.6229 Y68.9258
G01 X66.3552 Y68.7910
G01 X66.1893 Y68.6794
G03 X65.6409 Y67.9066 I1.0466 J-1.3237
G01 X64.7629 Y65.5905
G03 X64.7067 Y64.8984 I1.5019 J-0.4703
G01 X64.7782 Y64.6075
G01 X64.8944 Y64.3295
G01 X65.9257 Y62.2423
G01 X66.0240 Y62.0683
G01 X66.1409 Y61.9061
G03 X67.5356 Y61.2331 I1.4091 J1.1385
G01 X76.6656 Y61.8558
G03 X77.0319 Y62.0008 I-0.0452 J0.6495
G03 X77.2639 Y62.6541 I-0.4314 J0.5210
G01 X76.4913 Y66.5359
G03 X75.9154 Y67.5388 I-1.6702 J-0.2923
G00 Z2.0000


;No. 15: Engraving 16
G00 X75.9154 Y67.5388 Z2.0000
G00 X88.0586 Y57.5430
G00 Z-2.5000
G01 Z-4.0000 F60
G01 X83.0827 Y61.5677 F1800
G01 X82.8374 Y61.7400
G01 X82.5677 Y61.8704
G01 X82.2780 Y61.9467
G01 X81.9793 Y61.9708
G01 X78.3311 Y61.8162
G03 X77.7813 Y61.4384 I0.0441 J-0.6530
G03 X77.6762 Y60.9544 I0.8755 J-0.4436
G01 X77.9623 Y54.6417
G03 X78.2741 Y53.7048 I1.8118 J0.0827
G03 X79.0136 Y53.0783 I1.4995 J1.0204
G01 X83.9345 Y50.8086
G03 X84.7104 Y50.6422 I0.7591 J1.6473
G03 X85.7411 Y50.9757 I-0.0172 J1.8129
G01 X87.6933 Y52.5676
G03 X88.1143 Y53.1204 I-1.0706 J1.2520
G01 X88.1866 Y53.3067
G01 X88.2601 Y53.6178
G01 X88.6297 Y55.9131
G01 X88.6527 Y56.2119
G03 X88.0586 Y57.5430 I-1.8116 J-0.0105
G01 Z-5.0000 F60
G01 X83.0827 Y61.5677 F1800
G01 X82.8374 Y61.7400
G01 X82.5677 Y61.8704
G01 X82.2780 Y61.9467
G01 X81.9793 Y61.9708
G01 X78.3311 Y61.8162
G03 X77.7813 Y61.4384 I0.0441 J-0.6530
G03 X77.6762 Y60.9544 I0.8755 J-0.4436
G01 X77.9623 Y54.6417
G03 X78.2741 Y53.7048 I1.8118 J0.0827
G03 X79.0136 Y53.0783 I1.4995 J1.0204
G01 X83.9345 Y50.8086
G03 X84.7104 Y50.6422 I0.7591 J1.6473
G03 X85.7411 Y50.9757 I-0.0172 J1.8129
G01 X87.6933 Y52.5676
G03 X88.1143 Y53.1204 I-1.0706 J1.2520
G01 X88.1866 Y53.3067
G01 X88.2601 Y53.6178
G01 X88.6297 Y55.9131
G01 X88.6527 Y56.2119
G03 X88.0586 Y57.5430 I-1.8116 J-0.0105
G00 Z2.0000


;No. 16: Engraving 23
G00 X88.0586 Y57.5430 Z2.0000
G00 X83.5239 Y50.0003
G00 Z-2.5000
G01 Z-4.0000 F60
G01 X78.5139 Y52.3079 F1800
G03 X77.8299 Y52.4351 I-0.6672 J-1.6856
G03 X76.8824 Y52.1571 I0.0171 J-1.8118
G01 X74.7942 Y50.6041
G01 X74.5746 Y50.4001
G01 X74.3924 Y50.1623
G03 X74.1672 Y49.5050 I1.4557 J-0.8661
G01 X73.9007 Y46.6555
G03 X74.0565 Y45.6822 I1.6465 J-0.2355
G01 X74.2200 Y45.4313
G01 X74.4829 Y45.1511
G01 X77.3205 Y42.5625
G03 X78.4257 Y42.1540 I1.1464 J1.4025
G03 X79.4664 Y42.4542 I0.0418 J1.8098
G01 X83.8765 Y45.8729
G03 X84.3513 Y46.3820 I-1.1344 J1.5340
G03 X84.5718 Y47.1424 I-1.3838 J0.8134
G01 X84.5770 Y48.3548
G01 X84.5659 Y48.5544
G01 X84.5330 Y48.7516
G03 X83.5239 Y50.0003 I-1.7680 J-0.3967
G01 Z-5.0000 F60
G01 X78.5139 Y52.3079 F1800
G03 X77.8299 Y52.4351 I-0.6672 J-1.6856
G03 X76.8824 Y52.1571 I0.0171 J-1.8118
G01 X74.7942 Y50.6041
G01 X74.5746 Y50.4001
G01 X74.3924 Y50.1623
G03 X74.1672 Y49.5050 I1.4557 J-0.8661
G01 X73.9007 Y46.6555
G03 X74.0565 Y45.6822 I1.6465 J-0.2355
G01 X74.2200 Y45.4313
G01 X74.4829 Y45.1511
G01 X77.3205 Y42.5625
G03 X78.4257 Y42.1540 I1.1464 J1.4025
G03 X79.4664 Y42.4542 I0.0418 J1.8098
G01 X83.8765 Y45.8729
G03 X84.3513 Y46.3820 I-1.1344 J1.5340
G03 X84.5718 Y47.1424 I-1.3838 J0.8134
G01 X84.5770 Y48.3548
G01 X84.5659 Y48.5544
G01 X84.5330 Y48.7516
G03 X83.5239 Y50.0003 I-1.7680 J-0.3967
G00 Z2.0000


;No. 17: Engraving 24
G00 X83.5239 Y50.0003 Z2.0000
G00 X73.0019 Y46.7748
G00 Z-2.5000
G01 Z-4.0000 F60
G01 X73.1852 Y48.7601 F1800
G01 X73.1879 Y49.0598
G03 X72.7240 Y50.1429 I-1.8073 J-0.1332
G03 X72.0311 Y50.6180 I-1.3434 J-1.2163
G01 X69.2213 Y51.6952
G01 X68.9294 Y51.7632
G01 X68.6304 Y51.7823
G03 X67.3075 Y51.1703 I0.0349 J-1.8113
G01 X63.8523 Y46.5814
G03 X63.9490 Y44.4350 I1.5052 J-1.0075
G01 X65.3436 Y42.9983
G01 X65.4912 Y42.8635
G01 X65.6526 Y42.7456
G03 X67.0913 Y42.5114 I0.9859 J1.5201
G01 X67.3743 Y42.6100
G01 X67.5557 Y42.7031
G01 X72.2832 Y45.4862
G03 X73.0019 Y46.7748 I-0.8701 J1.3300
G01 Z-5.0000 F60
G01 X73.1852 Y48.7601 F1800
G01 X73.1879 Y49.0598
G03 X72.7240 Y50.1429 I-1.8073 J-0.1332
G03 X72.0311 Y50.6180 I-1.3434 J-1.2163
G01 X69.2213 Y51.6952
G01 X68.9294 Y51.7632
G01 X68.6304 Y51.7823
G03 X67.3075 Y51.1703 I0.0349 J-1.8113
G01 X63.8523 Y46.5814
G03 X63.9490 Y44.4350 I1.5052 J-1.0075
G01 X65.3436 Y42.9983
G01 X65.4912 Y42.8635
G01 X65.6526 Y42.7456
G03 X67.0913 Y42.5114 I0.9859 J1.5201
G01 X67.3743 Y42.6100
G01 X67.5557 Y42.7031
G01 X72.2832 Y45.4862
G03 X73.0019 Y46.7748 I-0.8701 J1.3300
G00 Z2.0000


;No. 18: Engraving 17
G00 X73.0019 Y46.7748 Z2.0000
G00 X68.8580 Y52.8086
G00 Z-2.5000
G01 Z-4.0000 F60
G01 X72.8844 Y51.2626 F1800
G03 X73.5704 Y51.1471 I0.6388 J1.6991
G03 X74.4049 Y51.4515 I-0.1236 J1.6346
G01 X76.4176 Y52.9504
G01 X76.6395 Y53.1520
G01 X76.7693 Y53.3039
G03 X77.0671 Y54.2400 I-1.2592 J0.9160
G01 X76.8532 Y59.1017
G01 X76.8149 Y59.3990
G03 X75.1073 Y60.8303 I-1.7715 J-0.3791
G01 X67.6211 Y60.3225
G03 X66.4413 Y59.6394 I0.2198 J-1.7400
G03 X65.9431 Y58.3732 I2.9588 J-1.8954
G03 X65.9842 Y57.4862 I1.5146 J-0.3742
G01 X66.1068 Y57.1974
G01 X67.9907 Y53.5055
G03 X68.8580 Y52.8086 I1.4104 J0.8672
G01 Z-5.0000 F60
G01 X72.8844 Y51.2626 F1800
G03 X73.5704 Y51.1471 I0.6388 J1.6991
G03 X74.4049 Y51.4515 I-0.1236 J1.6346
G01 X76.4176 Y52.9504
G01 X76.6395 Y53.1520
G01 X76.7693 Y53.3039
G03 X77.0671 Y54.2400 I-1.2592 J0.9160
G01 X76.8532 Y59.1017
G01 X76.8149 Y59.3990
G03 X75.1073 Y60.8303 I-1.7715 J-0.3791
G01 X67.6211 Y60.3225
G03 X66.4413 Y59.6394 I0.2198 J-1.7400
G03 X65.9431 Y58.3732 I2.9588 J-1.8954
G03 X65.9842 Y57.4862 I1.5146 J-0.3742
G01 X66.1068 Y57.1974
G01 X67.9907 Y53.5055
G03 X68.8580 Y52.8086 I1.4104 J0.8672
G00 Z2.0000


;No. 19: Engraving 22
G00 X68.8580 Y52.8086 Z2.0000
G00 X62.9080 Y46.8381
G00 Z-2.5000
G01 Z-4.0000 F60
G01 X66.7299 Y51.9240 F1800
G03 X67.0161 Y52.6642 I-1.5068 J1.0080
G03 X66.9269 Y53.5506 I-1.7927 J0.2673
G01 X66.8397 Y53.7519
G01 X65.8558 Y55.6902
G01 X65.7555 Y55.8632
G03 X64.2352 Y56.6822 I-1.5162 J-0.9939
G03 X63.4991 Y56.5238 I0.0050 J-1.8128
G01 X60.3523 Y55.1141
G01 X60.1747 Y55.0224
G03 X59.3032 Y53.7423 I0.9181 J-1.5618
G01 X59.2830 Y53.5434
G01 X59.2854 Y53.3350
G01 X59.6760 Y47.6988
G03 X59.8667 Y47.0305 I1.6741 J0.1164
G03 X62.9080 Y46.8381 I1.5846 J0.9154
G01 Z-5.0000 F60
G01 X66.7299 Y51.9240 F1800
G03 X67.0161 Y52.6642 I-1.5068 J1.0080
G03 X66.9269 Y53.5506 I-1.7927 J0.2673
G01 X66.8397 Y53.7519
G01 X65.8558 Y55.6902
G01 X65.7555 Y55.8632
G03 X64.2352 Y56.6822 I-1.5162 J-0.9939
G03 X63.4991 Y56.5238 I0.0050 J-1.8128
G01 X60.3523 Y55.1141
G01 X60.1747 Y55.0224
G03 X59.3032 Y53.7423 I0.9181 J-1.5618
G01 X59.2830 Y53.5434
G01 X59.2854 Y53.3350
G01 X59.6760 Y47.6988
G03 X59.8667 Y47.0305 I1.6741 J0.1164
G03 X62.9080 Y46.8381 I1.5846 J0.9154
G00 Z2.0000


;No. 20: Engraving 21
G00 X62.9080 Y46.8381 Z2.0000
G00 X58.7687 Y47.6856
G00 Z-2.5000
G01 Z-4.0000 F60
G01 X58.3647 Y53.5152 F1800
G03 X58.1377 Y54.2757 I-1.8099 J-0.1261
G03 X57.4386 Y54.9730 I-1.5807 J-0.8858
G01 X54.2909 Y56.4377
G03 X53.6121 Y56.5883 I-0.7043 J-1.5690
G03 X52.9347 Y56.4329 I0.0410 J-1.7323
G01 X49.6955 Y54.8524
G03 X48.9937 Y54.3036 I0.7308 J-1.6575
G03 X48.7099 Y53.5635 I1.4109 J-0.9655
G01 X48.4104 Y51.0690
G03 X48.6157 Y50.1060 I1.6164 J-0.1588
G01 X50.3465 Y47.4747
G01 X50.5405 Y47.2463
G01 X50.7716 Y47.0558
G01 X50.9439 Y46.9545
G01 X51.2287 Y46.8360
G01 X55.6219 Y45.3801
G03 X56.5097 Y45.4116 I0.3896 J1.5465
G01 X57.6684 Y45.8920
G01 X57.8478 Y45.9802
G01 X58.0165 Y46.0875
G03 X58.7687 Y47.6856 I-1.0557 J1.4730
G01 Z-5.0000 F60
G01 X58.3647 Y53.5152 F1800
G03 X58.1377 Y54.2757 I-1.8099 J-0.1261
G03 X57.4386 Y54.9730 I-1.5807 J-0.8858
G01 X54.2909 Y56.4377
G03 X53.6121 Y56.5883 I-0.7043 J-1.5690
G03 X52.9347 Y56.4329 I0.0410 J-1.7323
G01 X49.6955 Y54.8524
G03 X48.9937 Y54.3036 I0.7308 J-1.6575
G03 X48.7099 Y53.5635 I1.4109 J-0.9655
G01 X48.4104 Y51.0690
G03 X48.6157 Y50.1060 I1.6164 J-0.1588
G01 X50.3465 Y47.4747
G01 X50.5405 Y47.2463
G01 X50.7716 Y47.0558
G01 X50.9439 Y46.9545
G01 X51.2287 Y46.8360
G01 X55.6219 Y45.3801
G03 X56.5097 Y45.4116 I0.3896 J1.5465
G01 X57.6684 Y45.8920
G01 X57.8478 Y45.9802
G01 X58.0165 Y46.0875
G03 X58.7687 Y47.6856 I-1.0557 J1.4730
G00 Z2.0000


;No. 21: Engraving 28
G00 X58.7687 Y47.6856 Z2.0000
G00 X49.8246 Y44.7927
G00 Z-2.5000
G01 Z-4.0000 F60
G01 X47.0641 Y39.8322 F1800
G03 X46.8644 Y38.9664 I1.4033 J-0.7796
G01 X46.9121 Y38.6707
G01 X47.0105 Y38.3688
G01 X48.1183 Y35.5850
G01 X48.2491 Y35.3153
G01 X48.3602 Y35.1492
G01 X48.4910 Y34.9981
G01 X48.6390 Y34.8637
G01 X49.7887 Y34.0882
G03 X50.6858 Y33.8823 I0.8131 J1.4862
G01 X53.0286 Y33.9511
G01 X53.2279 Y33.9665
G01 X53.4245 Y34.0028
G03 X54.6807 Y34.9219 I-0.6239 J2.1709
G01 X54.7886 Y35.2011
G01 X54.8423 Y35.5183
G01 X55.4927 Y42.9937
G01 X55.4938 Y43.2934
G03 X54.6404 Y44.6920 I-1.8062 J-0.1425
G01 X54.4648 Y44.7876
G01 X54.2606 Y44.8698
G01 X51.8853 Y45.6590
G03 X49.8246 Y44.7927 I-0.4777 J-1.7479
G01 Z-5.0000 F60
G01 X47.0641 Y39.8322 F1800
G03 X46.8644 Y38.9664 I1.4033 J-0.7796
G01 X46.9121 Y38.6707
G01 X47.0105 Y38.3688
G01 X48.1183 Y35.5850
G01 X48.2491 Y35.3153
G01 X48.3602 Y35.1492
G01 X48.4910 Y34.9981
G01 X48.6390 Y34.8637
G01 X49.7887 Y34.0882
G03 X50.6858 Y33.8823 I0.8131 J1.4862
G01 X53.0286 Y33.9511
G01 X53.2279 Y33.9665
G01 X53.4245 Y34.0028
G03 X54.6807 Y34.9219 I-0.6239 J2.1709
G01 X54.7886 Y35.2011
G01 X54.8423 Y35.5183
G01 X55.4927 Y42.9937
G01 X55.4938 Y43.2934
G03 X54.6404 Y44.6920 I-1.8062 J-0.1425
G01 X54.4648 Y44.7876
G01 X54.2606 Y44.8698
G01 X51.8853 Y45.6590
G03 X49.8246 Y44.7927 I-0.4777 J-1.7479
G00 Z2.0000


;No. 22: Engraving 20
G00 X49.8246 Y44.7927 Z2.0000
G00 X47.5863 Y51.8263
G00 Z-2.5000
G01 Z-4.0000 F60
G01 X47.8016 Y53.6230 F1800
G01 X47.8202 Y53.9223
G03 X47.5184 Y54.8560 I-1.4679 J0.0412
G01 X47.2316 Y55.1699
G01 X42.4756 Y59.5576
G03 X41.2727 Y59.9719 I-1.1540 J-1.3968
G03 X40.2842 Y59.6462 I0.0488 J-1.8110
G01 X35.5174 Y56.3139
G03 X35.0151 Y55.6994 I1.1192 J-1.4272
G03 X34.8279 Y54.7563 I1.6218 J-0.8121
G01 X35.2069 Y49.5439
G03 X35.6048 Y48.5364 I1.8084 J0.1319
G03 X36.1379 Y48.0894 I1.4080 J1.1377
G01 X37.5141 Y47.4995
G03 X38.5924 Y47.4531 I0.6044 J1.4909
G01 X46.4162 Y50.3425
G01 X46.5995 Y50.4222
G03 X47.5863 Y51.8263 I-0.8122 J1.6196
G01 Z-5.0000 F60
G01 X47.8016 Y53.6230 F1800
G01 X47.8202 Y53.9223
G03 X47.5184 Y54.8560 I-1.4679 J0.0412
G01 X47.2316 Y55.1699
G01 X42.4756 Y59.5576
G03 X41.2727 Y59.9719 I-1.1540 J-1.3968
G03 X40.2842 Y59.6462 I0.0488 J-1.8110
G01 X35.5174 Y56.3139
G03 X35.0151 Y55.6994 I1.1192 J-1.4272
G03 X34.8279 Y54.7563 I1.6218 J-0.8121
G01 X35.2069 Y49.5439
G03 X35.6048 Y48.5364 I1.8084 J0.1319
G03 X36.1379 Y48.0894 I1.4080 J1.1377
G01 X37.5141 Y47.4995
G03 X38.5924 Y47.4531 I0.6044 J1.4909
G01 X46.4162 Y50.3425
G01 X46.5995 Y50.4222
G03 X47.5863 Y51.8263 I-0.8122 J1.6196
G00 Z2.0000


;No. 23: Engraving 29
G00 X47.5863 Y51.8263 Z2.0000
G00 X41.6904 Y41.1942
G00 Z-2.5000
G01 Z-4.0000 F60
G01 X44.5512 Y40.2312 F1800
G01 X44.8422 Y40.1595
G01 X45.0410 Y40.1387
G03 X46.6538 Y40.9693 I0.0883 J1.8098
G01 X49.3237 Y45.7613
G03 X49.5064 Y46.5336 I-1.6299 J0.7934
G03 X49.2973 Y47.3995 I-1.8114 J0.0207
G01 X48.4839 Y48.6479
G01 X48.3647 Y48.8084
G03 X46.9607 Y49.4618 I-1.3932 J-1.1588
G01 X46.6622 Y49.4352
G01 X46.3424 Y49.3491
G01 X40.4011 Y47.1467
G03 X39.5821 Y46.4381 I0.7172 J-1.6568
G03 X39.4676 Y44.7476 I1.5390 J-0.9533
G01 X40.6130 Y42.1746
G01 X40.7518 Y41.9089
G03 X41.6904 Y41.1942 I1.3854 J0.8457
G01 Z-5.0000 F60
G01 X44.5512 Y40.2312 F1800
G01 X44.8422 Y40.1595
G01 X45.0410 Y40.1387
G03 X46.6538 Y40.9693 I0.0883 J1.8098
G01 X49.3237 Y45.7613
G03 X49.5064 Y46.5336 I-1.6299 J0.7934
G03 X49.2973 Y47.3995 I-1.8114 J0.0207
G01 X48.4839 Y48.6479
G01 X48.3647 Y48.8084
G03 X46.9607 Y49.4618 I-1.3932 J-1.1588
G01 X46.6622 Y49.4352
G01 X46.3424 Y49.3491
G01 X40.4011 Y47.1467
G03 X39.5821 Y46.4381 I0.7172 J-1.6568
G03 X39.4676 Y44.7476 I1.5390 J-0.9533
G01 X40.6130 Y42.1746
G01 X40.7518 Y41.9089
G03 X41.6904 Y41.1942 I1.3854 J0.8457
G00 Z2.0000


;No. 24: Engraving 30
G00 X41.6904 Y41.1942 Z2.0000
G00 X39.7289 Y41.9212
G00 Z-2.5000
G01 Z-4.0000 F60
G01 X37.9787 Y45.8590 F1800
G03 X37.5573 Y46.4116 I-1.4961 J-0.7037
G01 X37.3112 Y46.5824
G01 X37.0707 Y46.7009
G01 X35.4475 Y47.3863
G01 X35.2588 Y47.4522
G01 X35.0623 Y47.4873
G03 X34.4210 Y47.2845 I-0.0308 J-1.0180
G03 X33.8841 Y46.7664 I0.9618 J-1.5341
G01 X33.7852 Y46.5927
G01 X33.6710 Y46.3072
G01 X30.5313 Y36.4515
G01 X30.4643 Y36.1594
G01 X30.4463 Y35.8603
G03 X31.1615 Y34.4586 I1.8119 J0.0412
G01 X32.5102 Y33.4337
G01 X32.6750 Y33.3206
G01 X32.8509 Y33.2255
G03 X34.0412 Y33.0341 I1.0355 J2.6433
G03 X34.9776 Y33.5226 I0.0213 J1.1009
G01 X39.5293 Y40.2949
G03 X39.7289 Y41.9212 I-1.5040 J1.0099
G01 Z-5.0000 F60
G01 X37.9787 Y45.8590 F1800
G03 X37.5573 Y46.4116 I-1.4961 J-0.7037
G01 X37.3112 Y46.5824
G01 X37.0707 Y46.7009
G01 X35.4475 Y47.3863
G01 X35.2588 Y47.4522
G01 X35.0623 Y47.4873
G03 X34.4210 Y47.2845 I-0.0308 J-1.0180
G03 X33.8841 Y46.7664 I0.9618 J-1.5341
G01 X33.7852 Y46.5927
G01 X33.6710 Y46.3072
G01 X30.5313 Y36.4515
G01 X30.4643 Y36.1594
G01 X30.4463 Y35.8603
G03 X31.1615 Y34.4586 I1.8119 J0.0412
G01 X32.5102 Y33.4337
G01 X32.6750 Y33.3206
G01 X32.8509 Y33.2255
G03 X34.0412 Y33.0341 I1.0355 J2.6433
G03 X34.9776 Y33.5226 I0.0213 J1.1009
G01 X39.5293 Y40.2949
G03 X39.7289 Y41.9212 I-1.5040 J1.0099
G00 Z2.0000


;No. 25: Engraving 19
G00 X39.7289 Y41.9212 Z2.0000
G00 X34.3433 Y48.9267
G00 Z-2.5000
G01 Z-4.0000 F60
G01 X33.9152 Y54.7768 F1800
G03 X33.6442 Y55.5227 I-1.7990 J-0.2315
G03 X32.9152 Y56.1732 I-1.5274 J-0.9780
G01 X29.4548 Y57.8664
G03 X28.7788 Y58.0285 I-0.7261 J-1.5374
G03 X28.0367 Y57.8635 I0.0202 J-1.8425
G01 X25.2933 Y56.6924
G01 X25.1141 Y56.6038
G03 X24.2961 Y55.6293 I0.8907 J-1.5781
G03 X24.2158 Y54.7368 I1.7088 J-0.6036
G01 X25.0695 Y49.4533
G03 X25.3103 Y48.8006 I1.7899 J0.2896
G03 X26.6033 Y47.9485 I1.5478 J0.9415
G01 X32.8459 Y47.6730
G03 X33.9921 Y48.0926 I0.0015 J1.7715
G03 X34.3433 Y48.9267 I-0.4973 J0.7003
G01 Z-5.0000 F60
G01 X33.9152 Y54.7768 F1800
G03 X33.6442 Y55.5227 I-1.7990 J-0.2315
G03 X32.9152 Y56.1732 I-1.5274 J-0.9780
G01 X29.4548 Y57.8664
G03 X28.7788 Y58.0285 I-0.7261 J-1.5374
G03 X28.0367 Y57.8635 I0.0202 J-1.8425
G01 X25.2933 Y56.6924
G01 X25.1141 Y56.6038
G03 X24.2961 Y55.6293 I0.8907 J-1.5781
G03 X24.2158 Y54.7368 I1.7088 J-0.6036
G01 X25.0695 Y49.4533
G03 X25.3103 Y48.8006 I1.7899 J0.2896
G03 X26.6033 Y47.9485 I1.5478 J0.9415
G01 X32.8459 Y47.6730
G03 X33.9921 Y48.0926 I0.0015 J1.7715
G03 X34.3433 Y48.9267 I-0.4973 J0.7003
G00 Z2.0000


;No. 26: Engraving 18
G00 X34.3433 Y48.9267 Z2.0000
G00 X24.3260 Y48.3747
G00 Z-2.5000
G01 Z-4.0000 F60
G01 X23.2125 Y55.2663 F1800
G01 X23.1636 Y55.4600
G03 X22.6701 Y56.0695 I-1.0889 J-0.3771
G03 X21.8290 Y56.2638 I-0.7961 J-1.5287
G03 X20.9049 Y55.9290 I0.0490 J-1.5779
G01 X14.8658 Y51.0228
G03 X14.5666 Y49.8303 I0.7669 J-0.8262
G03 X15.4406 Y48.9288 I1.3645 J0.4484
G01 X22.9182 Y46.9981
G03 X24.3260 Y48.3747 I0.2134 J1.1899
G01 Z-5.0000 F60
G01 X23.2125 Y55.2663 F1800
G01 X23.1636 Y55.4600
G03 X22.6701 Y56.0695 I-1.0889 J-0.3771
G03 X21.8290 Y56.2638 I-0.7961 J-1.5287
G03 X20.9049 Y55.9290 I0.0490 J-1.5779
G01 X14.8658 Y51.0228
G03 X14.5666 Y49.8303 I0.7669 J-0.8262
G03 X15.4406 Y48.9288 I1.3645 J0.4484
G01 X22.9182 Y46.9981
G03 X24.3260 Y48.3747 I0.2134 J1.1899
G00 Z2.0000


;No. 27: Engraving 32
G00 X24.3260 Y48.3747 Z2.0000
G00 X16.6854 Y39.7777
G00 Z-2.5000
G01 Z-4.0000 F60
G01 X20.4946 Y39.3336 F1800
G01 X20.6941 Y39.3215
G03 X21.8105 Y39.6981 I0.0115 J1.8087
G03 X22.4814 Y40.7790 I-1.1026 J1.4330
G01 X22.9056 Y44.4492
G01 X22.9172 Y44.6488
G01 X22.9068 Y44.8484
G03 X21.8355 Y46.3125 I-1.8015 J-0.1942
G01 X21.5576 Y46.4088
G01 X16.4433 Y47.7275
G01 X16.1479 Y47.7781
G01 X15.9481 Y47.7845
G03 X14.4496 Y46.9261 I0.0433 J-1.8127
G01 X14.3541 Y46.7505
G01 X14.2492 Y46.4730
G01 X13.8290 Y45.0101
G03 X13.7596 Y44.3181 I1.6716 J-0.5170
G01 X13.8208 Y44.0248
G01 X13.9193 Y43.7639
G01 X15.2439 Y40.8317
G01 X15.3895 Y40.5698
G03 X16.6854 Y39.7777 I1.5061 J1.0080
G01 Z-5.0000 F60
G01 X20.4946 Y39.3336 F1800
G01 X20.6941 Y39.3215
G03 X21.8105 Y39.6981 I0.0115 J1.8087
G03 X22.4814 Y40.7790 I-1.1026 J1.4330
G01 X22.9056 Y44.4492
G01 X22.9172 Y44.6488
G01 X22.9068 Y44.8484
G03 X21.8355 Y46.3125 I-1.8015 J-0.1942
G01 X21.5576 Y46.4088
G01 X16.4433 Y47.7275
G01 X16.1479 Y47.7781
G01 X15.9481 Y47.7845
G03 X14.4496 Y46.9261 I0.0433 J-1.8127
G01 X14.3541 Y46.7505
G01 X14.2492 Y46.4730
G01 X13.8290 Y45.0101
G03 X13.7596 Y44.3181 I1.6716 J-0.5170
G01 X13.8208 Y44.0248
G01 X13.9193 Y43.7639
G01 X15.2439 Y40.8317
G01 X15.3895 Y40.5698
G03 X16.6854 Y39.7777 I1.5061 J1.0080
G00 Z2.0000


;No. 28: Engraving 31
G00 X16.6854 Y39.7777 Z2.0000
G00 X29.7353 Y36.9377
G00 Z-2.5000
G01 Z-4.0000 F60
G01 X32.1734 Y44.6006 F1800
G03 X32.1194 Y45.6822 I-1.7392 J0.4553
G03 X30.8220 Y46.8216 I-1.6995 J-0.6268
G01 X30.4972 Y46.8650
G01 X25.6962 Y47.0695
G03 X24.6753 Y46.7245 I-0.0462 J-1.5462
G03 X23.9900 Y45.7630 I1.0309 J-1.4597
G01 X23.9315 Y45.4506
G01 X23.2529 Y39.4709
G03 X23.3649 Y38.6866 I1.6433 J-0.1655
G01 X23.4543 Y38.5079
G01 X23.6246 Y38.2613
G01 X25.3186 Y36.3429
G03 X26.0754 Y35.8773 I1.1857 J1.0790
G01 X26.4426 Y35.8120
G01 X27.9426 Y35.6769
G01 X28.2419 Y35.6907
G01 X28.5349 Y35.7537
G03 X29.7353 Y36.9377 I-0.5265 J1.7343
G01 Z-5.0000 F60
G01 X32.1734 Y44.6006 F1800
G03 X32.1194 Y45.6822 I-1.7392 J0.4553
G03 X30.8220 Y46.8216 I-1.6995 J-0.6268
G01 X30.4972 Y46.8650
G01 X25.6962 Y47.0695
G03 X24.6753 Y46.7245 I-0.0462 J-1.5462
G03 X23.9900 Y45.7630 I1.0309 J-1.4597
G01 X23.9315 Y45.4506
G01 X23.2529 Y39.4709
G03 X23.3649 Y38.6866 I1.6433 J-0.1655
G01 X23.4543 Y38.5079
G01 X23.6246 Y38.2613
G01 X25.3186 Y36.3429
G03 X26.0754 Y35.8773 I1.1857 J1.0790
G01 X26.4426 Y35.8120
G01 X27.9426 Y35.6769
G01 X28.2419 Y35.6907
G01 X28.5349 Y35.7537
G03 X29.7353 Y36.9377 I-0.5265 J1.7343
G00 Z2.0000


;No. 29: Engraving 33
G00 X29.7353 Y36.9377 Z2.0000
G00 X38.2181 Y31.7745
G00 Z-2.5000
G01 Z-4.0000 F60
G01 X45.6850 Y34.4427 F1800
G03 X46.6515 Y35.4070 I-0.7005 J1.6687
G03 X46.7329 Y36.5823 I-1.6648 J0.7058
G01 X46.6664 Y36.7830
G01 X46.0774 Y38.2416
G01 X45.9248 Y38.4996
G01 X45.7284 Y38.7257
G03 X45.0531 Y39.1063 I-1.2174 J-1.3704
G01 X42.0981 Y40.1010
G01 X41.8071 Y40.1728
G01 X41.5083 Y40.1956
G03 X40.1126 Y39.5249 I0.0117 J-1.8118
G01 X36.0401 Y33.4724
G01 X35.9469 Y33.2958
G03 X36.3358 Y32.1337 I0.8799 J-0.3516
G03 X37.3157 Y31.6715 I1.5583 J2.0341
G03 X38.2181 Y31.7745 I0.2586 J1.7389
G01 Z-5.0000 F60
G01 X45.6850 Y34.4427 F1800
G03 X46.6515 Y35.4070 I-0.7005 J1.6687
G03 X46.7329 Y36.5823 I-1.6648 J0.7058
G01 X46.6664 Y36.7830
G01 X46.0774 Y38.2416
G01 X45.9248 Y38.4996
G01 X45.7284 Y38.7257
G03 X45.0531 Y39.1063 I-1.2174 J-1.3704
G01 X42.0981 Y40.1010
G01 X41.8071 Y40.1728
G01 X41.5083 Y40.1956
G03 X40.1126 Y39.5249 I0.0117 J-1.8118
G01 X36.0401 Y33.4724
G01 X35.9469 Y33.2958
G03 X36.3358 Y32.1337 I0.8799 J-0.3516
G03 X37.3157 Y31.6715 I1.5583 J2.0341
G03 X38.2181 Y31.7745 I0.2586 J1.7389
G00 Z2.0000


;No. 30: Engraving 40
G00 X38.2181 Y31.7745 Z2.0000
G00 X47.0197 Y26.9227
G00 Z-2.5000
G01 Z-4.0000 F60
G01 X49.1140 Y32.4330 F1800
G01 X49.1805 Y32.7247
G03 X48.8254 Y33.6218 I-1.0764 J0.0928
G03 X47.7241 Y34.0854 I-1.2329 J-1.3888
G03 X47.0279 Y33.9569 I0.0080 J-1.9938
G01 X39.9533 Y31.4318
G01 X39.7690 Y31.3543
G03 X38.7642 Y29.9499 I0.7935 J-1.6294
G03 X38.8747 Y29.0663 I1.7823 J-0.2259
G01 X40.2172 Y26.4565
G03 X41.1625 Y25.6048 I1.6087 J0.8350
G03 X41.8468 Y25.4792 I0.6630 J1.6861
G01 X45.4679 Y25.7600
G01 X45.7637 Y25.8082
G03 X47.0197 Y26.9227 I-0.4380 J1.7586
G01 Z-5.0000 F60
G01 X49.1140 Y32.4330 F1800
G01 X49.1805 Y32.7247
G03 X48.8254 Y33.6218 I-1.0764 J0.0928
G03 X47.7241 Y34.0854 I-1.2329 J-1.3888
G03 X47.0279 Y33.9569 I0.0080 J-1.9938
G01 X39.9533 Y31.4318
G01 X39.7690 Y31.3543
G03 X38.7642 Y29.9499 I0.7935 J-1.6294
G03 X38.8747 Y29.0663 I1.7823 J-0.2259
G01 X40.2172 Y26.4565
G03 X41.1625 Y25.6048 I1.6087 J0.8350
G03 X41.8468 Y25.4792 I0.6630 J1.6861
G01 X45.4679 Y25.7600
G01 X45.7637 Y25.8082
G03 X47.0197 Y26.9227 I-0.4380 J1.7586
G00 Z2.0000


;No. 31: Engraving 39
G00 X47.0197 Y26.9227 Z2.0000
G00 X49.8550 Y31.8322
G00 Z-2.5000
G01 Z-4.0000 F60
G01 X47.7962 Y26.4078 F1800
G03 X47.7431 Y25.5185 I1.7278 J-0.5494
G03 X48.0591 Y24.7905 I1.7810 J0.3405
G01 X50.7248 Y21.6107
G03 X52.0652 Y21.0381 I1.3217 J1.2391
G03 X52.9263 Y21.2660 I-0.0173 J1.8066
G01 X55.2552 Y22.8172
G01 X55.4895 Y23.0040
G03 X56.0305 Y24.6441 I-1.2422 J1.3190
G01 X55.9754 Y24.8678
G01 X53.8066 Y31.7487
G03 X53.4740 Y32.3598 I-1.7291 J-0.5452
G03 X52.5653 Y32.9494 I-1.3954 J-1.1555
G03 X51.2964 Y32.9827 I-0.7181 J-3.1693
G03 X49.8550 Y31.8322 I0.2523 J-1.7943
G01 Z-5.0000 F60
G01 X47.7962 Y26.4078 F1800
G03 X47.7431 Y25.5185 I1.7278 J-0.5494
G03 X48.0591 Y24.7905 I1.7810 J0.3405
G01 X50.7248 Y21.6107
G03 X52.0652 Y21.0381 I1.3217 J1.2391
G03 X52.9263 Y21.2660 I-0.0173 J1.8066
G01 X55.2552 Y22.8172
G01 X55.4895 Y23.0040
G03 X56.0305 Y24.6441 I-1.2422 J1.3190
G01 X55.9754 Y24.8678
G01 X53.8066 Y31.7487
G03 X53.4740 Y32.3598 I-1.7291 J-0.5452
G03 X52.5653 Y32.9494 I-1.3954 J-1.1555
G03 X51.2964 Y32.9827 I-0.7181 J-3.1693
G03 X49.8550 Y31.8322 I0.2523 J-1.7943
G00 Z2.0000


;No. 32: Engraving 27
G00 X49.8550 Y31.8322 Z2.0000
G00 X59.1779 Y35.1871
G00 Z-2.5000
G01 Z-4.0000 F60
G01 X65.4909 Y39.9088 F1800
G03 X65.8486 Y40.5941 I-0.5209 J0.7078
G03 X65.5181 Y41.5161 I-1.4424 J0.0032
G01 X62.5120 Y44.5957
G01 X62.2870 Y44.7937
G01 X62.0318 Y44.9508
G01 X61.7527 Y45.0598
G01 X59.9514 Y45.4925
G01 X59.7550 Y45.5298
G01 X59.5558 Y45.5466
G01 X59.2569 Y45.5265
G01 X58.9665 Y45.4525
G01 X57.5298 Y44.8491
G01 X57.3504 Y44.7610
G03 X56.5662 Y43.8815 I0.8866 J-1.5797
G01 X56.4736 Y43.5965
G01 X56.4321 Y43.3379
G01 X55.8158 Y36.2086
G03 X56.7640 Y34.9426 I1.3017 J-0.0132
G03 X58.3644 Y34.8399 I1.1740 J5.7740
G03 X59.1779 Y35.1871 I-0.2398 J1.6882
G01 Z-5.0000 F60
G01 X65.4909 Y39.9088 F1800
G03 X65.8486 Y40.5941 I-0.5209 J0.7078
G03 X65.5181 Y41.5161 I-1.4424 J0.0032
G01 X62.5120 Y44.5957
G01 X62.2870 Y44.7937
G01 X62.0318 Y44.9508
G01 X61.7527 Y45.0598
G01 X59.9514 Y45.4925
G01 X59.7550 Y45.5298
G01 X59.5558 Y45.5466
G01 X59.2569 Y45.5265
G01 X58.9665 Y45.4525
G01 X57.5298 Y44.8491
G01 X57.3504 Y44.7610
G03 X56.5662 Y43.8815 I0.8866 J-1.5797
G01 X56.4736 Y43.5965
G01 X56.4321 Y43.3379
G01 X55.8158 Y36.2086
G03 X56.7640 Y34.9426 I1.3017 J-0.0132
G03 X58.3644 Y34.8399 I1.1740 J5.7740
G03 X59.1779 Y35.1871 I-0.2398 J1.6882
G00 Z2.0000


;No. 33: Engraving 35
G00 X59.1779 Y35.1871 Z2.0000
G00 X65.7996 Y29.8556
G00 Z-2.5000
G01 Z-4.0000 F60
G01 X67.8236 Y35.8176 F1800
G01 X67.9036 Y36.1066
G01 X67.9417 Y36.4037
G03 X67.7572 Y37.1721 I-1.4718 J0.0528
G01 X67.5833 Y37.4520
G01 X67.0526 Y38.1904
G03 X65.9154 Y38.7284 I-1.1373 J-0.9330
G03 X65.0336 Y38.4353 I-0.0011 J-1.4695
G01 X61.0981 Y35.4883
G03 X60.4497 Y34.0823 I1.1593 J-1.3870
G03 X60.9074 Y32.8954 I1.8035 J0.0139
G01 X64.4799 Y29.4443
G03 X65.7996 Y29.8556 I0.5115 J0.6815
G01 Z-5.0000 F60
G01 X67.8236 Y35.8176 F1800
G01 X67.9036 Y36.1066
G01 X67.9417 Y36.4037
G03 X67.7572 Y37.1721 I-1.4718 J0.0528
G01 X67.5833 Y37.4520
G01 X67.0526 Y38.1904
G03 X65.9154 Y38.7284 I-1.1373 J-0.9330
G03 X65.0336 Y38.4353 I-0.0011 J-1.4695
G01 X61.0981 Y35.4883
G03 X60.4497 Y34.0823 I1.1593 J-1.3870
G03 X60.9074 Y32.8954 I1.8035 J0.0139
G01 X64.4799 Y29.4443
G03 X65.7996 Y29.8556 I0.5115 J0.6815
G00 Z2.0000


;No. 34: Engraving 36
G00 X65.7996 Y29.8556 Z2.0000
G00 X66.9822 Y30.3838
G00 Z-2.5000
G01 Z-4.0000 F60
G03 X67.7183 Y28.7256 I1.8020 J-0.1925 F1800
G01 X67.9891 Y28.5627
G01 X73.6836 Y25.7873
G03 X74.8440 Y25.8527 I0.5103 J1.2729
G01 X75.0126 Y25.9600
G01 X75.2318 Y26.1639
G01 X75.6136 Y26.6836
G01 X75.7737 Y26.9371
G03 X75.9392 Y28.0023 I-1.3781 J0.7597
G01 X74.6984 Y33.7216
G01 X74.6106 Y34.0082
G01 X74.4769 Y34.2764
G03 X73.5714 Y35.0303 I-1.5492 J-0.9399
G01 X73.3753 Y35.0924
G01 X70.5443 Y35.8139
G01 X70.2488 Y35.8637
G01 X70.0490 Y35.8695
G03 X68.5029 Y34.9202 I0.0481 J-1.8119
G01 X68.3808 Y34.6404
G01 X67.0681 Y30.7736
G01 X67.0144 Y30.5810
G01 X66.9822 Y30.3838
G01 Z-5.0000 F60
G03 X67.7183 Y28.7256 I1.8020 J-0.1925 F1800
G01 X67.9891 Y28.5627
G01 X73.6836 Y25.7873
G03 X74.8440 Y25.8527 I0.5103 J1.2729
G01 X75.0126 Y25.9600
G01 X75.2318 Y26.1639
G01 X75.6136 Y26.6836
G01 X75.7737 Y26.9371
G03 X75.9392 Y28.0023 I-1.3781 J0.7597
G01 X74.6984 Y33.7216
G01 X74.6106 Y34.0082
G01 X74.4769 Y34.2764
G03 X73.5714 Y35.0303 I-1.5492 J-0.9399
G01 X73.3753 Y35.0924
G01 X70.5443 Y35.8139
G01 X70.2488 Y35.8637
G01 X70.0490 Y35.8695
G03 X68.5029 Y34.9202 I0.0481 J-1.8119
G01 X68.3808 Y34.6404
G01 X67.0681 Y30.7736
G01 X67.0144 Y30.5810
G01 X66.9822 Y30.3838
G00 Z2.0000


;No. 35: Engraving 38
G00 X66.9822 Y30.3838 Z2.0000
G00 X60.8949 Y24.3328
G00 Z-2.5000
G01 Z-4.0000 F60
G01 X63.0858 Y27.3588 F1800
G01 X63.2408 Y27.6153
G03 X63.2277 Y29.2536 I-1.6233 J0.8063
G01 X63.0685 Y29.5075
G01 X62.8772 Y29.7246
G01 X59.0521 Y33.4210
G01 X58.7400 Y33.6702
G03 X58.0872 Y33.9073 I-0.8663 J-1.3679
G01 X55.7882 Y34.0667
G03 X54.7304 Y33.6741 I0.0424 J-1.7359
G03 X54.3809 Y33.0058 I0.3151 J-0.5904
G01 X54.4301 Y32.7844
G01 X56.9041 Y24.9354
G01 X57.0176 Y24.6581
G03 X57.8645 Y23.8389 I1.6145 J0.8219
G01 X58.0500 Y23.7643
G01 X58.3408 Y23.6918
G01 X59.2350 Y23.5936
G03 X60.8949 Y24.3328 I0.1922 J1.8017
G01 Z-5.0000 F60
G01 X63.0858 Y27.3588 F1800
G01 X63.2408 Y27.6153
G03 X63.2277 Y29.2536 I-1.6233 J0.8063
G01 X63.0685 Y29.5075
G01 X62.8772 Y29.7246
G01 X59.0521 Y33.4210
G01 X58.7400 Y33.6702
G03 X58.0872 Y33.9073 I-0.8663 J-1.3679
G01 X55.7882 Y34.0667
G03 X54.7304 Y33.6741 I0.0424 J-1.7359
G03 X54.3809 Y33.0058 I0.3151 J-0.5904
G01 X54.4301 Y32.7844
G01 X56.9041 Y24.9354
G01 X57.0176 Y24.6581
G03 X57.8645 Y23.8389 I1.6145 J0.8219
G01 X58.0500 Y23.7643
G01 X58.3408 Y23.6918
G01 X59.2350 Y23.5936
G03 X60.8949 Y24.3328 I0.1922 J1.8017
G00 Z2.0000


;No. 36: Engraving 37
G00 X60.8949 Y24.3328 Z2.0000
G00 X67.2749 Y18.2950
G00 Z-2.5000
G01 Z-4.0000 F60
G01 X73.1999 Y23.6250 F1800
G03 X73.4891 Y24.4386 I-0.6037 J0.6728
G03 X72.9914 Y25.1128 I-0.8930 J-0.1384
G01 X66.4440 Y28.3086
G03 X65.7696 Y28.4686 I-0.6537 J-1.2543
G03 X64.5512 Y27.8379 I-0.0046 J-1.4834
G01 X61.8295 Y24.0786
G01 X61.7214 Y23.9104
G03 X61.5045 Y22.7523 I1.5759 J-0.8946
G03 X61.8386 Y21.9407 I1.7930 J0.2636
G01 X64.3844 Y18.4870
G01 X64.5766 Y18.2570
G01 X64.7227 Y18.1206
G03 X65.3520 Y17.8342 I0.8285 J0.9859
G01 X65.6506 Y17.8097
G01 X66.1652 Y17.8330
G03 X67.2749 Y18.2950 I-0.0517 J1.6878
G01 Z-5.0000 F60
G01 X73.1999 Y23.6250 F1800
G03 X73.4891 Y24.4386 I-0.6037 J0.6728
G03 X72.9914 Y25.1128 I-0.8930 J-0.1384
G01 X66.4440 Y28.3086
G03 X65.7696 Y28.4686 I-0.6537 J-1.2543
G03 X64.5512 Y27.8379 I-0.0046 J-1.4834
G01 X61.8295 Y24.0786
G01 X61.7214 Y23.9104
G03 X61.5045 Y22.7523 I1.5759 J-0.8946
G03 X61.8386 Y21.9407 I1.7930 J0.2636
G01 X64.3844 Y18.4870
G01 X64.5766 Y18.2570
G01 X64.7227 Y18.1206
G03 X65.3520 Y17.8342 I0.8285 J0.9859
G01 X65.6506 Y17.8097
G01 X66.1652 Y17.8330
G03 X67.2749 Y18.2950 I-0.0517 J1.6878
G00 Z2.0000


;No. 37: Engraving 34
G00 X67.2749 Y18.2950 Z2.0000
G00 X80.4451 Y29.0408
G00 Z-2.5000
G01 Z-4.0000 F60
G01 X83.5984 Y32.9803 F1800
G01 X83.7145 Y33.1431
G03 X83.9567 Y34.4867 I-1.5277 J0.9691
G03 X83.2739 Y35.5600 I-1.7668 J-0.3703
G01 X79.6380 Y37.8709
G03 X78.7776 Y38.1016 I-0.8843 J-1.5783
G03 X77.5803 Y37.6711 I-0.0248 J-1.8115
G01 X77.3718 Y37.4627
G01 X75.9138 Y35.7459
G03 X75.5243 Y34.1877 I1.1723 J-1.1208
G01 X76.6303 Y29.1214
G03 X76.9805 Y28.5235 I1.3637 J0.3973
G03 X78.1645 Y28.1064 I1.0165 J0.9962
G01 X79.4621 Y28.4132
G01 X79.7475 Y28.5050
G03 X80.4451 Y29.0408 I-0.6369 J1.5513
G01 Z-5.0000 F60
G01 X83.5984 Y32.9803 F1800
G01 X83.7145 Y33.1431
G03 X83.9567 Y34.4867 I-1.5277 J0.9691
G03 X83.2739 Y35.5600 I-1.7668 J-0.3703
G01 X79.6380 Y37.8709
G03 X78.7776 Y38.1016 I-0.8843 J-1.5783
G03 X77.5803 Y37.6711 I-0.0248 J-1.8115
G01 X77.3718 Y37.4627
G01 X75.9138 Y35.7459
G03 X75.5243 Y34.1877 I1.1723 J-1.1208
G01 X76.6303 Y29.1214
G03 X76.9805 Y28.5235 I1.3637 J0.3973
G03 X78.1645 Y28.1064 I1.0165 J0.9962
G01 X79.4621 Y28.4132
G01 X79.7475 Y28.5050
G03 X80.4451 Y29.0408 I-0.6369 J1.5513
G00 Z2.0000


;No. 38: Engraving 25
G00 X80.4451 Y29.0408 Z2.0000
G00 X85.9245 Y36.3078
G00 Z-2.5000
G01 Z-4.0000 F60
G01 X87.5636 Y41.5289 F1800
G03 X87.6028 Y42.2235 I-1.7574 J0.4475
G03 X87.2679 Y43.0490 I-1.7940 J-0.2470
G01 X86.0358 Y44.4133
G03 X84.7733 Y44.9335 I-1.2703 J-1.2910
G03 X83.7383 Y44.6143 I-0.0090 J-1.8089
G01 X79.3169 Y41.1839
G03 X78.7850 Y39.9531 I0.8430 J-1.0947
G03 X79.2831 Y39.1725 I1.0597 J0.1270
G01 X84.6621 Y35.7659
G03 X85.9245 Y36.3078 I0.3982 J0.8138
G01 Z-5.0000 F60
G01 X87.5636 Y41.5289 F1800
G03 X87.6028 Y42.2235 I-1.7574 J0.4475
G03 X87.2679 Y43.0490 I-1.7940 J-0.2470
G01 X86.0358 Y44.4133
G03 X84.7733 Y44.9335 I-1.2703 J-1.2910
G03 X83.7383 Y44.6143 I-0.0090 J-1.8089
G01 X79.3169 Y41.1839
G03 X78.7850 Y39.9531 I0.8430 J-1.0947
G03 X79.2831 Y39.1725 I1.0597 J0.1270
G01 X84.6621 Y35.7659
G03 X85.9245 Y36.3078 I0.3982 J0.8138
G00 Z2.0000


;No. 39: Engraving 26
G00 X85.9245 Y36.3078 Z2.0000
G00 X77.8572 Y40.4433
G00 Z-2.5000
G01 Z-4.0000 F60
G03 X77.5105 Y41.1491 I-1.2245 J-0.1635 F1800
G01 X74.2740 Y44.1147
G03 X73.1930 Y44.5835 I-1.2225 J-1.3385
G03 X72.2248 Y44.3892 I-0.1411 J-1.8064
G01 X67.1090 Y41.3904
G01 X66.9761 Y41.2988
G01 X66.8633 Y41.1836
G03 X66.7627 Y40.5574 I0.7478 J-0.4413
G03 X66.9698 Y39.8940 I1.6614 J0.1545
G01 X67.0884 Y39.7071
G01 X68.5728 Y37.6286
G01 X68.7743 Y37.4068
G01 X68.9285 Y37.2796
G03 X69.5410 Y37.0046 I1.0374 J1.4911
G01 X73.5850 Y35.9739
G01 X73.8805 Y35.9242
G01 X74.0804 Y35.9185
G03 X75.2595 Y36.3965 I-0.0477 J1.8112
G01 X75.4137 Y36.5568
G01 X77.4405 Y38.9432
G03 X77.8572 Y40.4433 I-1.3887 J1.1937
G01 Z-5.0000 F60
G03 X77.5105 Y41.1491 I-1.2245 J-0.1635 F1800
G01 X74.2740 Y44.1147
G03 X73.1930 Y44.5835 I-1.2225 J-1.3385
G03 X72.2248 Y44.3892 I-0.1411 J-1.8064
G01 X67.1090 Y41.3904
G01 X66.9761 Y41.2988
G01 X66.8633 Y41.1836
G03 X66.7627 Y40.5574 I0.7478 J-0.4413
G03 X66.9698 Y39.8940 I1.6614 J0.1545
G01 X67.0884 Y39.7071
G01 X68.5728 Y37.6286
G01 X68.7743 Y37.4068
G01 X68.9285 Y37.2796
G03 X69.5410 Y37.0046 I1.0374 J1.4911
G01 X73.5850 Y35.9739
G01 X73.8805 Y35.9242
G01 X74.0804 Y35.9185
G03 X75.2595 Y36.3965 I-0.0477 J1.8112
G01 X75.4137 Y36.5568
G01 X77.4405 Y38.9432
G03 X77.8572 Y40.4433 I-1.3887 J1.1937
G00 Z2.0000


;No. 40: Engraving 41
G00 X77.8572 Y40.4433 Z2.0000
G00 X50.0961 Y19.4592
G00 Z-2.5000
G01 Z-4.0000 F60
G03 X50.2468 Y20.7664 I-0.5437 J0.7249 F1800
G01 X47.3363 Y24.2358
G01 X47.1309 Y24.4542
G03 X46.0443 Y24.8858 I-1.0531 J-1.0676
G01 X45.8059 Y24.8777
G01 X41.8973 Y24.5675
G03 X41.0706 Y24.2353 I0.2420 J-1.7970
G03 X40.5023 Y23.5494 I1.0680 J-1.4633
G01 X40.0016 Y22.1929
G01 X39.9440 Y22.0015
G03 X40.2580 Y20.4850 I1.7608 J-0.4262
G01 X40.4012 Y20.3171
G01 X43.1147 Y17.5090
G03 X44.1921 Y17.0319 I1.2326 J1.3284
G03 X45.0903 Y17.1845 I0.1552 J1.8066
G01 X49.9242 Y19.3577
G01 X50.0961 Y19.4592
G01 Z-5.0000 F60
G03 X50.2468 Y20.7664 I-0.5437 J0.7249 F1800
G01 X47.3363 Y24.2358
G01 X47.1309 Y24.4542
G03 X46.0443 Y24.8858 I-1.0531 J-1.0676
G01 X45.8059 Y24.8777
G01 X41.8973 Y24.5675
G03 X41.0706 Y24.2353 I0.2420 J-1.7970
G03 X40.5023 Y23.5494 I1.0680 J-1.4633
G01 X40.0016 Y22.1929
G01 X39.9440 Y22.0015
G03 X40.2580 Y20.4850 I1.7608 J-0.4262
G01 X40.4012 Y20.3171
G01 X43.1147 Y17.5090
G03 X44.1921 Y17.0319 I1.2326 J1.3284
G03 X45.0903 Y17.1845 I0.1552 J1.8066
G01 X49.9242 Y19.3577
G01 X50.0961 Y19.4592
G00 Z2.0000


;No. 41: Engraving 42
G00 X50.0961 Y19.4592 Z2.0000
G00 X35.7429 Y19.9316
G00 Z-2.5000
G01 Z-4.0000 F60
G01 X38.1479 Y21.0742 F1800
G03 X38.6916 Y21.5070 I-0.7400 J1.4875
G01 X38.8065 Y21.6705
G01 X38.9422 Y21.9378
G01 X39.7743 Y24.2306
G03 X39.8467 Y25.0195 I-1.5571 J0.5405
G01 X39.7699 Y25.3091
G01 X39.6470 Y25.5881
G01 X37.2471 Y30.2127
G01 X37.1472 Y30.3843
G01 X37.0298 Y30.5443
G01 X36.8200 Y30.7553
G01 X36.5776 Y30.9280
G01 X34.9227 Y31.9220
G03 X33.6701 Y32.1393 I-1.0889 J-2.5569
G03 X32.8352 Y31.5353 I0.0278 J-0.9174
G01 X29.9051 Y23.4677
G03 X29.8330 Y22.6798 I1.4625 J-0.5312
G03 X30.7189 Y21.5222 I1.5339 J0.2562
G01 X34.2116 Y19.9216
G01 X34.4912 Y19.8134
G03 X35.7429 Y19.9316 I0.4855 J1.5453
G01 Z-5.0000 F60
G01 X38.1479 Y21.0742 F1800
G03 X38.6916 Y21.5070 I-0.7400 J1.4875
G01 X38.8065 Y21.6705
G01 X38.9422 Y21.9378
G01 X39.7743 Y24.2306
G03 X39.8467 Y25.0195 I-1.5571 J0.5405
G01 X39.7699 Y25.3091
G01 X39.6470 Y25.5881
G01 X37.2471 Y30.2127
G01 X37.1472 Y30.3843
G01 X37.0298 Y30.5443
G01 X36.8200 Y30.7553
G01 X36.5776 Y30.9280
G01 X34.9227 Y31.9220
G03 X33.6701 Y32.1393 I-1.0889 J-2.5569
G03 X32.8352 Y31.5353 I0.0278 J-0.9174
G01 X29.9051 Y23.4677
G03 X29.8330 Y22.6798 I1.4625 J-0.5312
G03 X30.7189 Y21.5222 I1.5339 J0.2562
G01 X34.2116 Y19.9216
G01 X34.4912 Y19.8134
G03 X35.7429 Y19.9316 I0.4855 J1.5453
G00 Z2.0000


;No. 42: Engraving 43
G00 X35.7429 Y19.9316 Z2.0000
G00 X28.1155 Y23.8273
G00 Z-2.5000
G01 Z-4.0000 F60
G03 X29.4206 Y24.8175 I-0.3237 J1.7819 F1800
G01 X31.7704 Y31.2577
G03 X31.8593 Y32.1441 I-1.7038 J0.6186
G03 X31.3863 Y33.1186 I-1.7918 J-0.2677
G01 X31.1635 Y33.3191
G01 X29.8570 Y34.3120
G01 X29.6055 Y34.4751
G01 X29.3302 Y34.5932
G01 X29.0381 Y34.6604
G01 X26.4895 Y34.8907
G03 X25.1774 Y34.2902 I-0.0914 J-1.5343
G01 X20.0749 Y27.8192
G03 X19.9031 Y26.9581 I0.9755 J-0.6422
G01 X19.9572 Y26.7658
G01 X20.0433 Y26.5855
G01 X20.4874 Y25.9829
G03 X21.1364 Y25.5291 I1.2167 J1.0492
G01 X21.3566 Y25.4575
G01 X27.3226 Y23.8598
G03 X28.1155 Y23.8273 I0.4689 J1.7502
G01 Z-5.0000 F60
G03 X29.4206 Y24.8175 I-0.3237 J1.7819 F1800
G01 X31.7704 Y31.2577
G03 X31.8593 Y32.1441 I-1.7038 J0.6186
G03 X31.3863 Y33.1186 I-1.7918 J-0.2677
G01 X31.1635 Y33.3191
G01 X29.8570 Y34.3120
G01 X29.6055 Y34.4751
G01 X29.3302 Y34.5932
G01 X29.0381 Y34.6604
G01 X26.4895 Y34.8907
G03 X25.1774 Y34.2902 I-0.0914 J-1.5343
G01 X20.0749 Y27.8192
G03 X19.9031 Y26.9581 I0.9755 J-0.6422
G01 X19.9572 Y26.7658
G01 X20.0433 Y26.5855
G01 X20.4874 Y25.9829
G03 X21.1364 Y25.5291 I1.2167 J1.0492
G01 X21.3566 Y25.4575
G01 X27.3226 Y23.8598
G03 X28.1155 Y23.8273 I0.4689 J1.7502
G00 Z2.0000


;No. 43: Engraving 12
G00 X28.1155 Y23.8273 Z2.0000
G00 X26.7363 Y65.6703
G00 Z-2.5000
G01 Z-4.0000 F60
G01 X19.1143 Y68.1444 F1800
G03 X18.6456 Y68.0162 I-0.0879 J-0.5994
G03 X18.3017 Y67.5332 I0.7312 J-0.8847
G01 X18.2465 Y67.3471
G01 X17.6041 Y64.1804
G03 X17.7374 Y63.3026 I1.5433 J-0.2146
G01 X17.8940 Y63.0218
G01 X21.2356 Y57.9065
G01 X21.4155 Y57.6668
G03 X22.0652 Y57.2151 I1.1760 J0.9984
G03 X23.2694 Y56.9661 I1.6102 J4.7518
G01 X23.5679 Y56.9908
G01 X23.8573 Y57.0688
G01 X27.2434 Y58.5132
G03 X28.1139 Y59.4412 I-0.8020 J1.6245
G03 X28.2488 Y60.2641 I-1.6737 J0.6969
G01 X27.9827 Y64.0735
G01 X27.9371 Y64.3697
G03 X26.7363 Y65.6703 I-1.7624 J-0.4225
G01 Z-5.0000 F60
G01 X19.1143 Y68.1444 F1800
G03 X18.6456 Y68.0162 I-0.0879 J-0.5994
G03 X18.3017 Y67.5332 I0.7312 J-0.8847
G01 X18.2465 Y67.3471
G01 X17.6041 Y64.1804
G03 X17.7374 Y63.3026 I1.5433 J-0.2146
G01 X17.8940 Y63.0218
G01 X21.2356 Y57.9065
G01 X21.4155 Y57.6668
G03 X22.0652 Y57.2151 I1.1760 J0.9984
G03 X23.2694 Y56.9661 I1.6102 J4.7518
G01 X23.5679 Y56.9908
G01 X23.8573 Y57.0688
G01 X27.2434 Y58.5132
G03 X28.1139 Y59.4412 I-0.8020 J1.6245
G03 X28.2488 Y60.2641 I-1.6737 J0.6969
G01 X27.9827 Y64.0735
G01 X27.9371 Y64.3697
G03 X26.7363 Y65.6703 I-1.7624 J-0.4225
G00 Z2.0000
G00 X0.0000 Y0.0000

M05
