;Project loidolt@gmail
;Created by Estlcam version 8 build 8.065
;Machining time about 12:05:09 AM hours

G90
M03 S24000
G00 Z2.0000


;No. 1: Engraving 1
G00 X50.8000 Y0.0000
G00 Z0.5000
G01 Z-1.0000 F60 S24000
G03 X101.6000 Y50.8000 I0.0000 J50.8000 F1800
G03 X50.8000 Y101.6000 I-50.8000 J0.0000
G03 X0.0000 Y50.8000 I0.0000 J-50.8000
G03 X50.8000 Y0.0000 I50.8000 J0.0000
G01 Z-2.0000 F60
G03 X101.6000 Y50.8000 I0.0000 J50.8000 F1800
G03 X50.8000 Y101.6000 I-50.8000 J0.0000
G03 X0.0000 Y50.8000 I0.0000 J-50.8000
G03 X50.8000 Y0.0000 I50.8000 J0.0000
G00 Z2.0000


;No. 2: Engraving 2
G00 X50.8000 Y0.0000 Z2.0000
G00 Y6.3500
G00 Z0.5000
G01 Z-1.0000 F60
G03 X95.2500 Y50.8000 I0.0000 J44.4500 F1800
G03 X50.8000 Y95.2500 I-44.4500 J0.0000
G03 X6.3500 Y50.8000 I0.0000 J-44.4500
G03 X50.8000 Y6.3500 I44.4500 J0.0000
G01 Z-2.0000 F60
G03 X95.2500 Y50.8000 I0.0000 J44.4500 F1800
G03 X50.8000 Y95.2500 I-44.4500 J0.0000
G03 X6.3500 Y50.8000 I0.0000 J-44.4500
G03 X50.8000 Y6.3500 I44.4500 J0.0000
G00 Z2.0000


;No. 3: Engraving 8
G00 X50.8000 Y6.3500 Z2.0000
G00 X12.7000 Y58.4200
G00 Z-2.5000
G01 Z-4.0000 F60
G01 Y43.1800 F1800
G01 X17.7800
G01 Y35.5600
G01 X22.8600
G01 Y27.9400
G01 X27.9400
G01 Y20.3200
G01 X43.1800
G01 Y12.7000
G01 X58.4200
G01 Y17.7800
G01 X66.0400
G01 Y20.3200
G01 X73.6600
G01 Y27.9400
G01 X81.2800
G01 Y43.1800
G01 X88.9000
G01 Y58.4200
G01 X83.8200
G01 Y66.0400
G01 X78.7400
G01 Y73.6600
G01 X71.1200
G01 Y81.2800
G01 X58.4200
G01 Y88.9000
G01 X43.1800
G01 Y86.3600
G01 X35.5600
G01 Y81.2800
G01 X27.9400
G01 Y73.6600
G01 X20.3200
G01 Y58.4200
G01 X12.7000
G01 Z-5.0000 F60
G01 Y43.1800 F1800
G01 X17.7800
G01 Y35.5600
G01 X22.8600
G01 Y27.9400
G01 X27.9400
G01 Y20.3200
G01 X43.1800
G01 Y12.7000
G01 X58.4200
G01 Y17.7800
G01 X66.0400
G01 Y20.3200
G01 X73.6600
G01 Y27.9400
G01 X81.2800
G01 Y43.1800
G01 X88.9000
G01 Y58.4200
G01 X83.8200
G01 Y66.0400
G01 X78.7400
G01 Y73.6600
G01 X71.1200
G01 Y81.2800
G01 X58.4200
G01 Y88.9000
G01 X43.1800
G01 Y86.3600
G01 X35.5600
G01 Y81.2800
G01 X27.9400
G01 Y73.6600
G01 X20.3200
G01 Y58.4200
G01 X12.7000
G01 Z-6.0000 F60
G01 Y43.1800 F1800
G01 X17.7800
G01 Y35.5600
G01 X22.8600
G01 Y27.9400
G01 X27.9400
G01 Y20.3200
G01 X43.1800
G01 Y12.7000
G01 X58.4200
G01 Y17.7800
G01 X66.0400
G01 Y20.3200
G01 X73.6600
G01 Y27.9400
G01 X81.2800
G01 Y43.1800
G01 X88.9000
G01 Y58.4200
G01 X83.8200
G01 Y66.0400
G01 X78.7400
G01 Y73.6600
G01 X71.1200
G01 Y81.2800
G01 X58.4200
G01 Y88.9000
G01 X43.1800
G01 Y86.3600
G01 X35.5600
G01 Y81.2800
G01 X27.9400
G01 Y73.6600
G01 X20.3200
G01 Y58.4200
G01 X12.7000
G00 Z2.0000


;No. 4: Engraving 9
G00 X12.7000 Y58.4200 Z2.0000
G00 X20.3200
G00 Z-2.5000
G01 Z-4.0000 F60
G01 Y43.1800 F1800
G00 Z2.0000
G00 Y58.4200
G00 Z-3.5000
G01 Z-5.0000 F60
G01 Y43.1800 F1800
G00 Z2.0000
G00 Y58.4200
G00 Z-4.5000
G01 Z-6.0000 F60
G01 Y43.1800 F1800
G00 Z2.0000


;No. 5: Engraving 26
G00 X20.3200 Y43.1800 Z2.0000
G00 X43.1800 Y50.8000
G00 Z-2.5000
G01 Z-4.0000 F60
G01 X20.3200 F1800
G00 Z2.0000
G00 X43.1800
G00 Z-3.5000
G01 Z-5.0000 F60
G01 X20.3200 F1800
G00 Z2.0000
G00 X43.1800
G00 Z-4.5000
G01 Z-6.0000 F60
G01 X20.3200 F1800
G00 Z2.0000


;No. 6: Engraving 22
G00 X20.3200 Y50.8000 Z2.0000
G00 X35.5600 Y66.0400
G00 Z-2.5000
G01 Z-4.0000 F60
G01 X78.7400 F1800
G00 Z2.0000
G00 X35.5600
G00 Z-3.5000
G01 Z-5.0000 F60
G01 X78.7400 F1800
G00 Z2.0000
G00 X35.5600
G00 Z-4.5000
G01 Z-6.0000 F60
G01 X78.7400 F1800
G00 Z2.0000


;No. 7: Engraving 19
G00 X78.7400 Y66.0400 Z2.0000
G00 X81.2800 Y58.4200
G00 Z-2.5000
G01 Z-4.0000 F60
G01 Y43.1800 F1800
G00 Z2.0000
G00 Y58.4200
G00 Z-3.5000
G01 Z-5.0000 F60
G01 Y43.1800 F1800
G00 Z2.0000
G00 Y58.4200
G00 Z-4.5000
G01 Z-6.0000 F60
G01 Y43.1800 F1800
G00 Z2.0000


;No. 8: Engraving 24
G00 X81.2800 Y43.1800 Z2.0000
G00 Y50.8000
G00 Z-2.5000
G01 Z-4.0000 F60
G01 X58.4200 F1800
G00 Z2.0000
G00 X81.2800
G00 Z-3.5000
G01 Z-5.0000 F60
G01 X58.4200 F1800
G00 Z2.0000
G00 X81.2800
G00 Z-4.5000
G01 Z-6.0000 F60
G01 X58.4200 F1800
G00 Z2.0000


;No. 9: Engraving 17
G00 X58.4200 Y50.8000 Z2.0000
G00 X66.0400
G00 Z-2.5000
G01 Z-4.0000 F60
G01 Y20.3200 F1800
G00 Z2.0000
G00 Y50.8000
G00 Z-3.5000
G01 Z-5.0000 F60
G01 Y20.3200 F1800
G00 Z2.0000
G00 Y50.8000
G00 Z-4.5000
G01 Z-6.0000 F60
G01 Y20.3200 F1800
G00 Z2.0000


;No. 10: Engraving 28
G00 X66.0400 Y20.3200 Z2.0000
G00 Y27.9400
G00 Z-2.5000
G01 Z-4.0000 F60
G01 X27.9400 F1800
G00 Z2.0000
G00 X66.0400
G00 Z-3.5000
G01 Z-5.0000 F60
G01 X27.9400 F1800
G00 Z2.0000
G00 X66.0400
G00 Z-4.5000
G01 Z-6.0000 F60
G01 X27.9400 F1800
G00 Z2.0000


;No. 11: Engraving 25
G00 X27.9400 Y27.9400 Z2.0000
G00 X50.8000 Y43.1800
G00 Z-2.5000
G01 Z-4.0000 F60
G01 X17.7800 F1800
G00 Z2.0000
G00 X50.8000
G00 Z-3.5000
G01 Z-5.0000 F60
G01 X17.7800 F1800
G00 Z2.0000
G00 X50.8000
G00 Z-4.5000
G01 Z-6.0000 F60
G01 X17.7800 F1800
G00 Z2.0000


;No. 12: Engraving 10
G00 X17.7800 Y43.1800 Z2.0000
G00 X27.9400 Y73.6600
G00 Z-2.5000
G01 Z-4.0000 F60
G01 Y50.8000 F1800
G00 Z2.0000
G00 Y73.6600
G00 Z-3.5000
G01 Z-5.0000 F60
G01 Y50.8000 F1800
G00 Z2.0000
G00 Y73.6600
G00 Z-4.5000
G01 Z-6.0000 F60
G01 Y50.8000 F1800
G00 Z2.0000


;No. 13: Engraving 13
G00 X27.9400 Y50.8000 Z2.0000
G00 X43.1800 Y66.0400
G00 Z-2.5000
G01 Z-4.0000 F60
G01 Y43.1800 F1800
G00 Z2.0000
G00 Y66.0400
G00 Z-3.5000
G01 Z-5.0000 F60
G01 Y43.1800 F1800
G00 Z2.0000
G00 Y66.0400
G00 Z-4.5000
G01 Z-6.0000 F60
G01 Y43.1800 F1800
G00 Z2.0000


;No. 14: Engraving 16
G00 X43.1800 Y43.1800 Z2.0000
G00 X58.4200 Y27.9400
G00 Z-2.5000
G01 Z-4.0000 F60
G01 Y17.7800 F1800
G00 Z2.0000
G00 Y27.9400
G00 Z-3.5000
G01 Z-5.0000 F60
G01 Y17.7800 F1800
G00 Z2.0000
G00 Y27.9400
G00 Z-4.5000
G01 Z-6.0000 F60
G01 Y17.7800 F1800
G00 Z2.0000


;No. 15: Engraving 29
G00 X58.4200 Y17.7800 Z2.0000
G00 Y20.3200
G00 Z-2.5000
G01 Z-4.0000 F60
G01 X43.1800 F1800
G00 Z2.0000
G00 X58.4200
G00 Z-3.5000
G01 Z-5.0000 F60
G01 X43.1800 F1800
G00 Z2.0000
G00 X58.4200
G00 Z-4.5000
G01 Z-6.0000 F60
G01 X43.1800 F1800
G00 Z2.0000


;No. 16: Engraving 27
G00 X43.1800 Y20.3200 Z2.0000
G00 X66.0400 Y35.5600
G00 Z-2.5000
G01 Z-4.0000 F60
G01 X22.8600 F1800
G00 Z2.0000
G00 X66.0400
G00 Z-3.5000
G01 Z-5.0000 F60
G01 X22.8600 F1800
G00 Z2.0000
G00 X66.0400
G00 Z-4.5000
G01 Z-6.0000 F60
G01 X22.8600 F1800
G00 Z2.0000


;No. 17: Engraving 14
G00 X22.8600 Y35.5600 Z2.0000
G00 X50.8000 Y66.0400
G00 Z-2.5000
G01 Z-4.0000 F60
G01 Y35.5600 F1800
G00 Z2.0000
G00 Y66.0400
G00 Z-3.5000
G01 Z-5.0000 F60
G01 Y35.5600 F1800
G00 Z2.0000
G00 Y66.0400
G00 Z-4.5000
G01 Z-6.0000 F60
G01 Y35.5600 F1800
G00 Z2.0000


;No. 18: Engraving 15
G00 X50.8000 Y35.5600 Z2.0000
G00 X58.4200 Y58.4200
G00 Z-2.5000
G01 Z-4.0000 F60
G01 Y35.5600 F1800
G00 Z2.0000
G00 Y58.4200
G00 Z-3.5000
G01 Z-5.0000 F60
G01 Y35.5600 F1800
G00 Z2.0000
G00 Y58.4200
G00 Z-4.5000
G01 Z-6.0000 F60
G01 Y35.5600 F1800
G00 Z2.0000


;No. 19: Engraving 18
G00 X58.4200 Y35.5600 Z2.0000
G00 X73.6600 Y50.8000
G00 Z-2.5000
G01 Z-4.0000 F60
G01 Y27.9400 F1800
G00 Z2.0000
G00 Y50.8000
G00 Z-3.5000
G01 Z-5.0000 F60
G01 Y27.9400 F1800
G00 Z2.0000
G00 Y50.8000
G00 Z-4.5000
G01 Z-6.0000 F60
G01 Y27.9400 F1800
G00 Z2.0000


;No. 20: Engraving 23
G00 X73.6600 Y27.9400 Z2.0000
G00 X83.8200 Y58.4200
G00 Z-2.5000
G01 Z-4.0000 F60
G01 X50.8000 F1800
G00 Z2.0000
G00 X83.8200
G00 Z-3.5000
G01 Z-5.0000 F60
G01 X50.8000 F1800
G00 Z2.0000
G00 X83.8200
G00 Z-4.5000
G01 Z-6.0000 F60
G01 X50.8000 F1800
G00 Z2.0000


;No. 21: Engraving 20
G00 X50.8000 Y58.4200 Z2.0000
G00 X58.4200 Y81.2800
G00 Z-2.5000
G01 Z-4.0000 F60
G01 X43.1800 F1800
G00 Z2.0000
G00 X58.4200
G00 Z-3.5000
G01 Z-5.0000 F60
G01 X43.1800 F1800
G00 Z2.0000
G00 X58.4200
G00 Z-4.5000
G01 Z-6.0000 F60
G01 X43.1800 F1800
G00 Z2.0000


;No. 22: Engraving 12
G00 X43.1800 Y81.2800 Z2.0000
G00 Y86.3600
G00 Z-2.5000
G01 Z-4.0000 F60
G01 Y73.6600 F1800
G00 Z2.0000
G00 Y86.3600
G00 Z-3.5000
G01 Z-5.0000 F60
G01 Y73.6600 F1800
G00 Z2.0000
G00 Y86.3600
G00 Z-4.5000
G01 Z-6.0000 F60
G01 Y73.6600 F1800
G00 Z2.0000


;No. 23: Engraving 11
G00 X43.1800 Y73.6600 Z2.0000
G00 X35.5600 Y81.2800
G00 Z-2.5000
G01 Z-4.0000 F60
G01 Y50.8000 F1800
G00 Z2.0000
G00 Y81.2800
G00 Z-3.5000
G01 Z-5.0000 F60
G01 Y50.8000 F1800
G00 Z2.0000
G00 Y81.2800
G00 Z-4.5000
G01 Z-6.0000 F60
G01 Y50.8000 F1800
G00 Z2.0000


;No. 24: Engraving 21
G00 X35.5600 Y50.8000 Z2.0000
G00 X71.1200 Y73.6600
G00 Z-2.5000
G01 Z-4.0000 F60
G01 X35.5600 F1800
G00 Z2.0000
G00 X71.1200
G00 Z-3.5000
G01 Z-5.0000 F60
G01 X35.5600 F1800
G00 Z2.0000
G00 X71.1200
G00 Z-4.5000
G01 Z-6.0000 F60
G01 X35.5600 F1800
G00 Z2.0000
G00 X0.0000 Y0.0000

M05
