;Project loidolt@gmail
;Created by Estlcam version 8 build 8.065
;Machining time about 12:09:41 AM hours

G90
M03 S24000
G00 Z2.0000


;No. 1: Pocketing: Cutout 2
G00 Z2.0000
G00 X80.1792 Y20.0335
G00 Z0.5000
G01 Z-1.5000 F60 S24000
G01 X21.4222 F1800
G01 X20.6971 Y20.7394
G01 X19.9932 Y21.4645
G01 X81.6065
G01 X82.6248 Y22.5688
G01 X82.9034 Y22.8955
G01 X18.6939
G01 X18.2708 Y23.3833
G01 X17.4991 Y24.3265
G01 X84.0915
G01 X84.7471 Y25.1599
G01 X85.1803 Y25.7575
G01 X16.4164
G01 X15.9383 Y26.4180
G01 X15.4154 Y27.1885
G01 X86.1782
G01 X86.6590 Y27.9100
G01 X87.0925 Y28.6195
G01 X14.5010
G01 X14.0075 Y29.4427
G01 X13.6660 Y30.0505
G01 X87.9292
G01 X88.3486 Y30.8019
G01 X88.6935 Y31.4815
G01 X12.8983
G01 X12.2028 Y32.9125
G01 X89.3899
G01 X89.8055 Y33.8178
G01 X90.0221 Y34.3435
G01 X11.5741
G01 X11.2879 Y35.0325
G01 X11.0038 Y35.7745
G01 X90.5934
G01 X91.1065 Y37.2055
G01 X10.4897
G01 X10.0367 Y38.6365
G01 X91.5650
G01 X91.9635 Y40.0675
G01 X9.6372
G01 X9.2916 Y41.4985
G01 X92.3054
G01 X92.4239 Y42.0096
G01 X92.5993 Y42.9295
G01 X8.9961
G01 X8.7498 Y44.3605
G01 X92.8436
G01 X92.9865 Y45.3114
G01 X93.0393 Y45.7915
G01 X8.5552
G01 X8.4103 Y47.2225
G01 X93.1871
G01 X93.2877 Y48.6535
G01 X8.3158
G01 X8.2682 Y50.0845
G01 X93.3320
G01 X93.3292 Y51.5155
G01 X8.2676
G01 X8.3157 Y52.9465
G01 X93.2797
G01 X93.2451 Y53.6694
G01 X93.1832 Y54.3775
G01 X8.4105
G01 X8.5553 Y55.8085
G01 X93.0394
G01 X92.8476 Y57.2395
G01 X8.7518
G01 X8.9967 Y58.6705
G01 X92.6075
G01 X92.3100 Y60.1015
G01 X9.2923
G01 X9.6375 Y61.5325
G01 X91.9579
G01 X91.8007 Y62.1474
G01 X91.5574 Y62.9635
G01 X10.0341
G01 X10.4924 Y64.3945
G01 X91.1030
G01 X90.7809 Y65.3377
G01 X90.5926 Y65.8255
G01 X11.0055
G01 X11.2879 Y66.5675
G01 X11.5741 Y67.2565
G01 X90.0238
G01 X89.3937 Y68.6875
G01 X12.2025
G01 X12.9009 Y70.1185
G01 X88.7008
G01 X87.9377 Y71.5495
G01 X13.6680
G01 X13.9902 Y72.1273
G01 X14.5011 Y72.9805
G01 X87.0996
G01 X86.1860 Y74.4115
G01 X15.4154
G01 X15.9383 Y75.1820
G01 X16.4142 Y75.8425
G01 X85.1897
G01 X84.0989 Y77.2735
G01 X17.5019
G01 X18.1171 Y78.0333
G01 X18.6942 Y78.7045
G01 X82.9055
G01 X81.9816 Y79.7401
G01 X81.5999 Y80.1355
G01 X19.9932
G01 X20.6971 Y80.8606
G01 X21.4222 Y81.5665
G01 X80.1800
G01 X79.4794 Y82.2213
G01 X78.5935 Y82.9975
G01 X23.0013
G01 X23.3718 Y83.3193
G01 X24.7494 Y84.4285
G01 X76.8561
G01 X75.5240 Y85.4200
G01 X74.8822 Y85.8595
G01 X26.7100
G01 X27.3580 Y86.3006
G01 X28.3656 Y86.9458
G01 X28.9409 Y87.2905
G01 X72.6595
G01 X72.0061 Y87.6796
G01 X70.8509 Y88.3205
G01 X70.0743 Y88.7215
G01 X31.5236
G01 X32.7818 Y89.3379
G01 X33.8727 Y89.8293
G01 X34.6475 Y90.1525
G01 X66.9511
G03 X62.9044 Y91.5835 I-15.8016 J-38.2484
G01 X38.7003
G02 X45.5566 Y93.0145 I11.9234 J-39.9876
G01 X56.0380
G00 Z2.0000
G00 X23.0035 Y20.0335
G00 Z0.5000
G01 Z-1.5000
G01 Y18.6025
G01 X78.5964
G01 X77.6175 Y17.7751
G01 X76.8435 Y17.1715
G01 X24.7494
G01 X25.3992 Y16.6734
G01 X26.7109 Y15.7405
G01 X74.8949
G01 X73.4499 Y14.7891
G01 X72.6504 Y14.3095
G01 X28.9383
G01 X29.5981 Y13.9177
G01 X30.6437 Y13.3361
G01 X31.5236 Y12.8785
G01 X70.0684
G01 X68.9265 Y12.3130
G01 X67.3974 Y11.6292
G01 X66.9438 Y11.4475
G01 X34.6532
G03 X38.7003 Y10.0165 I15.3888 J37.0835
G01 X62.8908
G02 X56.0608 Y8.5855 I-11.9716 J40.1241
G01 X45.5566
G00 Z2.0000
G00 X80.1792 Y20.0335
G00 Z-1.0000
G01 Z-3.0000 F60
G01 X21.4222 F1800
G01 X20.6971 Y20.7394
G01 X19.9932 Y21.4645
G01 X81.6065
G01 X82.6248 Y22.5688
G01 X82.9034 Y22.8955
G01 X18.6939
G01 X18.2708 Y23.3833
G01 X17.4991 Y24.3265
G01 X84.0915
G01 X84.7471 Y25.1599
G01 X85.1803 Y25.7575
G01 X16.4164
G01 X15.9383 Y26.4180
G01 X15.4154 Y27.1885
G01 X86.1782
G01 X86.6590 Y27.9100
G01 X87.0925 Y28.6195
G01 X14.5010
G01 X14.0075 Y29.4427
G01 X13.6660 Y30.0505
G01 X87.9292
G01 X88.3486 Y30.8019
G01 X88.6935 Y31.4815
G01 X12.8983
G01 X12.2028 Y32.9125
G01 X89.3899
G01 X89.8055 Y33.8178
G01 X90.0221 Y34.3435
G01 X11.5741
G01 X11.2879 Y35.0325
G01 X11.0038 Y35.7745
G01 X90.5934
G01 X91.1065 Y37.2055
G01 X10.4897
G01 X10.0367 Y38.6365
G01 X91.5650
G01 X91.9635 Y40.0675
G01 X9.6372
G01 X9.2916 Y41.4985
G01 X92.3054
G01 X92.4239 Y42.0096
G01 X92.5993 Y42.9295
G01 X8.9961
G01 X8.7498 Y44.3605
G01 X92.8436
G01 X92.9865 Y45.3114
G01 X93.0393 Y45.7915
G01 X8.5552
G01 X8.4103 Y47.2225
G01 X93.1871
G01 X93.2877 Y48.6535
G01 X8.3158
G01 X8.2682 Y50.0845
G01 X93.3320
G01 X93.3292 Y51.5155
G01 X8.2676
G01 X8.3157 Y52.9465
G01 X93.2797
G01 X93.2451 Y53.6694
G01 X93.1832 Y54.3775
G01 X8.4105
G01 X8.5553 Y55.8085
G01 X93.0394
G01 X92.8476 Y57.2395
G01 X8.7518
G01 X8.9967 Y58.6705
G01 X92.6075
G01 X92.3100 Y60.1015
G01 X9.2923
G01 X9.6375 Y61.5325
G01 X91.9579
G01 X91.8007 Y62.1474
G01 X91.5574 Y62.9635
G01 X10.0341
G01 X10.4924 Y64.3945
G01 X91.1030
G01 X90.7809 Y65.3377
G01 X90.5926 Y65.8255
G01 X11.0055
G01 X11.2879 Y66.5675
G01 X11.5741 Y67.2565
G01 X90.0238
G01 X89.3937 Y68.6875
G01 X12.2025
G01 X12.9009 Y70.1185
G01 X88.7008
G01 X87.9377 Y71.5495
G01 X13.6680
G01 X13.9902 Y72.1273
G01 X14.5011 Y72.9805
G01 X87.0996
G01 X86.1860 Y74.4115
G01 X15.4154
G01 X15.9383 Y75.1820
G01 X16.4142 Y75.8425
G01 X85.1897
G01 X84.0989 Y77.2735
G01 X17.5019
G01 X18.1171 Y78.0333
G01 X18.6942 Y78.7045
G01 X82.9055
G01 X81.9816 Y79.7401
G01 X81.5999 Y80.1355
G01 X19.9932
G01 X20.6971 Y80.8606
G01 X21.4222 Y81.5665
G01 X80.1800
G01 X79.4794 Y82.2213
G01 X78.5935 Y82.9975
G01 X23.0013
G01 X23.3718 Y83.3193
G01 X24.7494 Y84.4285
G01 X76.8561
G01 X75.5240 Y85.4200
G01 X74.8822 Y85.8595
G01 X26.7100
G01 X27.3580 Y86.3006
G01 X28.3656 Y86.9458
G01 X28.9409 Y87.2905
G01 X72.6595
G01 X72.0061 Y87.6796
G01 X70.8509 Y88.3205
G01 X70.0743 Y88.7215
G01 X31.5236
G01 X32.7818 Y89.3379
G01 X33.8727 Y89.8293
G01 X34.6475 Y90.1525
G01 X66.9511
G03 X62.9044 Y91.5835 I-15.8016 J-38.2484
G01 X38.7003
G02 X45.5566 Y93.0145 I11.9234 J-39.9876
G01 X56.0380
G00 Z2.0000
G00 X23.0035 Y20.0335
G00 Z-1.0000
G01 Z-3.0000
G01 Y18.6025
G01 X78.5964
G01 X77.6175 Y17.7751
G01 X76.8435 Y17.1715
G01 X24.7494
G01 X25.3992 Y16.6734
G01 X26.7109 Y15.7405
G01 X74.8949
G01 X73.4499 Y14.7891
G01 X72.6504 Y14.3095
G01 X28.9383
G01 X29.5981 Y13.9177
G01 X30.6437 Y13.3361
G01 X31.5236 Y12.8785
G01 X70.0684
G01 X68.9265 Y12.3130
G01 X67.3974 Y11.6292
G01 X66.9438 Y11.4475
G01 X34.6532
G03 X38.7003 Y10.0165 I15.3888 J37.0835
G01 X62.8908
G02 X56.0608 Y8.5855 I-11.9716 J40.1241
G01 X45.5566
G00 Z2.0000


;No. 2: Pocket side wall: Cutout 2
G00 X45.5566 Y8.5855 Z2.0000
G00 X50.7999 Y7.9408
G00 Z0.5000
G01 Z-1.5000 F60
G02 X7.9403 Y50.8005 I0.0000 J42.8597 F1800
G02 X50.7999 Y93.6602 I42.8597 J0.0000
G02 X93.6596 Y50.8005 I0.0000 J-42.8597
G02 X50.7999 Y7.9408 I-42.8597 J0.0000
G01 Z-3.0000 F60
G02 X7.9403 Y50.8005 I0.0000 J42.8597 F1800
G02 X50.7999 Y93.6602 I42.8597 J0.0000
G02 X93.6596 Y50.8005 I0.0000 J-42.8597
G02 X50.7999 Y7.9408 I-42.8597 J0.0000
G00 Z2.0000
G00 X50.7999 Y7.9408 Z2.0000


;No. 3: Pocketing: Cutout 1
G00 X50.7999 Y7.9408 Z2.0000
G00 X56.0380 Y8.5855
G00 Z-2.5000
G01 Z-4.5000 F60
G01 X45.5419 F1800
G02 X38.6988 Y10.0165 I5.1707 J41.8043
G01 X62.9044
G03 X66.9511 Y11.4475 I-11.5548 J39.1130
G01 X59.8497
G03 X60.3237 Y12.8785 I-1.4583 J1.2771
G01 X70.0724
G01 X70.6395 Y13.1674
G01 X71.6899 Y13.7402
G01 X72.6676 Y14.3095
G01 X60.3257
G01 X60.3278 Y15.7405
G01 X74.8928
G01 X75.7184 Y16.3196
G01 X76.8515 Y17.1715
G01 X67.8413
G03 X67.9480 Y18.4120 I-2.9195 J0.8759
G01 X73.6600
G03 X74.4760 Y18.6025 I0.0279 J1.7236
G01 X78.6025
G01 X79.6083 Y19.4966
G01 X80.1755 Y20.0335
G01 X75.5371
G01 X75.5632 Y20.1850
G01 X75.5643 Y21.4645
G01 X81.6047
G01 X82.1439 Y22.0358
G01 X82.9109 Y22.8955
G01 X75.5654
G01 X75.5666 Y24.3265
G01 X84.0959
G01 X84.4565 Y24.7796
G01 X85.1899 Y25.7575
G01 X75.5678
G01 X75.5680 Y26.0320
G01 X81.2800
G01 X81.6591 Y26.0700
G03 X83.0314 Y27.1885 I-0.3700 J1.8551
G01 X86.1831
G01 X86.5297 Y27.7086
G01 X87.1004 Y28.6195
G01 X83.1880
G01 Y30.0505
G01 X87.9347
G01 X88.3486 Y30.8019
G01 X88.6984 Y31.4815
G01 X83.1880
G01 Y32.9125
G01 X89.3948
G01 X90.0288 Y34.3435
G01 X83.1880
G01 Y35.7745
G01 X90.5960
G01 X90.8621 Y36.4874
G01 X91.1073 Y37.2055
G01 X83.1880
G01 Y38.6365
G01 X91.5643
G01 X91.9640 Y40.0675
G01 X83.1880
G01 Y41.2720
G01 X88.9000
G03 X89.7980 Y41.4985 I0.0055 J1.8717
G01 X92.3087
G01 X92.4727 Y42.2439
G01 X92.6034 Y42.9295
G01 X90.7862
G01 X90.8080 Y43.2000
G01 Y44.3605
G01 X92.8490
G01 X93.0461 Y45.7915
G01 X90.8080
G01 Y47.2225
G01 X93.1885
G01 X93.2837 Y48.6535
G01 X90.8080
G01 Y50.0845
G01 X93.3319
G01 X93.3333 Y51.5155
G01 X90.8080
G01 Y52.9465
G01 X93.2877
G01 X93.1887 Y54.3775
G01 X90.8080
G01 Y55.8085
G01 X93.0415
G01 X92.9419 Y56.6195
G01 X92.8464 Y57.2395
G01 X90.8080
G01 Y58.4200
G01 X90.7829 Y58.6705
G01 X92.6036
G01 X92.3103 Y60.1015
G01 X89.7816
G01 X91.9648
G01 Y61.5325
G01 X85.7280
G01 Y62.9635
G01 X91.5623
G01 X91.3222 Y63.7526
G01 X91.1071 Y64.3945
G01 X85.7280
G01 Y65.8255
G01 X90.5977
G01 X90.0282 Y67.2565
G01 X85.2775
G01 Y68.6875
G01 X89.3941
G01 X80.6468
G01 X80.6445 Y70.1185
G01 X88.6967
G01 X88.4719 Y70.5647
G01 X87.9371 Y71.5495
G01 X80.6422
G01 X80.6399 Y72.9805
G01 X87.0980
G01 X86.6590 Y73.6900
G01 X86.1840 Y74.4115
G01 X80.4927
G01 Y75.8425
G01 X85.1873
G01 X73.0276
G01 X73.0252 Y77.2735
G01 X84.0966
G01 X83.8626 Y77.5710
G01 X82.9076 Y78.7045
G01 X73.0229
G01 X73.0206 Y80.1355
G01 X81.6070
G01 X80.6482 Y81.1135
G01 X80.1750 Y81.5665
G01 X73.0040
G03 X71.9415 Y82.9975 I-1.8556 J-0.2678
G01 X78.5998
G01 X77.9873 Y83.5211
G01 X76.8511 Y84.4285
G01 X68.9495
G01 X66.3002 Y85.8595
G01 X74.8956
G01 X73.9416 Y86.4972
G01 X72.6630 Y87.2905
G01 X63.6509
G01 X61.0016 Y88.7215
G01 X70.0743
G03 X66.9511 Y90.1525 I-17.5675 J-34.2177
G01 X59.8472
G01 Y91.5835
G01 X62.8954
G01 X38.7153
G02 X45.5630 Y93.0145 I11.8144 J-39.4352
G01 X56.0511
G00 Z2.0000
G00 X41.7500 Y91.5835
G00 Z-2.5000
G01 Z-4.5000
G01 Y90.1525
G01 X34.6422
G03 X31.5250 Y88.7215 I15.1250 J-37.0581
G01 X41.2748
G01 X41.2720 Y88.2680
G01 X35.5600
G01 X35.1809 Y88.2300
G03 X33.9013 Y87.2905 I0.3614 J-1.8334
G01 X28.9385
G01 X27.9604 Y86.6912
G01 X27.1587 Y86.1682
G01 X26.7160 Y85.8595
G01 X33.6520
G01 Y84.4285
G01 X24.7529
G01 X23.7048 Y83.5975
G01 X22.9950 Y82.9975
G01 X27.1271
G03 X26.0552 Y81.5665 I0.7799 J-1.7012
G01 X21.4285
G01 X20.4762 Y80.6375
G01 X19.9922 Y80.1355
G01 X24.7462
G01 X23.3028 Y78.7045
G01 X18.6992
G01 X18.1171 Y78.0333
G01 X17.5113 Y77.2735
G01 X21.8594
G01 X20.4160 Y75.8425
G01 X16.4210
G01 X15.9383 Y75.1820
G01 X15.4217 Y74.4115
G01 X18.5723
G01 X18.4815 Y74.1704
G01 X18.4398 Y73.9843
G01 X18.4120 Y73.6400
G01 Y72.9805
G01 X14.5073
G01 X14.1282 Y72.3639
G01 X13.6616 Y71.5495
G01 X18.4120
G01 Y70.1185
G01 X12.9067
G01 X12.4414 Y69.1967
G01 X12.2094 Y68.6875
G01 X18.4120
G01 Y67.2565
G01 X11.5778
G01 X11.0032 Y65.8255
G01 X18.4120
G01 Y64.3945
G01 X10.4902
G01 X10.0384 Y62.9635
G01 X18.4120
G01 Y61.5325
G01 X9.6407
G01 X9.5252 Y61.1060
G01 X9.2963 Y60.1015
G01 X11.7999
G03 X10.8138 Y58.6705 I0.8794 J-1.6612
G01 X8.9936
G01 X8.7538 Y57.2395
G01 X10.7920
G01 Y55.8085
G01 X8.5551
G01 X8.4110 Y54.3775
G01 X10.7920
G01 Y52.9465
G01 X8.3201
G01 X8.2864 Y52.3551
G01 X8.2723 Y51.5155
G01 X10.7920
G01 Y50.0845
G01 X8.2666
G01 X8.3152 Y48.6535
G01 X10.7920
G01 Y47.2225
G01 X8.4111
G01 X8.5598 Y45.7915
G01 X10.7920
G01 Y44.3605
G01 X8.7494
G01 X8.8826 Y43.5371
G01 X9.0002 Y42.9295
G01 X10.8171
G03 X11.8051 Y41.4985 I1.8449 J0.2172
G01 X9.2935
G01 X9.6359 Y40.0675
G01 X15.8739
G01 X15.8763 Y38.6365
G01 X10.0357
G01 X10.4951 Y37.2055
G01 X15.8786
G01 X15.8809 Y35.7745
G01 X11.0076
G01 X11.1998 Y35.2550
G01 X11.5800 Y34.3435
G01 X16.3120
G01 X12.2117
G01 Y32.9125
G01 X20.9532
G01 X20.9555 Y31.4815
G01 X12.9055
G01 X13.4215 Y30.4858
G01 X13.6644 Y30.0505
G01 X20.9578
G01 X20.9601 Y28.6195
G01 X14.5040
G01 X15.4172 Y27.1885
G01 X21.1067
G03 X22.1686 Y26.1617 I1.7517 J0.7490
G01 X22.5357 Y26.0598
G01 X22.8800 Y26.0320
G01 X26.0320
G01 X26.0324 Y25.7575
G01 X16.4162
G01 X17.2168 Y24.6851
G01 X17.5081 Y24.3265
G01 X26.0348
G01 X26.0371 Y22.8955
G01 X18.6986
G01 X19.5371 Y21.9477
G01 X20.0024 Y21.4645
G01 X26.0394
G01 X26.0415 Y20.1295
G01 X26.0560 Y20.0335
G01 X21.4329
G01 X22.0799 Y19.4157
G01 X23.0044 Y18.6025
G01 X27.1291
G01 Y17.1715
G01 X24.7448
G01 X41.2720
G01 Y15.7405
G01 X26.7172
G01 X27.5581 Y15.1681
G01 X28.9346 Y14.3095
G01 X41.2720
G01 Y12.8785
G01 X31.5359
G03 X34.6413 Y11.4475 I17.6511 J34.2197
G01 X41.7447
G00 Z2.0000
G00 X56.0380 Y8.5855
G00 Z-4.0000
G01 Z-6.0000 F60
G01 X45.5419 F1800
G02 X38.6988 Y10.0165 I5.1707 J41.8043
G01 X62.9044
G03 X66.9511 Y11.4475 I-11.5548 J39.1130
G01 X59.8497
G03 X60.3237 Y12.8785 I-1.4583 J1.2771
G01 X70.0724
G01 X70.6395 Y13.1674
G01 X71.6899 Y13.7402
G01 X72.6676 Y14.3095
G01 X60.3257
G01 X60.3278 Y15.7405
G01 X74.8928
G01 X75.7184 Y16.3196
G01 X76.8515 Y17.1715
G01 X67.8413
G03 X67.9480 Y18.4120 I-2.9195 J0.8759
G01 X73.6600
G03 X74.4760 Y18.6025 I0.0279 J1.7236
G01 X78.6025
G01 X79.6083 Y19.4966
G01 X80.1755 Y20.0335
G01 X75.5371
G01 X75.5632 Y20.1850
G01 X75.5643 Y21.4645
G01 X81.6047
G01 X82.1439 Y22.0358
G01 X82.9109 Y22.8955
G01 X75.5654
G01 X75.5666 Y24.3265
G01 X84.0959
G01 X84.4565 Y24.7796
G01 X85.1899 Y25.7575
G01 X75.5678
G01 X75.5680 Y26.0320
G01 X81.2800
G01 X81.6591 Y26.0700
G03 X83.0314 Y27.1885 I-0.3700 J1.8551
G01 X86.1831
G01 X86.5297 Y27.7086
G01 X87.1004 Y28.6195
G01 X83.1880
G01 Y30.0505
G01 X87.9347
G01 X88.3486 Y30.8019
G01 X88.6984 Y31.4815
G01 X83.1880
G01 Y32.9125
G01 X89.3948
G01 X90.0288 Y34.3435
G01 X83.1880
G01 Y35.7745
G01 X90.5960
G01 X90.8621 Y36.4874
G01 X91.1073 Y37.2055
G01 X83.1880
G01 Y38.6365
G01 X91.5643
G01 X91.9640 Y40.0675
G01 X83.1880
G01 Y41.2720
G01 X88.9000
G03 X89.7980 Y41.4985 I0.0055 J1.8717
G01 X92.3087
G01 X92.4727 Y42.2439
G01 X92.6034 Y42.9295
G01 X90.7862
G01 X90.8080 Y43.2000
G01 Y44.3605
G01 X92.8490
G01 X93.0461 Y45.7915
G01 X90.8080
G01 Y47.2225
G01 X93.1885
G01 X93.2837 Y48.6535
G01 X90.8080
G01 Y50.0845
G01 X93.3319
G01 X93.3333 Y51.5155
G01 X90.8080
G01 Y52.9465
G01 X93.2877
G01 X93.1887 Y54.3775
G01 X90.8080
G01 Y55.8085
G01 X93.0415
G01 X92.9419 Y56.6195
G01 X92.8464 Y57.2395
G01 X90.8080
G01 Y58.4200
G01 X90.7829 Y58.6705
G01 X92.6036
G01 X92.3103 Y60.1015
G01 X89.7816
G01 X91.9648
G01 Y61.5325
G01 X85.7280
G01 Y62.9635
G01 X91.5623
G01 X91.3222 Y63.7526
G01 X91.1071 Y64.3945
G01 X85.7280
G01 Y65.8255
G01 X90.5977
G01 X90.0282 Y67.2565
G01 X85.2775
G01 Y68.6875
G01 X89.3941
G01 X80.6468
G01 X80.6445 Y70.1185
G01 X88.6967
G01 X88.4719 Y70.5647
G01 X87.9371 Y71.5495
G01 X80.6422
G01 X80.6399 Y72.9805
G01 X87.0980
G01 X86.6590 Y73.6900
G01 X86.1840 Y74.4115
G01 X80.4927
G01 Y75.8425
G01 X85.1873
G01 X73.0276
G01 X73.0252 Y77.2735
G01 X84.0966
G01 X83.8626 Y77.5710
G01 X82.9076 Y78.7045
G01 X73.0229
G01 X73.0206 Y80.1355
G01 X81.6070
G01 X80.6482 Y81.1135
G01 X80.1750 Y81.5665
G01 X73.0040
G03 X71.9415 Y82.9975 I-1.8556 J-0.2678
G01 X78.5998
G01 X77.9873 Y83.5211
G01 X76.8511 Y84.4285
G01 X68.9495
G01 X66.3002 Y85.8595
G01 X74.8956
G01 X73.9416 Y86.4972
G01 X72.6630 Y87.2905
G01 X63.6509
G01 X61.0016 Y88.7215
G01 X70.0743
G03 X66.9511 Y90.1525 I-17.5675 J-34.2177
G01 X59.8472
G01 Y91.5835
G01 X62.8954
G01 X38.7153
G02 X45.5630 Y93.0145 I11.8144 J-39.4352
G01 X56.0511
G00 Z2.0000
G00 X41.7500 Y91.5835
G00 Z-4.0000
G01 Z-6.0000
G01 Y90.1525
G01 X34.6422
G03 X31.5250 Y88.7215 I15.1250 J-37.0581
G01 X41.2748
G01 X41.2720 Y88.2680
G01 X35.5600
G01 X35.1809 Y88.2300
G03 X33.9013 Y87.2905 I0.3614 J-1.8334
G01 X28.9385
G01 X27.9604 Y86.6912
G01 X27.1587 Y86.1682
G01 X26.7160 Y85.8595
G01 X33.6520
G01 Y84.4285
G01 X24.7529
G01 X23.7048 Y83.5975
G01 X22.9950 Y82.9975
G01 X27.1271
G03 X26.0552 Y81.5665 I0.7799 J-1.7012
G01 X21.4285
G01 X20.4762 Y80.6375
G01 X19.9922 Y80.1355
G01 X24.7462
G01 X23.3028 Y78.7045
G01 X18.6992
G01 X18.1171 Y78.0333
G01 X17.5113 Y77.2735
G01 X21.8594
G01 X20.4160 Y75.8425
G01 X16.4210
G01 X15.9383 Y75.1820
G01 X15.4217 Y74.4115
G01 X18.5723
G01 X18.4815 Y74.1704
G01 X18.4398 Y73.9843
G01 X18.4120 Y73.6400
G01 Y72.9805
G01 X14.5073
G01 X14.1282 Y72.3639
G01 X13.6616 Y71.5495
G01 X18.4120
G01 Y70.1185
G01 X12.9067
G01 X12.4414 Y69.1967
G01 X12.2094 Y68.6875
G01 X18.4120
G01 Y67.2565
G01 X11.5778
G01 X11.0032 Y65.8255
G01 X18.4120
G01 Y64.3945
G01 X10.4902
G01 X10.0384 Y62.9635
G01 X18.4120
G01 Y61.5325
G01 X9.6407
G01 X9.5252 Y61.1060
G01 X9.2963 Y60.1015
G01 X11.7999
G03 X10.8138 Y58.6705 I0.8794 J-1.6612
G01 X8.9936
G01 X8.7538 Y57.2395
G01 X10.7920
G01 Y55.8085
G01 X8.5551
G01 X8.4110 Y54.3775
G01 X10.7920
G01 Y52.9465
G01 X8.3201
G01 X8.2864 Y52.3551
G01 X8.2723 Y51.5155
G01 X10.7920
G01 Y50.0845
G01 X8.2666
G01 X8.3152 Y48.6535
G01 X10.7920
G01 Y47.2225
G01 X8.4111
G01 X8.5598 Y45.7915
G01 X10.7920
G01 Y44.3605
G01 X8.7494
G01 X8.8826 Y43.5371
G01 X9.0002 Y42.9295
G01 X10.8171
G03 X11.8051 Y41.4985 I1.8449 J0.2172
G01 X9.2935
G01 X9.6359 Y40.0675
G01 X15.8739
G01 X15.8763 Y38.6365
G01 X10.0357
G01 X10.4951 Y37.2055
G01 X15.8786
G01 X15.8809 Y35.7745
G01 X11.0076
G01 X11.1998 Y35.2550
G01 X11.5800 Y34.3435
G01 X16.3120
G01 X12.2117
G01 Y32.9125
G01 X20.9532
G01 X20.9555 Y31.4815
G01 X12.9055
G01 X13.4215 Y30.4858
G01 X13.6644 Y30.0505
G01 X20.9578
G01 X20.9601 Y28.6195
G01 X14.5040
G01 X15.4172 Y27.1885
G01 X21.1067
G03 X22.1686 Y26.1617 I1.7517 J0.7490
G01 X22.5357 Y26.0598
G01 X22.8800 Y26.0320
G01 X26.0320
G01 X26.0324 Y25.7575
G01 X16.4162
G01 X17.2168 Y24.6851
G01 X17.5081 Y24.3265
G01 X26.0348
G01 X26.0371 Y22.8955
G01 X18.6986
G01 X19.5371 Y21.9477
G01 X20.0024 Y21.4645
G01 X26.0394
G01 X26.0415 Y20.1295
G01 X26.0560 Y20.0335
G01 X21.4329
G01 X22.0799 Y19.4157
G01 X23.0044 Y18.6025
G01 X27.1291
G01 Y17.1715
G01 X24.7448
G01 X41.2720
G01 Y15.7405
G01 X26.7172
G01 X27.5581 Y15.1681
G01 X28.9346 Y14.3095
G01 X41.2720
G01 Y12.8785
G01 X31.5359
G03 X34.6413 Y11.4475 I17.6511 J34.2197
G01 X41.7447
G00 Z2.0000


;No. 4: Island side wall: Part 2
G00 X41.7447 Y11.4475 Z2.0000
G00 X60.0100 Y88.9000
G00 Z-2.5000
G01 Z-4.5000 F60
G03 X58.5325 Y90.4860 I-1.5900 J0.0000 F1800
G01 X43.1800 Y90.4900
G03 X41.8421 Y89.7591 I0.0000 J-1.5900
G01 X41.6981 Y89.4761
G01 X41.6131 Y89.1702
G01 X41.5900 Y88.8800
G01 X41.5800 Y87.9500
G01 X35.5600
G03 X34.6622 Y87.6723 I0.0000 J-1.5900
G03 X33.9931 Y86.6302 I0.8978 J-1.3123
G01 X33.9700 Y86.3400
G01 X33.9600 Y82.8700
G01 X27.7813 Y82.8621
G03 X26.6021 Y82.1391 I0.1587 J-1.5821
G03 X26.3540 Y81.3925 I1.3379 J-0.8591
G01 X26.3500 Y75.2500
G01 X20.1613 Y75.2421
G03 X18.9821 Y74.5191 I0.1587 J-1.5821
G03 X18.7300 Y73.6400 I1.3394 J-0.8597
G01 Y60.0100
G01 X12.7000
G01 X12.3841 Y59.9783
G03 X11.1331 Y58.6902 I0.3159 J-1.5583
G01 X11.1100 Y58.4000
G01 Y43.1800
G01 X11.1417 Y42.8641
G01 X11.2355 Y42.5608
G03 X12.4298 Y41.6131 I1.4645 J0.6192
G01 X12.7200 Y41.5900
G01 X16.1900 Y41.5800
G01 Y35.5600
G01 X16.2217 Y35.2441
G01 X16.3155 Y34.9408
G03 X17.5098 Y33.9931 I1.4645 J0.6192
G01 X17.8000 Y33.9700
G01 X21.2700 Y33.9600
G01 X21.2779 Y27.7813
G03 X21.7522 Y26.7994 I1.5821 J0.1587
G03 X22.7475 Y26.3540 I1.1078 J1.1406
G01 X26.3500 Y26.3500
G01 Y20.3200
G03 X26.6277 Y19.4222 I1.5900 J0.0000
G03 X27.8275 Y18.7340 I1.3123 J0.8978
G01 X41.5900 Y18.7300
G01 Y12.7000
G01 X41.6217 Y12.3841
G03 X43.2000 Y11.1100 I1.5586 J0.3160
G01 X58.4200
G01 X58.7359 Y11.1417
G03 X59.9521 Y12.2747 I-0.3159 J1.5583
G01 X59.9869 Y12.4298
G01 X60.0100 Y12.7200
G01 X60.0200 Y16.1900
G01 X66.0400
G01 X66.3559 Y16.2217
G03 X67.4570 Y17.0588 I-0.3159 J1.5583
G01 X67.5721 Y17.3547
G01 X67.6260 Y17.6675
G01 X67.6400 Y18.7300
G01 X73.6600
G03 X74.5578 Y19.0077 I0.0000 J1.5900
G03 X75.2460 Y20.2075 I-0.8978 J1.3123
G01 X75.2500 Y26.3500
G01 X81.4387 Y26.3579
G03 X82.7619 Y27.3639 I-0.1587 J1.5821
G01 X82.8469 Y27.6698
G01 X82.8700 Y27.9600
G01 Y41.5900
G01 X88.9000
G01 X89.2159 Y41.6217
G03 X90.4669 Y42.9098 I-0.3159 J1.5583
G01 X90.4900 Y43.2000
G01 Y58.4200
G03 X90.2123 Y59.3178 I-1.5900 J0.0000
G03 X89.1702 Y59.9869 I-1.3123 J-0.8978
G01 X88.8800 Y60.0100
G01 X85.4100
G01 Y66.0400
G01 X85.3783 Y66.3559
G01 X85.2845 Y66.6592
G03 X84.0902 Y67.6069 I-1.4645 J-0.6192
G01 X83.8000 Y67.6300
G01 X80.3300 Y67.6400
G01 X80.3221 Y73.8187
G03 X79.8478 Y74.8006 I-1.5821 J-0.1587
G03 X78.8525 Y75.2460 I-1.1078 J-1.1406
G01 X72.7100 Y75.2500
G01 X72.7021 Y81.4387
G03 X72.1084 Y82.5255 I-1.5821 J-0.1587
G03 X71.1000 Y82.8700 I-0.9889 J-1.2463
G01 X60.0100
G01 Y88.9000
G01 Z-6.0000 F60
G03 X58.5325 Y90.4860 I-1.5900 J0.0000 F1800
G01 X43.1800 Y90.4900
G03 X41.8421 Y89.7591 I0.0000 J-1.5900
G01 X41.6981 Y89.4761
G01 X41.6131 Y89.1702
G01 X41.5900 Y88.8800
G01 X41.5800 Y87.9500
G01 X35.5600
G03 X34.6622 Y87.6723 I0.0000 J-1.5900
G03 X33.9931 Y86.6302 I0.8978 J-1.3123
G01 X33.9700 Y86.3400
G01 X33.9600 Y82.8700
G01 X27.7813 Y82.8621
G03 X26.6021 Y82.1391 I0.1587 J-1.5821
G03 X26.3540 Y81.3925 I1.3379 J-0.8591
G01 X26.3500 Y75.2500
G01 X20.1613 Y75.2421
G03 X18.9821 Y74.5191 I0.1587 J-1.5821
G03 X18.7300 Y73.6400 I1.3394 J-0.8597
G01 Y60.0100
G01 X12.7000
G01 X12.3841 Y59.9783
G03 X11.1331 Y58.6902 I0.3159 J-1.5583
G01 X11.1100 Y58.4000
G01 Y43.1800
G01 X11.1417 Y42.8641
G01 X11.2355 Y42.5608
G03 X12.4298 Y41.6131 I1.4645 J0.6192
G01 X12.7200 Y41.5900
G01 X16.1900 Y41.5800
G01 Y35.5600
G01 X16.2217 Y35.2441
G01 X16.3155 Y34.9408
G03 X17.5098 Y33.9931 I1.4645 J0.6192
G01 X17.8000 Y33.9700
G01 X21.2700 Y33.9600
G01 X21.2779 Y27.7813
G03 X21.7522 Y26.7994 I1.5821 J0.1587
G03 X22.7475 Y26.3540 I1.1078 J1.1406
G01 X26.3500 Y26.3500
G01 Y20.3200
G03 X26.6277 Y19.4222 I1.5900 J0.0000
G03 X27.8275 Y18.7340 I1.3123 J0.8978
G01 X41.5900 Y18.7300
G01 Y12.7000
G01 X41.6217 Y12.3841
G03 X43.2000 Y11.1100 I1.5586 J0.3160
G01 X58.4200
G01 X58.7359 Y11.1417
G03 X59.9521 Y12.2747 I-0.3159 J1.5583
G01 X59.9869 Y12.4298
G01 X60.0100 Y12.7200
G01 X60.0200 Y16.1900
G01 X66.0400
G01 X66.3559 Y16.2217
G03 X67.4570 Y17.0588 I-0.3159 J1.5583
G01 X67.5721 Y17.3547
G01 X67.6260 Y17.6675
G01 X67.6400 Y18.7300
G01 X73.6600
G03 X74.5578 Y19.0077 I0.0000 J1.5900
G03 X75.2460 Y20.2075 I-0.8978 J1.3123
G01 X75.2500 Y26.3500
G01 X81.4387 Y26.3579
G03 X82.7619 Y27.3639 I-0.1587 J1.5821
G01 X82.8469 Y27.6698
G01 X82.8700 Y27.9600
G01 Y41.5900
G01 X88.9000
G01 X89.2159 Y41.6217
G03 X90.4669 Y42.9098 I-0.3159 J1.5583
G01 X90.4900 Y43.2000
G01 Y58.4200
G03 X90.2123 Y59.3178 I-1.5900 J0.0000
G03 X89.1702 Y59.9869 I-1.3123 J-0.8978
G01 X88.8800 Y60.0100
G01 X85.4100
G01 Y66.0400
G01 X85.3783 Y66.3559
G01 X85.2845 Y66.6592
G03 X84.0902 Y67.6069 I-1.4645 J-0.6192
G01 X83.8000 Y67.6300
G01 X80.3300 Y67.6400
G01 X80.3221 Y73.8187
G03 X79.8478 Y74.8006 I-1.5821 J-0.1587
G03 X78.8525 Y75.2460 I-1.1078 J-1.1406
G01 X72.7100 Y75.2500
G01 X72.7021 Y81.4387
G03 X72.1084 Y82.5255 I-1.5821 J-0.1587
G03 X71.1000 Y82.8700 I-0.9889 J-1.2463
G01 X60.0100
G01 Y88.9000
G00 Z2.0000


;No. 5: Pocket side wall: Cutout 1
G00 X60.0100 Y88.9000 Z2.0000
G00 X50.8002 Y7.9406
G00 Z-2.5000
G01 Z-4.5000 F60
G02 X7.9405 Y50.8003 I0.0000 J42.8597 F1800
G02 X50.8002 Y93.6601 I42.8597 J0.0000
G02 X93.6599 Y50.8003 I0.0000 J-42.8597
G02 X50.8002 Y7.9406 I-42.8597 J0.0000
G01 Z-6.0000 F60
G02 X7.9405 Y50.8003 I0.0000 J42.8597 F1800
G02 X50.8002 Y93.6601 I42.8597 J0.0000
G02 X93.6599 Y50.8003 I0.0000 J-42.8597
G02 X50.8002 Y7.9406 I-42.8597 J0.0000
G00 Z2.0000


;No. 6: Path 1
G00 X50.8002 Y7.9406 Z2.0000
G00 X48.2477 Y103.1256
G00 Z0.5000
G01 Z-1.5000 F60
G03 X-1.5203 Y53.4602 I2.5464 J-52.3198 F1800
G03 X-1.5453 Y48.6920 I50.1222 J-2.6471
G03 X48.2629 Y-1.5265 I52.3397 J2.1022
G03 X53.0311 Y-1.5383 I2.5057 J49.3740
G03 X103.1369 Y48.5445 I-2.2195 J52.3263
G03 X103.1259 Y53.3127 I-48.4593 J2.2731
G03 X53.0159 Y103.1391 I-52.3156 J-2.5025
G03 X48.2477 Y103.1256 I-2.2446 J-49.2463
G01 Z-3.0000 F60
G03 X-1.5203 Y53.4602 I2.5464 J-52.3198 F1800
G03 X-1.5453 Y48.6920 I50.1222 J-2.6471
G03 X48.2629 Y-1.5265 I52.3397 J2.1022
G03 X53.0311 Y-1.5383 I2.5057 J49.3740
G03 X103.1369 Y48.5445 I-2.2195 J52.3263
G03 X103.1259 Y53.3127 I-48.4593 J2.2731
G03 X53.0159 Y103.1391 I-52.3156 J-2.5025
G03 X48.2477 Y103.1256 I-2.2446 J-49.2463
G01 Z-4.5000 F60
G03 X-1.5203 Y53.4602 I2.5464 J-52.3198 F1800
G03 X-1.5453 Y48.6920 I50.1222 J-2.6471
G03 X48.2629 Y-1.5265 I52.3397 J2.1022
G03 X53.0311 Y-1.5383 I2.5057 J49.3740
G03 X103.1369 Y48.5445 I-2.2195 J52.3263
G03 X103.1259 Y53.3127 I-48.4593 J2.2731
G03 X53.0159 Y103.1391 I-52.3156 J-2.5025
G03 X48.2477 Y103.1256 I-2.2446 J-49.2463
G01 Z-6.0000 F60
G03 X-1.5203 Y53.4602 I2.5464 J-52.3198 F1800
G03 X-1.5453 Y48.6920 I50.1222 J-2.6471
G03 X48.2629 Y-1.5265 I52.3397 J2.1022
G03 X53.0311 Y-1.5383 I2.5057 J49.3740
G03 X103.1369 Y48.5445 I-2.2195 J52.3263
G03 X103.1259 Y53.3127 I-48.4593 J2.2731
G03 X53.0159 Y103.1391 I-52.3156 J-2.5025
G03 X48.2477 Y103.1256 I-2.2446 J-49.2463
G01 Z-7.5000 F60
G03 X-1.5203 Y53.4602 I2.5464 J-52.3198 F1800
G00 Z-7.0000
G03 X-1.5453 Y48.6920 I50.1222 J-2.6471
G01 Z-7.5000 F60
G03 X48.2629 Y-1.5265 I52.3397 J2.1022 F1800
G00 Z-7.0000
G03 X53.0311 Y-1.5383 I2.5057 J49.3740
G01 Z-7.5000 F60
G03 X103.1369 Y48.5445 I-2.2195 J52.3263 F1800
G00 Z-7.0000
G03 X103.1259 Y53.3127 I-48.4593 J2.2731
G01 Z-7.5000 F60
G03 X53.0159 Y103.1391 I-52.3156 J-2.5025 F1800
G00 Z-7.0000
G03 X48.2477 Y103.1256 I-2.2446 J-49.2463
G01 Z-9.0000 F60
G03 X-1.5203 Y53.4602 I2.5464 J-52.3198 F1800
G00 Z-7.0000
G03 X-1.5453 Y48.6920 I50.1222 J-2.6471
G01 Z-9.0000 F60
G03 X48.2629 Y-1.5265 I52.3397 J2.1022 F1800
G00 Z-7.0000
G03 X53.0311 Y-1.5383 I2.5057 J49.3740
G01 Z-9.0000 F60
G03 X103.1369 Y48.5445 I-2.2195 J52.3263 F1800
G00 Z-7.0000
G03 X103.1259 Y53.3127 I-48.4593 J2.2731
G01 Z-9.0000 F60
G03 X53.0159 Y103.1391 I-52.3156 J-2.5025 F1800
G00 Z-7.0000
G03 X48.2477 Y103.1256 I-2.2446 J-49.2463
G00 Z-8.5000
G01 Z-10.5000 F60
G03 X-1.5203 Y53.4602 I2.5464 J-52.3198 F1800
G00 Z-7.0000
G03 X-1.5453 Y48.6920 I50.1222 J-2.6471
G00 Z-8.5000
G01 Z-10.5000 F60
G03 X48.2629 Y-1.5265 I52.3397 J2.1022 F1800
G00 Z-7.0000
G03 X53.0311 Y-1.5383 I2.5057 J49.3740
G00 Z-8.5000
G01 Z-10.5000 F60
G03 X103.1369 Y48.5445 I-2.2195 J52.3263 F1800
G00 Z-7.0000
G03 X103.1259 Y53.3127 I-48.4593 J2.2731
G00 Z-8.5000
G01 Z-10.5000 F60
G03 X53.0159 Y103.1391 I-52.3156 J-2.5025 F1800
G00 Z-7.0000
G03 X48.2477 Y103.1256 I-2.2446 J-49.2463
G00 Z-10.0000
G01 Z-12.0000 F60
G03 X-1.5203 Y53.4602 I2.5464 J-52.3198 F1800
G00 Z-7.0000
G03 X-1.5453 Y48.6920 I50.1222 J-2.6471
G00 Z-10.0000
G01 Z-12.0000 F60
G03 X48.2629 Y-1.5265 I52.3397 J2.1022 F1800
G00 Z-7.0000
G03 X53.0311 Y-1.5383 I2.5057 J49.3740
G00 Z-10.0000
G01 Z-12.0000 F60
G03 X103.1369 Y48.5445 I-2.2195 J52.3263 F1800
G00 Z-7.0000
G03 X103.1259 Y53.3127 I-48.4593 J2.2731
G00 Z-10.0000
G01 Z-12.0000 F60
G03 X53.0159 Y103.1391 I-52.3156 J-2.5025 F1800
G00 Z-7.0000
G03 X48.2477 Y103.1256 I-2.2446 J-49.2463
G00 Z-11.5000
G01 Z-13.0000 F60
G03 X-1.5203 Y53.4602 I2.5464 J-52.3198 F1800
G00 Z-7.0000
G03 X-1.5453 Y48.6920 I50.1222 J-2.6471
G00 Z-11.5000
G01 Z-13.0000 F60
G03 X48.2629 Y-1.5265 I52.3397 J2.1022 F1800
G00 Z-7.0000
G03 X53.0311 Y-1.5383 I2.5057 J49.3740
G00 Z-11.5000
G01 Z-13.0000 F60
G03 X103.1369 Y48.5445 I-2.2195 J52.3263 F1800
G00 Z-7.0000
G03 X103.1259 Y53.3127 I-48.4593 J2.2731
G00 Z-11.5000
G01 Z-13.0000 F60
G03 X53.0159 Y103.1391 I-52.3156 J-2.5025 F1800
G00 Z-7.0000
G03 X48.2477 Y103.1256 I-2.2446 J-49.2463
G00 Z2.0000
G00 X0.0000 Y0.0000

M05
